;FLAVOR:Marlin
;TIME:10067
;Filament used: 6.67266m
;Layer height: 0.2
;MINX:81.751
;MINY:103.985
;MINZ:0.2
;MAXX:191.083
;MAXY:158.105
;MAXZ:15.2
;Generated with Creality Slicer 4.8.2-254
M140 S60
M105
M190 S60
M104 S200
M105
M109 S200
M82 ;absolute extrusion mode

G28 ;Home

G92 E0 ;Reset Extruder
G1 Z2.0 F3000 ;Move Z Axis up
G1 X10.1 Y20 Z0.28 F5000.0 ;Move to start position
G1 X10.1 Y200.0 Z0.28 F1500.0 E15 ;Draw the first line
G1 X10.4 Y200.0 Z0.28 F5000.0 ;Move to side a little
G1 X10.4 Y20 Z0.28 F1500.0 E30 ;Draw the second line
G92 E0 ;Reset Extruder
G1 Z2.0 F3000 ;Move Z Axis up

G92 E0
G92 E0
G1 F3600 E-0.8
;LAYER_COUNT:76
;LAYER:0
M107
;MESH:battery_house1.stl
G0 F6000 X165.772 Y131.322 Z0.2
;TYPE:WALL-INNER
G1 F3600 E0
G1 F1200 X166.177 Y131.411 E0.01379
G1 X166.56 Y131.435 E0.02656
G1 X166.592 Y131.438 E0.02762
G1 X167.009 Y131.399 E0.04155
G1 X167.414 Y131.294 E0.05547
G1 X167.794 Y131.128 E0.06926
G1 X168.145 Y130.907 E0.08306
G1 X168.456 Y130.63 E0.09691
G1 X168.724 Y130.309 E0.11082
G1 X168.952 Y129.915 E0.12596
G1 X169.101 Y129.519 E0.14003
G1 X169.183 Y129.114 E0.15377
G1 X169.204 Y128.701 E0.16753
G1 X169.157 Y128.282 E0.18155
G1 X169.047 Y127.881 E0.19538
G1 X168.873 Y127.502 E0.20925
G1 X168.647 Y127.156 E0.223
G1 X168.362 Y126.845 E0.23703
G1 X168.036 Y126.588 E0.25084
G1 X167.677 Y126.383 E0.26459
G1 X167.283 Y126.235 E0.27858
G1 X166.88 Y126.154 E0.29226
G1 X166.466 Y126.132 E0.30605
G1 X166.048 Y126.18 E0.32004
G1 X165.649 Y126.291 E0.33381
G1 X165.268 Y126.463 E0.34772
G1 X164.929 Y126.687 E0.36123
G1 X164.673 Y126.911 E0.37255
G1 X164.408 Y127.223 E0.38616
G1 X164.187 Y127.582 E0.40018
G1 X164.017 Y128 E0.41519
G1 X163.925 Y128.412 E0.42923
G1 X163.899 Y128.824 E0.44296
G1 X163.937 Y129.242 E0.45692
G1 X164.042 Y129.647 E0.47084
G1 X164.208 Y130.028 E0.48466
G1 X164.43 Y130.378 E0.49845
G1 X164.705 Y130.69 E0.51228
G1 X165.028 Y130.956 E0.5262
G1 X165.384 Y131.167 E0.53996
G1 X165.772 Y131.322 E0.55386
G0 F6000 X165.89 Y130.938
G1 F1200 X166.234 Y131.014 E0.56557
G1 X166.586 Y131.037 E0.57731
G1 X166.94 Y131.004 E0.58913
G1 X167.283 Y130.915 E0.60092
G1 X167.606 Y130.774 E0.61264
G1 X167.904 Y130.586 E0.62436
G1 X168.168 Y130.351 E0.63611
G1 X168.395 Y130.079 E0.6479
G1 X168.589 Y129.743 E0.6608
G1 X168.715 Y129.408 E0.67271
G1 X168.785 Y129.064 E0.68438
G1 X168.803 Y128.713 E0.69607
G1 X168.763 Y128.358 E0.70795
G1 X168.67 Y128.018 E0.71968
G1 X168.522 Y127.696 E0.73146
G1 X168.33 Y127.402 E0.74314
G1 X168.089 Y127.139 E0.75501
G1 X167.812 Y126.921 E0.76673
G1 X167.506 Y126.746 E0.77846
G1 X167.173 Y126.621 E0.79029
G1 X166.83 Y126.552 E0.80192
G1 X166.478 Y126.533 E0.81365
G1 X166.125 Y126.574 E0.82547
G1 X165.785 Y126.668 E0.8372
G1 X165.462 Y126.814 E0.84899
G1 X165.172 Y127.006 E0.86056
G1 X164.959 Y127.193 E0.86999
G1 X164.732 Y127.459 E0.88162
G1 X164.545 Y127.763 E0.89349
G1 X164.4 Y128.12 E0.9063
G1 X164.322 Y128.469 E0.9182
G1 X164.3 Y128.819 E0.92986
G1 X164.332 Y129.173 E0.94168
G1 X164.421 Y129.516 E0.95347
G1 X164.562 Y129.84 E0.96522
G1 X164.751 Y130.137 E0.97693
G1 X164.984 Y130.402 E0.98867
G1 X165.258 Y130.628 E1.00048
G1 X165.561 Y130.807 E1.01219
G1 X165.89 Y130.938 E1.02396
G0 F6000 X166.008 Y130.554
;TYPE:WALL-OUTER
G1 F1200 X166.291 Y130.617 E1.03361
G1 X166.581 Y130.636 E1.04327
G1 X166.871 Y130.609 E1.05296
G1 X167.152 Y130.536 E1.06262
G1 X167.418 Y130.42 E1.07227
G1 X167.663 Y130.265 E1.08191
G1 X167.88 Y130.072 E1.09157
G1 X168.066 Y129.849 E1.10123
G1 X168.226 Y129.572 E1.11187
G1 X168.329 Y129.297 E1.12163
G1 X168.387 Y129.013 E1.13128
G1 X168.402 Y128.725 E1.14087
G1 X168.369 Y128.434 E1.15061
G1 X168.293 Y128.155 E1.16023
G1 X168.171 Y127.89 E1.16993
G1 X168.013 Y127.648 E1.17954
G1 X167.816 Y127.433 E1.18924
G1 X167.588 Y127.253 E1.1989
G1 X167.336 Y127.109 E1.20856
G1 X167.063 Y127.007 E1.21825
G1 X166.779 Y126.95 E1.22788
G1 X166.49 Y126.934 E1.23751
G1 X166.202 Y126.968 E1.24715
G1 X165.921 Y127.045 E1.25685
G1 X165.656 Y127.165 E1.26652
G1 X165.416 Y127.324 E1.2761
G1 X165.244 Y127.475 E1.28371
G1 X165.056 Y127.695 E1.29333
G1 X164.903 Y127.944 E1.30305
G1 X164.783 Y128.24 E1.31368
G1 X164.719 Y128.526 E1.32342
G1 X164.701 Y128.814 E1.33302
G1 X164.727 Y129.104 E1.34271
G1 X164.8 Y129.385 E1.35236
G1 X164.916 Y129.651 E1.36201
G1 X165.072 Y129.896 E1.37168
G1 X165.263 Y130.114 E1.38132
G1 X165.488 Y130.299 E1.391
G1 X165.738 Y130.447 E1.40067
G1 X166.008 Y130.554 E1.41033
G0 F6000 X165.879 Y130.974
G1 F3600 E0.61033
G0 F6000 X164.039 Y130.118
G0 X165.679 Y129.24
G0 X159.965 Y129.263
G0 X159.887 Y118.194
G0 X93.297 Y117.454
G0 X93.216 Y118.5
G0 X93.135 Y129.535
G0 X87.157 Y129.56
G0 X88.297 Y131.03
G0 X87.459 Y131.279
;TYPE:WALL-INNER
G1 F3600 E1.41033
G1 F1200 X87.836 Y131.106 E1.42412
G1 X88.18 Y130.879 E1.43783
G1 X88.488 Y130.6 E1.45165
G1 X88.748 Y130.273 E1.46555
G1 X88.956 Y129.909 E1.47949
G1 X89.101 Y129.517 E1.49339
G1 X89.183 Y129.118 E1.50694
G1 X89.204 Y128.741 E1.5195
G1 X89.165 Y128.328 E1.5333
G1 X89.06 Y127.923 E1.54721
G1 X88.894 Y127.54 E1.5611
G1 X88.649 Y127.16 E1.57613
G1 X88.364 Y126.847 E1.59021
G1 X88.036 Y126.587 E1.60413
G1 X87.677 Y126.384 E1.61785
G1 X87.286 Y126.236 E1.63176
G1 X86.882 Y126.154 E1.64547
G1 X86.466 Y126.132 E1.65932
G1 X86.047 Y126.18 E1.67335
G1 X85.649 Y126.291 E1.68709
G1 X85.266 Y126.463 E1.70106
G1 X84.922 Y126.693 E1.71482
G1 X84.615 Y126.971 E1.7286
G1 X84.355 Y127.298 E1.74249
G1 X84.149 Y127.661 E1.75637
G1 X84.001 Y128.052 E1.77028
G1 X83.92 Y128.457 E1.78402
G1 X83.899 Y128.871 E1.7978
G1 X83.946 Y129.288 E1.81176
G1 X84.057 Y129.69 E1.82563
G1 X84.229 Y130.068 E1.83944
G1 X84.457 Y130.416 E1.85328
G1 X84.739 Y130.723 E1.86715
G1 X85.064 Y130.982 E1.88097
G1 X85.428 Y131.19 E1.89491
G1 X85.82 Y131.335 E1.90881
G1 X86.221 Y131.417 E1.92243
G1 X86.637 Y131.438 E1.93628
G1 X87.055 Y131.391 E1.95027
G1 X87.459 Y131.279 E1.96422
G0 F6000 X87.321 Y130.902
G1 F1200 X87.641 Y130.755 E1.97593
G1 X87.934 Y130.562 E1.9876
G1 X88.195 Y130.325 E1.99932
G1 X88.416 Y130.048 E2.01111
G1 X88.592 Y129.739 E2.02294
G1 X88.715 Y129.407 E2.03471
G1 X88.785 Y129.066 E2.04629
G1 X88.803 Y128.748 E2.05688
G1 X88.77 Y128.397 E2.06861
G1 X88.681 Y128.054 E2.0804
G1 X88.54 Y127.729 E2.09218
G1 X88.331 Y127.405 E2.105
G1 X88.09 Y127.14 E2.11692
G1 X87.812 Y126.92 E2.12871
G1 X87.507 Y126.747 E2.14037
G1 X87.175 Y126.622 E2.15217
G1 X86.831 Y126.552 E2.16385
G1 X86.478 Y126.533 E2.1756
G1 X86.124 Y126.574 E2.18746
G1 X85.785 Y126.668 E2.19916
G1 X85.461 Y126.814 E2.21098
G1 X85.169 Y127.009 E2.22266
G1 X84.908 Y127.246 E2.23438
G1 X84.687 Y127.523 E2.24617
G1 X84.512 Y127.831 E2.25795
G1 X84.387 Y128.163 E2.26975
G1 X84.318 Y128.507 E2.28142
G1 X84.3 Y128.859 E2.29314
G1 X84.34 Y129.212 E2.30496
G1 X84.434 Y129.553 E2.31672
G1 X84.58 Y129.874 E2.32845
G1 X84.774 Y130.169 E2.34019
G1 X85.013 Y130.43 E2.35196
G1 X85.289 Y130.65 E2.3637
G1 X85.598 Y130.826 E2.37553
G1 X85.93 Y130.949 E2.38731
G1 X86.272 Y131.019 E2.39892
G1 X86.625 Y131.037 E2.41067
G1 X86.979 Y130.997 E2.42252
G1 X87.321 Y130.902 E2.43433
G0 F6000 X87.183 Y130.525
;TYPE:WALL-OUTER
G1 F1200 X87.446 Y130.404 E2.44396
G1 X87.688 Y130.245 E2.45359
G1 X87.902 Y130.05 E2.46322
G1 X88.084 Y129.823 E2.47289
G1 X88.228 Y129.57 E2.48258
G1 X88.329 Y129.297 E2.49226
G1 X88.387 Y129.014 E2.50187
G1 X88.402 Y128.755 E2.5105
G1 X88.375 Y128.466 E2.52015
G1 X88.302 Y128.185 E2.52981
G1 X88.186 Y127.918 E2.53949
G1 X88.013 Y127.65 E2.5501
G1 X87.816 Y127.433 E2.55985
G1 X87.588 Y127.253 E2.56951
G1 X87.337 Y127.11 E2.57912
G1 X87.064 Y127.008 E2.58881
G1 X86.78 Y126.95 E2.59845
G1 X86.49 Y126.934 E2.60811
G1 X86.201 Y126.968 E2.61779
G1 X85.921 Y127.045 E2.62745
G1 X85.656 Y127.165 E2.63712
G1 X85.416 Y127.325 E2.64672
G1 X85.201 Y127.521 E2.65639
G1 X85.019 Y127.748 E2.66607
G1 X84.875 Y128.001 E2.67575
G1 X84.773 Y128.273 E2.68541
G1 X84.716 Y128.557 E2.69505
G1 X84.701 Y128.847 E2.70471
G1 X84.734 Y129.136 E2.71438
G1 X84.811 Y129.416 E2.72404
G1 X84.931 Y129.68 E2.73368
G1 X85.091 Y129.922 E2.74333
G1 X85.287 Y130.137 E2.75301
G1 X85.514 Y130.318 E2.76267
G1 X85.767 Y130.462 E2.77235
G1 X86.04 Y130.563 E2.78203
G1 X86.323 Y130.621 E2.79164
G1 X86.613 Y130.636 E2.8013
G1 X86.902 Y130.603 E2.81097
G1 X87.183 Y130.525 E2.82067
G0 F6000 X87.334 Y130.938
G1 F3600 E2.02067
G0 F6000 X88.906 Y130.38
G0 X87.363 Y129.341
G0 X93.216 Y130.38
G0 X92.131 Y130.38
G0 X92.133 Y117.81
G0 X92.351 Y116.695
G0 X92.795 Y115.647
G0 X93.447 Y114.716
G0 X94.278 Y113.94
G0 X95.253 Y113.355
G0 X96.33 Y112.984
G0 X97.456 Y112.846
G0 X156.027 Y112.868
G0 X157.143 Y113.085
G0 X158.189 Y113.529
G0 X159.121 Y114.181
G0 X159.896 Y115.011
G0 X160.482 Y115.988
G0 X160.852 Y117.063
G0 X160.963 Y117.975
G0 X161.551 Y142.785
;TYPE:WALL-INNER
G1 F3600 E2.82067
G1 F1200 X161.551 Y118.178 E3.6391
G1 X161.538 Y117.869 E3.64939
G1 X161.508 Y117.555 E3.65988
G1 X161.461 Y117.243 E3.67038
G1 X161.399 Y116.936 E3.68079
G1 X161.321 Y116.633 E3.6912
G1 X161.225 Y116.331 E3.70174
G1 X161.115 Y116.038 E3.71215
G1 X160.991 Y115.75 E3.72258
G1 X160.85 Y115.469 E3.73303
G1 X160.696 Y115.197 E3.74343
G1 X160.528 Y114.93 E3.75392
G1 X160.343 Y114.674 E3.76443
G1 X160.147 Y114.428 E3.77489
G1 X159.94 Y114.193 E3.7853
G1 X159.721 Y113.97 E3.7957
G1 X159.49 Y113.758 E3.80613
G1 X159.248 Y113.558 E3.81657
G1 X158.993 Y113.369 E3.82713
G1 X158.732 Y113.196 E3.83754
G1 X158.461 Y113.038 E3.84798
G1 X158.182 Y112.892 E3.85845
G1 X157.896 Y112.762 E3.8689
G1 X157.604 Y112.648 E3.87932
G1 X157.307 Y112.548 E3.88975
G1 X157.005 Y112.465 E3.90016
G1 X156.696 Y112.396 E3.91069
G1 X156.388 Y112.345 E3.92108
G1 X156.077 Y112.308 E3.93149
G1 X155.766 Y112.289 E3.94186
G1 X155.56 Y112.286 E3.94871
G1 X97.442 Y112.285 E5.88172
G1 X97.135 Y112.299 E5.89194
G1 X96.821 Y112.328 E5.90243
G1 X96.508 Y112.376 E5.91296
G1 X96.203 Y112.437 E5.92331
G1 X95.897 Y112.518 E5.93384
G1 X95.602 Y112.61 E5.94412
G1 X95.304 Y112.72 E5.95468
G1 X95.016 Y112.846 E5.96514
G1 X94.735 Y112.986 E5.97558
G1 X94.462 Y113.141 E5.98602
G1 X94.196 Y113.309 E5.99648
G1 X93.941 Y113.493 E6.00694
G1 X93.696 Y113.687 E6.01734
G1 X93.459 Y113.896 E6.02785
G1 X93.235 Y114.119 E6.03836
G1 X93.025 Y114.347 E6.04867
G1 X92.824 Y114.59 E6.05916
G1 X92.637 Y114.843 E6.06962
G1 X92.464 Y115.105 E6.08006
G1 X92.304 Y115.375 E6.0905
G1 X92.158 Y115.655 E6.10101
G1 X92.03 Y115.941 E6.11143
G1 X91.914 Y116.231 E6.12182
G1 X91.814 Y116.53 E6.1323
G1 X91.731 Y116.832 E6.14272
G1 X91.662 Y117.139 E6.15318
G1 X91.611 Y117.446 E6.16354
G1 X91.573 Y117.759 E6.17402
G1 X91.554 Y118.076 E6.18458
G1 X91.551 Y118.49 E6.19835
G1 X91.551 Y142.785 E7.00641
G1 X82.551 Y142.785 E7.30575
G1 X82.551 Y119.291 E8.08716
G1 X83.232 Y118.79 E8.11528
G1 X84.268 Y118.056 E8.15751
G1 X85.327 Y117.332 E8.20018
G1 X86.397 Y116.627 E8.2428
G1 X87.492 Y115.934 E8.2859
G1 X88.561 Y115.282 E8.32755
G1 X89.678 Y114.626 E8.37063
G1 X90.798 Y113.996 E8.41337
G1 X91.916 Y113.391 E8.45565
G1 X93.062 Y112.796 E8.4986
G1 X94.224 Y112.22 E8.54173
G1 X95.378 Y111.673 E8.58421
G1 X96.545 Y111.142 E8.62685
G1 X97.728 Y110.63 E8.66973
G1 X98.931 Y110.134 E8.71301
G1 X100.113 Y109.669 E8.75525
G1 X101.332 Y109.216 E8.79851
G1 X102.544 Y108.788 E8.84126
G1 X103.755 Y108.385 E8.88371
G1 X104.996 Y107.996 E8.92696
G1 X106.22 Y107.634 E8.96942
G1 X107.471 Y107.287 E9.0126
G1 X108.703 Y106.97 E9.05491
G1 X109.957 Y106.67 E9.09779
G1 X111.224 Y106.391 E9.14094
G1 X112.485 Y106.135 E9.18374
G1 X113.741 Y105.904 E9.22621
G1 X115.021 Y105.69 E9.26938
G1 X116.283 Y105.502 E9.31182
G1 X117.57 Y105.331 E9.355
G1 X118.838 Y105.188 E9.39744
G1 X120.119 Y105.066 E9.44024
G1 X121.412 Y104.965 E9.48337
G1 X122.686 Y104.887 E9.52583
G1 X123.986 Y104.831 E9.56911
G1 X125.273 Y104.797 E9.61193
G1 X126.551 Y104.785 E9.65443
G1 X127.83 Y104.797 E9.69698
G1 X129.117 Y104.831 E9.7398
G1 X130.417 Y104.885 E9.78307
G1 X131.689 Y104.964 E9.82546
G1 X132.99 Y105.067 E9.86887
G1 X134.273 Y105.189 E9.91173
G1 X135.541 Y105.333 E9.95418
G1 X136.828 Y105.503 E9.99736
G1 X138.09 Y105.691 E10.03979
G1 X139.37 Y105.903 E10.08295
G1 X140.624 Y106.136 E10.12537
G1 X141.885 Y106.392 E10.16816
G1 X143.152 Y106.672 E10.21132
G1 X144.404 Y106.971 E10.25413
G1 X145.641 Y107.291 E10.29663
G1 X146.877 Y107.632 E10.33928
G1 X148.118 Y107.999 E10.38232
G1 X149.354 Y108.385 E10.42539
G1 X150.56 Y108.788 E10.46768
G1 X151.777 Y109.217 E10.5106
G1 X152.985 Y109.666 E10.55346
G1 X154.177 Y110.136 E10.59608
G1 X155.38 Y110.633 E10.63937
G1 X156.558 Y111.142 E10.68205
G1 X157.725 Y111.672 E10.72468
G1 X158.886 Y112.223 E10.76743
G1 X160.039 Y112.795 E10.81023
G1 X161.19 Y113.393 E10.85338
G1 X162.319 Y114.004 E10.89607
G1 X163.458 Y114.645 E10.93954
G1 X164.569 Y115.298 E10.98241
G1 X165.653 Y115.96 E11.02465
G1 X166.736 Y116.646 E11.06729
G1 X167.807 Y117.352 E11.10995
G1 X168.865 Y118.077 E11.15261
G1 X169.921 Y118.827 E11.19569
G1 X170.551 Y119.29 E11.2217
G1 X170.551 Y142.785 E12.00314
G1 X161.551 Y142.785 E12.30248
G0 F6000 X161.151 Y143.185
G1 F1200 X161.151 Y118.186 E13.13395
G1 X161.139 Y117.896 E13.14361
G1 X161.111 Y117.604 E13.15337
G1 X161.067 Y117.313 E13.16315
G1 X161.009 Y117.026 E13.17289
G1 X160.936 Y116.743 E13.18261
G1 X160.847 Y116.462 E13.19242
G1 X160.744 Y116.188 E13.20215
G1 X160.628 Y115.919 E13.2119
G1 X160.497 Y115.657 E13.22164
G1 X160.353 Y115.402 E13.23138
G1 X160.196 Y115.154 E13.24114
G1 X160.024 Y114.915 E13.25094
G1 X159.841 Y114.685 E13.26071
G1 X159.647 Y114.466 E13.27044
G1 X159.443 Y114.258 E13.28013
G1 X159.227 Y114.06 E13.28988
G1 X159.001 Y113.873 E13.29963
G1 X158.763 Y113.697 E13.30948
G1 X158.52 Y113.536 E13.31917
G1 X158.267 Y113.388 E13.32892
G1 X158.007 Y113.252 E13.33868
G1 X157.74 Y113.131 E13.34843
G1 X157.467 Y113.024 E13.35819
G1 X157.19 Y112.931 E13.3679
G1 X156.908 Y112.853 E13.37764
G1 X156.62 Y112.789 E13.38745
G1 X156.332 Y112.741 E13.39716
G1 X156.041 Y112.707 E13.4069
G1 X155.751 Y112.689 E13.41657
G1 X155.557 Y112.686 E13.42302
G1 X97.451 Y112.685 E15.35563
G1 X97.162 Y112.698 E15.36526
G1 X96.87 Y112.725 E15.37501
G1 X96.578 Y112.77 E15.38484
G1 X96.293 Y112.827 E15.3945
G1 X96.008 Y112.902 E15.4043
G1 X95.731 Y112.989 E15.41396
G1 X95.454 Y113.091 E15.42378
G1 X95.185 Y113.209 E15.43355
G1 X94.923 Y113.339 E15.44328
G1 X94.668 Y113.484 E15.45303
G1 X94.42 Y113.641 E15.4628
G1 X94.182 Y113.812 E15.47254
G1 X93.953 Y113.994 E15.48227
G1 X93.732 Y114.188 E15.49205
G1 X93.523 Y114.396 E15.50186
G1 X93.326 Y114.61 E15.51153
G1 X93.139 Y114.836 E15.52129
G1 X92.965 Y115.072 E15.53104
G1 X92.803 Y115.317 E15.54081
G1 X92.654 Y115.569 E15.55055
G1 X92.518 Y115.83 E15.56034
G1 X92.398 Y116.097 E15.57007
G1 X92.29 Y116.368 E15.57978
G1 X92.197 Y116.647 E15.58956
G1 X92.119 Y116.929 E15.59929
G1 X92.055 Y117.216 E15.60907
G1 X92.007 Y117.503 E15.61875
G1 X91.972 Y117.795 E15.62853
G1 X91.954 Y118.09 E15.63836
G1 X91.951 Y118.491 E15.6517
G1 X91.951 Y143.185 E16.47302
G1 X82.151 Y143.185 E16.79897
G1 X82.151 Y119.088 E17.60044
G1 X82.996 Y118.468 E17.6353
G1 X84.042 Y117.726 E17.67796
G1 X85.107 Y116.998 E17.72086
G1 X86.183 Y116.289 E17.76372
G1 X87.278 Y115.596 E17.80682
G1 X88.358 Y114.937 E17.8489
G1 X89.482 Y114.277 E17.89225
G1 X90.602 Y113.647 E17.93499
G1 X91.732 Y113.036 E17.97772
G1 X92.884 Y112.438 E18.02089
G1 X94.046 Y111.862 E18.06403
G1 X95.212 Y111.309 E18.10695
G1 X96.386 Y110.775 E18.14985
G1 X97.576 Y110.26 E18.19297
G1 X98.779 Y109.764 E18.23625
G1 X99.974 Y109.294 E18.27896
G1 X101.193 Y108.841 E18.32222
G1 X102.411 Y108.411 E18.36518
G1 X103.635 Y108.003 E18.40809
G1 X104.876 Y107.614 E18.45135
G1 X106.113 Y107.248 E18.49425
G1 X107.364 Y106.902 E18.53742
G1 X108.61 Y106.581 E18.58022
G1 X109.871 Y106.279 E18.62334
G1 X111.138 Y106 E18.66649
G1 X112.405 Y105.743 E18.70949
G1 X113.675 Y105.509 E18.75244
G1 X114.955 Y105.295 E18.79561
G1 X116.231 Y105.105 E18.83852
G1 X117.518 Y104.935 E18.88169
G1 X118.8 Y104.79 E18.92461
G1 X120.088 Y104.667 E18.96764
G1 X121.381 Y104.566 E19.01078
G1 X122.669 Y104.487 E19.0537
G1 X123.969 Y104.431 E19.09697
G1 X125.262 Y104.397 E19.13999
