;FLAVOR:Marlin
;TIME:10586
;Filament used: 6.04476m
;Layer height: 0.2
;MINX:126.839
;MINY:111.522
;MINZ:0.2
;MAXX:153.161
;MAXY:148.312
;MAXZ:80.4
;Generated with Creality Slicer 4.8.2-254
M140 S60
M105
M190 S60
M104 S200
M105
M109 S200
M82 ;absolute extrusion mode

G28 ;Home

G92 E0 ;Reset Extruder
G1 Z2.0 F3000 ;Move Z Axis up
G1 X10.1 Y20 Z0.28 F5000.0 ;Move to start position
G1 X10.1 Y200.0 Z0.28 F1500.0 E15 ;Draw the first line
G1 X10.4 Y200.0 Z0.28 F5000.0 ;Move to side a little
G1 X10.4 Y20 Z0.28 F1500.0 E30 ;Draw the second line
G92 E0 ;Reset Extruder
G1 Z2.0 F3000 ;Move Z Axis up

G92 E0
G92 E0
G1 F3600 E-0.8
;LAYER_COUNT:402
;LAYER:0
M107
G0 F6000 X139.75 Y117.942 Z0.2
;TYPE:SKIRT
G1 F3600 E0
G1 F1200 X140.25 Y117.942 E0.01663
G1 X140.25 Y122.992 E0.18459
G1 X139.75 Y122.992 E0.20122
G1 X139.75 Y117.942 E0.36919
G0 F6000 X139.35 Y117.542
G1 F1200 X140.65 Y117.542 E0.41243
G1 X140.65 Y123.392 E0.607
G1 X139.35 Y123.392 E0.65024
G1 X139.35 Y117.542 E0.84481
G0 F6000 X138.95 Y117.142
G1 F1200 X141.05 Y117.142 E0.91465
G1 X141.05 Y123.792 E1.13583
G1 X138.95 Y123.792 E1.20568
G1 X138.95 Y117.142 E1.42686
G0 F6000 X138.55 Y116.742
G1 F1200 X141.45 Y116.742 E1.52331
G1 X141.45 Y124.192 E1.7711
G1 X138.55 Y124.192 E1.86756
G1 X138.55 Y116.742 E2.11534
G0 F6000 X138.15 Y116.342
G1 F1200 X141.85 Y116.342 E2.23841
G1 X141.85 Y124.592 E2.5128
G1 X138.15 Y124.592 E2.63587
G1 X138.15 Y116.342 E2.91026
G0 F6000 X137.75 Y115.942
G1 F1200 X142.25 Y115.942 E3.05993
G1 X142.25 Y124.992 E3.36094
G1 X137.75 Y124.992 E3.51061
G1 X137.75 Y115.942 E3.81161
G1 F3600 E3.01161
G0 F6000 X137.75 Y130.522
G0 X131.843 Y130.526
G0 X131.339 Y131.03
G0 X131.339 Y144.349
G0 X131.843 Y144.853
G0 X136.907 Y144.853
G0 X137.411 Y144.349
G0 X137.75 Y134.942
G1 F3600 E3.81161
G1 F1200 X142.25 Y134.942 E3.96128
G1 X142.25 Y143.992 E4.26229
G1 X137.75 Y143.992 E4.41196
G1 X137.75 Y134.942 E4.71296
G0 F6000 X138.15 Y135.342
G1 F1200 X141.85 Y135.342 E4.83602
G1 X141.85 Y143.592 E5.11042
G1 X138.15 Y143.592 E5.23348
G1 X138.15 Y135.342 E5.50788
G0 F6000 X138.55 Y135.742
G1 F1200 X141.45 Y135.742 E5.60433
G1 X141.45 Y143.192 E5.85212
G1 X138.55 Y143.192 E5.94858
G1 X138.55 Y135.742 E6.19636
G0 F6000 X138.95 Y136.142
G1 F1200 X141.05 Y136.142 E6.26621
G1 X141.05 Y142.792 E6.48739
G1 X138.95 Y142.792 E6.55724
G1 X138.95 Y136.142 E6.77842
G0 F6000 X139.35 Y136.542
G1 F1200 X140.65 Y136.542 E6.82165
G1 X140.65 Y142.392 E7.01623
G1 X139.35 Y142.392 E7.05946
G1 X139.35 Y136.542 E7.25404
G0 F6000 X139.75 Y136.942
G1 F1200 X140.25 Y136.942 E7.27067
G1 X140.25 Y141.992 E7.43863
G1 X139.75 Y141.992 E7.45526
G1 X139.75 Y136.942 E7.62322
G1 F3600 E6.82322
;MESH:camera_mount_45deg.stl(1)
G0 F6000 X137.411 Y144.349
G0 X136.907 Y144.853
G0 X131.843 Y144.853
G0 X131.339 Y144.349
G0 X131.339 Y131.03
G0 X136.336 Y125.857
G0 X136.336 Y124.778
G0 X135.35 Y123.792
;TYPE:WALL-INNER
G1 F3600 E7.62322
G1 F1200 X133.4 Y123.792 E7.68808
G1 X133.4 Y113.587 E8.0275
G1 X135.35 Y113.587 E8.09236
G1 X135.35 Y123.792 E8.43178
G0 F6000 X136.322 Y114.514
G0 X143.678 Y114.514
G0 X144.65 Y123.792
G1 F1200 X144.65 Y113.587 E8.7712
G1 X146.6 Y113.587 E8.83605
G1 X146.6 Y123.792 E9.17547
G1 X144.65 Y123.792 E9.24033
G0 F6000 X144.25 Y124.192
G1 F1200 X144.25 Y113.942 E9.58125
G1 X135.75 Y113.942 E9.86396
G1 X135.75 Y124.192 E10.20487
G1 X133 Y124.192 E10.29634
G1 X133 Y113.187 E10.66237
G1 X147 Y113.187 E11.12801
G1 X147 Y124.192 E11.49404
G1 X144.25 Y124.192 E11.5855
G0 F6000 X143.85 Y124.592
G1 F1200 X143.85 Y114.342 E11.92642
G1 X136.15 Y114.342 E12.18252
G1 X136.15 Y124.592 E12.52344
G1 X132.6 Y124.592 E12.64151
G1 X132.6 Y112.787 E13.03415
G1 X147.4 Y112.787 E13.5264
G1 X147.4 Y124.592 E13.91903
G1 X143.85 Y124.592 E14.03711
G0 F6000 X143.45 Y124.992
;TYPE:WALL-OUTER
G1 F1200 X143.45 Y114.742 E14.37802
G1 X136.55 Y114.742 E14.60752
G1 X136.55 Y124.992 E14.94844
G1 X132.2 Y124.992 E15.09312
G1 X132.2 Y112.387 E15.51236
G1 X147.8 Y112.387 E16.03122
G1 X147.8 Y124.992 E16.45046
G1 X143.45 Y124.992 E16.59514
G0 F6000 X143.72 Y124.722
G0 X144.76 Y123.402
G0 X145.04 Y123.402
;TYPE:SKIN
G1 F1200 X145.04 Y113.977 E16.90862
G1 X146.21 Y113.977 E16.94754
G1 X146.21 Y123.402 E17.26101
G1 X145.04 Y123.402 E17.29993
G0 F6000 X145.304 Y123.242
G1 F1200 X145.198 Y123.136 E17.30491
G0 F6000 X145.198 Y122.571
G1 F1200 X145.869 Y123.242 E17.33647
G0 F6000 X146.049 Y122.856
G1 F1200 X145.198 Y122.005 E17.3765
G0 F6000 X145.198 Y121.439
G1 F1200 X146.049 Y122.29 E17.41653
G0 F6000 X146.049 Y121.724
G1 F1200 X145.198 Y120.874 E17.45654
G0 F6000 X145.198 Y120.308
G1 F1200 X146.049 Y121.159 E17.49656
G0 F6000 X146.049 Y120.593
G1 F1200 X145.198 Y119.742 E17.53659
G0 F6000 X145.198 Y119.177
G1 F1200 X146.049 Y120.027 E17.5766
G0 F6000 X146.049 Y119.462
G1 F1200 X145.198 Y118.611 E17.61663
G0 F6000 X145.198 Y118.045
G1 F1200 X146.049 Y118.896 E17.65665
G0 F6000 X146.049 Y118.33
G1 F1200 X145.198 Y117.48 E17.69666
G0 F6000 X145.198 Y116.914
G1 F1200 X146.049 Y117.765 E17.73669
G0 F6000 X146.049 Y117.199
G1 F1200 X145.198 Y116.348 E17.77672
G0 F6000 X145.198 Y115.783
G1 F1200 X146.049 Y116.633 E17.81672
G0 F6000 X146.049 Y116.068
G1 F1200 X145.198 Y115.217 E17.85675
G0 F6000 X145.198 Y114.651
G1 F1200 X146.049 Y115.502 E17.89678
G0 F6000 X146.049 Y114.936
G1 F1200 X145.249 Y114.136 E17.93441
G0 F6000 X145.815 Y114.136
G1 F1200 X146.049 Y114.37 E17.94541
G0 F6000 X146.49 Y114.37
G0 X146.418 Y113.769
G0 X134.96 Y113.697
G0 X134.96 Y113.977
G1 F1200 X134.96 Y123.402 E18.25889
G1 X133.79 Y123.402 E18.29781
G1 X133.79 Y113.977 E18.61128
G1 X134.96 Y113.977 E18.6502
G0 F6000 X134.799 Y114.434
G1 F1200 X134.502 Y114.137 E18.66417
G0 F6000 X133.949 Y114.15
G1 F1200 X134.799 Y115 E18.70415
G0 F6000 X134.799 Y115.565
G1 F1200 X133.949 Y114.716 E18.74411
G0 F6000 X133.949 Y115.281
G1 F1200 X134.799 Y116.131 E18.78409
G0 F6000 X134.799 Y116.697
G1 F1200 X133.949 Y115.847 E18.82407
G0 F6000 X133.949 Y116.413
G1 F1200 X134.799 Y117.263 E18.86405
G0 F6000 X134.799 Y117.828
G1 F1200 X133.949 Y116.978 E18.90403
G0 F6000 X133.949 Y117.544
G1 F1200 X134.799 Y118.394 E18.94401
G0 F6000 X134.799 Y118.96
G1 F1200 X133.949 Y118.11 E18.98399
G0 F6000 X133.949 Y118.675
G1 F1200 X134.799 Y119.525 E19.02398
G0 F6000 X134.799 Y120.091
G1 F1200 X133.949 Y119.241 E19.06396
G0 F6000 X133.949 Y119.807
G1 F1200 X134.799 Y120.657 E19.10394
G0 F6000 X134.799 Y121.222
G1 F1200 X133.949 Y120.372 E19.14392
G0 F6000 X133.949 Y120.938
G1 F1200 X134.799 Y121.788 E19.1839
G0 F6000 X134.799 Y122.354
G1 F1200 X133.949 Y121.504 E19.22388
G0 F6000 X133.949 Y122.069
G1 F1200 X134.799 Y122.919 E19.26386
G0 F6000 X134.556 Y123.242
G1 F1200 X133.949 Y122.635 E19.29242
G0 F6000 X133.51 Y122.635
G0 X133.582 Y123.61
G0 X135.168 Y123.61
G0 X135.546 Y113.767
G0 X135.527 Y113.748
;TYPE:SKIN
G1 F1200 X135.668 Y113.607 E19.29918
G1 X137.04 Y113.564 E19.34576
G1 X144.111 Y113.564 E19.58568
G1 X144.34 Y113.51 E19.59366
G0 F6000 X144.191 Y113.361
G1 F3600 E18.79366
;MESH:camera_mount_45deg.stl
G0 F6000 X143.664 Y124.778
G0 X143.664 Y125.857
G0 X143.664 Y130.522
G0 X143.664 Y131.607
G0 X136.322 Y133.514
G0 X135.35 Y142.792
;TYPE:WALL-INNER
G1 F3600 E19.59366
G1 F1200 X133.4 Y142.792 E19.65852
G1 X133.4 Y132.587 E19.99794
G1 X135.35 Y132.587 E20.0628
G1 X135.35 Y142.792 E20.40222
G0 F6000 X136.322 Y133.514
G0 X143.678 Y133.514
G0 X144.65 Y142.792
G1 F1200 X144.65 Y132.587 E20.74164
G1 X146.6 Y132.587 E20.80649
G1 X146.6 Y142.792 E21.14591
G1 X144.65 Y142.792 E21.21077
G0 F6000 X144.25 Y143.192
G1 F1200 X144.25 Y132.942 E21.55169
G1 X135.75 Y132.942 E21.8344
G1 X135.75 Y143.192 E22.17532
G1 X133 Y143.192 E22.26678
G1 X133 Y132.187 E22.63281
G1 X147 Y132.187 E23.09845
G1 X147 Y143.192 E23.46448
G1 X144.25 Y143.192 E23.55594
G0 F6000 X143.85 Y143.592
G1 F1200 X143.85 Y133.342 E23.89686
G1 X136.15 Y133.342 E24.15296
G1 X136.15 Y143.592 E24.49388
G1 X132.6 Y143.592 E24.61195
G1 X132.6 Y131.787 E25.00459
G1 X147.4 Y131.787 E25.49684
G1 X147.4 Y143.592 E25.88948
G1 X143.85 Y143.592 E26.00755
G0 F6000 X143.45 Y143.992
;TYPE:WALL-OUTER
G1 F1200 X143.45 Y133.742 E26.34846
G1 X136.55 Y133.742 E26.57796
G1 X136.55 Y143.992 E26.91888
G1 X132.2 Y143.992 E27.06356
G1 X132.2 Y131.387 E27.4828
G1 X147.8 Y131.387 E28.00166
G1 X147.8 Y143.992 E28.4209
G1 X143.45 Y143.992 E28.56559
G0 F6000 X143.72 Y143.722
G0 X144.76 Y142.402
G0 X145.04 Y142.402
;TYPE:SKIN
G1 F1200 X145.04 Y132.977 E28.87906
G1 X146.21 Y132.977 E28.91798
G1 X146.21 Y142.402 E29.23145
G1 X145.04 Y142.402 E29.27037
G0 F6000 X145.636 Y142.242
G1 F1200 X145.198 Y141.804 E29.29097
G0 F6000 X145.198 Y141.238
G1 F1200 X146.049 Y142.089 E29.331
G0 F6000 X146.049 Y141.523
G1 F1200 X145.198 Y140.673 E29.371
G0 F6000 X145.198 Y140.107
G1 F1200 X146.049 Y140.958 E29.41103
G0 F6000 X146.049 Y140.392
G1 F1200 X145.198 Y139.541 E29.45106
G0 F6000 X145.198 Y138.976
G1 F1200 X146.049 Y139.826 E29.49107
G0 F6000 X146.049 Y139.261
G1 F1200 X145.198 Y138.41 E29.53109
G0 F6000 X145.198 Y137.844
G1 F1200 X146.049 Y138.695 E29.57112
G0 F6000 X146.049 Y138.129
G1 F1200 X145.198 Y137.279 E29.61113
G0 F6000 X145.198 Y136.713
G1 F1200 X146.049 Y137.564 E29.65116
G0 F6000 X146.049 Y136.998
G1 F1200 X145.198 Y136.147 E29.69118
G0 F6000 X145.198 Y135.582
G1 F1200 X146.049 Y136.432 E29.73119
G0 F6000 X146.049 Y135.867
G1 F1200 X145.198 Y135.016 E29.77122
G0 F6000 X145.198 Y134.45
G1 F1200 X146.049 Y135.301 E29.81125
G0 F6000 X146.049 Y134.735
G1 F1200 X145.198 Y133.885 E29.85125
G0 F6000 X145.198 Y133.319
G1 F1200 X146.049 Y134.169 E29.89126
G0 F6000 X146.049 Y133.604
G1 F1200 X145.582 Y133.137 E29.91322
G0 F6000 X145.582 Y132.697
G0 X134.96 Y132.697
G0 X134.96 Y132.977
G1 F1200 X134.96 Y142.402 E30.2267
G1 X133.79 Y142.402 E30.26561
G1 X133.79 Y132.977 E30.57909
G1 X134.96 Y132.977 E30.618
G0 F6000 X134.8 Y133.668
G1 F1200 X134.268 Y133.137 E30.643
G0 F6000 X133.949 Y133.383
G1 F1200 X134.8 Y134.234 E30.68303
G0 F6000 X134.8 Y134.8
G1 F1200 X133.949 Y133.949 E30.72306
G0 F6000 X133.949 Y134.515
G1 F1200 X134.8 Y135.365 E30.76307
G0 F6000 X134.8 Y135.931
G1 F1200 X133.949 Y135.08 E30.80309
G0 F6000 X133.949 Y135.646
G1 F1200 X134.8 Y136.497 E30.84312
G0 F6000 X134.8 Y137.062
G1 F1200 X133.949 Y136.212 E30.88313
G0 F6000 X133.949 Y136.777
G1 F1200 X134.8 Y137.628 E30.92316
G0 F6000 X134.8 Y138.194
G1 F1200 X133.949 Y137.343 E30.96318
G0 F6000 X133.949 Y137.909
G1 F1200 X134.8 Y138.759 E31.00319
G0 F6000 X134.8 Y139.325
G1 F1200 X133.949 Y138.474 E31.04322
G0 F6000 X133.949 Y139.04
G1 F1200 X134.8 Y139.891 E31.08325
G0 F6000 X134.8 Y140.456
G1 F1200 X133.949 Y139.606 E31.12325
G0 F6000 X133.949 Y140.171
G1 F1200 X134.8 Y141.022 E31.16328
G0 F6000 X134.8 Y141.588
G1 F1200 X133.949 Y140.737 E31.20331
G0 F6000 X133.949 Y141.303
G1 F1200 X134.8 Y142.153 E31.24331
G0 F6000 X134.322 Y142.241
G1 F1200 X133.949 Y141.868 E31.26086
G0 F6000 X133.51 Y141.868
G0 X133.582 Y142.61
G0 X135.168 Y142.61
G0 X135.595 Y132.767
G0 X135.552 Y132.723
;TYPE:SKIN
G1 F1200 X135.693 Y132.582 E31.26764
G1 X139.069 Y132.564 E31.3824
G1 X144.161 Y132.564 E31.55549
G1 X144.365 Y132.486 E31.56291
G0 F6000 X144.242 Y132.362
G1 F3600 E30.76291
;MESH:NONMESH
G0 F300 X144.242 Y132.362 Z0.4
G0 F6000 X137.75 Y131.607
G0 X137.75 Y130.522
G0 X137.75 Y115.942
;TIME_ELAPSED:67.135675
;LAYER:1
M106 S85
;TYPE:SUPPORT
G1 F3600 E31.56291
G1 F1350 X142.25 Y115.942 E31.71259
G1 X142.25 Y124.992 E32.01359
G1 X137.75 Y124.992 E32.16326
G1 X137.75 Y115.942 E32.46426
G0 F6600 X138.03 Y116.222
G1 F1350 X141.97 Y116.222 E32.59531
G1 X141.97 Y124.712 E32.87769
G1 X138.03 Y124.712 E33.00873
G1 X138.03 Y116.222 E33.29111
G1 F3600 E32.49111
G0 F6600 X138.03 Y111.522
G0 X131.843 Y111.526
G0 X131.339 Y112.03
G0 X131.339 Y125.349
G0 X131.623 Y125.633
G0 X137.75 Y130.522
G0 X137.75 Y134.942
G1 F3600 E33.29111
G1 F1350 X142.25 Y134.942 E33.44078
G1 X142.25 Y143.992 E33.74179
G1 X137.75 Y143.992 E33.89146
G1 X137.75 Y134.942 E34.19246
G0 F6600 X138.03 Y135.222
G1 F1350 X141.97 Y135.222 E34.32351
G1 X141.97 Y143.712 E34.60588
G1 X138.03 Y143.712 E34.73693
G1 X138.03 Y135.222 E35.01931
G1 F3600 E34.21931
;MESH:camera_mount_45deg.stl(1)
G0 F6600 X138.03 Y130.522
G0 X136.336 Y125.857
G0 X136.336 Y124.778
G0 X135.35 Y123.792
;TYPE:WALL-INNER
G1 F3600 E35.01931
G1 F1350 X133.4 Y123.792 E35.08417
G1 X133.4 Y113.587 E35.42358
G1 X135.35 Y113.587 E35.48844
G1 X135.35 Y123.792 E35.82786
G0 F6600 X136.322 Y114.514
G0 X143.678 Y114.514
G0 X144.65 Y123.792
G1 F1350 X144.65 Y113.587 E36.16728
G1 X146.6 Y113.587 E36.23214
G1 X146.6 Y123.792 E36.57156
G1 X144.65 Y123.792 E36.63642
G0 F6600 X144.25 Y124.192
G1 F1350 X144.25 Y113.942 E36.97733
G1 X135.75 Y113.942 E37.26004
G1 X135.75 Y124.192 E37.60096
G1 X133 Y124.192 E37.69243
G1 X133 Y113.187 E38.05845
G1 X147 Y113.187 E38.52409
G1 X147 Y124.192 E38.89012
G1 X144.25 Y124.192 E38.98159
G0 F6600 X143.85 Y124.592
G1 F1350 X143.85 Y114.342 E39.3225
G1 X136.15 Y114.342 E39.57861
G1 X136.15 Y124.592 E39.91952
G1 X132.6 Y124.592 E40.0376
G1 X132.6 Y112.787 E40.43023
G1 X147.4 Y112.787 E40.92248
G1 X147.4 Y124.592 E41.31512
G1 X143.85 Y124.592 E41.43319
G0 F6600 X143.45 Y124.992
;TYPE:WALL-OUTER
G1 F1350 X143.45 Y114.742 E41.77411
G1 X136.55 Y114.742 E42.0036
G1 X136.55 Y124.992 E42.34452
G1 X132.2 Y124.992 E42.4892
G1 X132.2 Y112.387 E42.90845
G1 X147.8 Y112.387 E43.4273
G1 X147.8 Y124.992 E43.84655
G1 X143.45 Y124.992 E43.99123
G0 F6600 X143.72 Y124.722
G0 X144.76 Y123.402
G0 X145.04 Y123.402
;TYPE:SKIN
G1 F1350 X145.04 Y113.977 E44.30471
G1 X146.21 Y113.977 E44.34362
G1 X146.21 Y123.402 E44.6571
G1 X145.04 Y123.402 E44.69601
G0 F6600 X144.76 Y123.402
G0 X146.418 Y123.61
G0 X146.49 Y122.651
G0 X146.048 Y122.651
G1 F1350 X145.458 Y123.242 E44.72379
G0 F6600 X145.199 Y122.935
G1 F1350 X146.048 Y122.086 E44.76372
G0 F6600 X146.048 Y121.52
G1 F1350 X145.199 Y122.369 E44.80366
G0 F6600 X145.199 Y121.804
G1 F1350 X146.048 Y120.954 E44.84361
G0 F6600 X146.048 Y120.389
G1 F1350 X145.199 Y121.238 E44.88355
G0 F6600 X145.199 Y120.672
G1 F1350 X146.048 Y119.823 E44.92348
G0 F6600 X146.048 Y119.257
G1 F1350 X145.199 Y120.107 E44.96344
G0 F6600 X145.199 Y119.541
G1 F1350 X146.048 Y118.692 E45.00337
G0 F6600 X146.048 Y118.126
G1 F1350 X145.199 Y118.975 E45.04331
G0 F6600 X145.199 Y118.409
G1 F1350 X146.048 Y117.56 E45.08324
G0 F6600 X146.048 Y116.995
G1 F1350 X145.199 Y117.844 E45.12318
G0 F6600 X145.199 Y117.278
G1 F1350 X146.048 Y116.429 E45.16311
G0 F6600 X146.048 Y115.863
G1 F1350 X145.199 Y116.712 E45.20305
G0 F6600 X145.199 Y116.147
G1 F1350 X146.048 Y115.298 E45.24298
G0 F6600 X146.048 Y114.732
G1 F1350 X145.199 Y115.581 E45.28292
G0 F6600 X145.199 Y115.015
G1 F1350 X146.048 Y114.166 E45.32285
G0 F6600 X145.512 Y114.136
G1 F1350 X145.199 Y114.45 E45.3376
G0 F6600 X144.76 Y114.45
G0 X134.96 Y113.697
G0 X134.96 Y113.977
G1 F1350 X134.96 Y123.402 E45.65107
G1 X133.79 Y123.402 E45.68999
G1 X133.79 Y113.977 E46.00346
G1 X134.96 Y113.977 E46.04238
G0 F6600 X134.198 Y114.137
G1 F1350 X133.949 Y114.386 E46.05409
G0 F6600 X133.949 Y114.952
G1 F1350 X134.763 Y114.137 E46.0924
G0 F6600 X134.799 Y114.667
G1 F1350 X133.949 Y115.517 E46.13238
G0 F6600 X133.949 Y116.083
G1 F1350 X134.799 Y115.233 E46.17236
G0 F6600 X134.799 Y115.799
G1 F1350 X133.949 Y116.649 E46.21235
G0 F6600 X133.949 Y117.214
G1 F1350 X134.799 Y116.365 E46.2523
G0 F6600 X134.799 Y116.93
G1 F1350 X133.949 Y117.78 E46.29228
G0 F6600 X133.949 Y118.346
G1 F1350 X134.799 Y117.496 E46.33227
G0 F6600 X134.799 Y118.062
G1 F1350 X133.949 Y118.912 E46.37225
G0 F6600 X133.949 Y119.477
G1 F1350 X134.799 Y118.627 E46.41223
G0 F6600 X134.799 Y119.193
G1 F1350 X133.949 Y120.043 E46.45221
G0 F6600 X133.949 Y120.609
G1 F1350 X134.799 Y119.759 E46.49219
G0 F6600 X134.799 Y120.324
G1 F1350 X133.949 Y121.174 E46.53217
G0 F6600 X133.949 Y121.74
G1 F1350 X134.799 Y120.89 E46.57215
G0 F6600 X134.799 Y121.456
G1 F1350 X133.949 Y122.306 E46.61214
G0 F6600 X133.949 Y122.871
G1 F1350 X134.799 Y122.021 E46.65212
G0 F6600 X134.799 Y122.587
G1 F1350 X134.144 Y123.242 E46.68293
G0 F6600 X134.71 Y123.242
G1 F1350 X134.799 Y123.153 E46.68711
