;FLAVOR:Marlin
;TIME:3610
;Filament used: 2.29073m
;Layer height: 0.2
;MINX:116.234
;MINY:105.158
;MINZ:0.2
;MAXX:177.075
;MAXY:144.838
;MAXZ:12
;Generated with Creality Slicer 4.8.2-254
M140 S60
M105
M190 S60
M104 S200
M105
M109 S200
M82 ;absolute extrusion mode

G28 ;Home

G92 E0 ;Reset Extruder
G1 Z2.0 F3000 ;Move Z Axis up
G1 X10.1 Y20 Z0.28 F5000.0 ;Move to start position
G1 X10.1 Y200.0 Z0.28 F1500.0 E15 ;Draw the first line
G1 X10.4 Y200.0 Z0.28 F5000.0 ;Move to side a little
G1 X10.4 Y20 Z0.28 F1500.0 E30 ;Draw the second line
G92 E0 ;Reset Extruder
G1 Z2.0 F3000 ;Move Z Axis up

G92 E0
G92 E0
G1 F3600 E-0.8
;LAYER_COUNT:60
;LAYER:0
M107
;MESH:jetbot_3d_mode_wifi_antenna_fin.stl
G0 F6000 X141.284 Y111.611 Z0.2
;TYPE:WALL-INNER
G1 F3600 E0
G1 F1200 X141.737 Y111.574 E0.01512
G1 X142.146 Y111.467 E0.02918
G1 X142.529 Y111.303 E0.04304
G1 X142.882 Y111.078 E0.05696
G1 X143.22 Y110.775 E0.07206
G1 X143.482 Y110.445 E0.08607
G1 X143.688 Y110.084 E0.0999
G1 X143.836 Y109.692 E0.11383
G1 X143.888 Y109.438 E0.12245
G1 X143.918 Y109.287 E0.12758
G1 X143.939 Y108.873 E0.14136
G1 X143.892 Y108.453 E0.15542
G1 X143.888 Y108.436 E0.156
G1 X143.78 Y108.053 E0.16924
G1 X143.608 Y107.675 E0.18305
G1 X143.378 Y107.327 E0.19692
G1 X143.098 Y107.021 E0.21072
G1 X142.774 Y106.762 E0.22451
G1 X142.41 Y106.556 E0.23842
G1 X142.02 Y106.408 E0.2523
G1 X141.764 Y106.356 E0.26099
G1 X141.616 Y106.327 E0.266
G1 X141.198 Y106.306 E0.27992
G1 X140.783 Y106.353 E0.29381
G1 X140.77 Y106.356 E0.29426
G1 X140.382 Y106.464 E0.30765
G1 X140.003 Y106.636 E0.3215
G1 X139.656 Y106.864 E0.33531
G1 X139.346 Y107.147 E0.34927
G1 X139.088 Y107.474 E0.36312
G1 X138.882 Y107.837 E0.377
G1 X138.726 Y108.263 E0.39209
G1 X138.651 Y108.664 E0.40566
G1 X138.634 Y108.967 E0.41575
G1 X138.663 Y109.369 E0.42916
G1 X138.761 Y109.776 E0.44308
G1 X138.92 Y110.159 E0.45688
G1 X139.136 Y110.513 E0.47067
G1 X139.407 Y110.833 E0.48462
G1 X139.724 Y111.103 E0.49847
G1 X140.077 Y111.319 E0.51223
G1 X140.464 Y111.482 E0.5262
G1 X140.869 Y111.577 E0.54003
G1 X141.284 Y111.611 E0.55388
G0 F6000 X141.284 Y111.21
G1 F1200 X141.67 Y111.178 E0.56676
G1 X142.016 Y111.088 E0.57866
G1 X142.341 Y110.948 E0.59043
G1 X142.64 Y110.758 E0.60221
G1 X142.928 Y110.5 E0.61507
G1 X143.15 Y110.22 E0.62695
G1 X143.325 Y109.913 E0.63871
G1 X143.45 Y109.581 E0.65051
G1 X143.52 Y109.237 E0.66218
G1 X143.538 Y108.885 E0.6739
G1 X143.498 Y108.53 E0.68579
G1 X143.403 Y108.19 E0.69753
G1 X143.257 Y107.869 E0.70926
G1 X143.062 Y107.574 E0.72102
G1 X142.824 Y107.314 E0.73274
G1 X142.549 Y107.094 E0.74446
G1 X142.24 Y106.919 E0.75627
G1 X141.909 Y106.794 E0.76803
G1 X141.566 Y106.725 E0.77967
G1 X141.211 Y106.707 E0.79149
G1 X140.859 Y106.747 E0.80328
G1 X140.519 Y106.841 E0.81501
G1 X140.197 Y106.987 E0.82677
G1 X139.902 Y107.181 E0.83851
G1 X139.64 Y107.42 E0.85031
G1 X139.421 Y107.698 E0.86208
G1 X139.246 Y108.006 E0.87386
G1 X139.113 Y108.369 E0.88672
G1 X139.049 Y108.712 E0.89832
G1 X139.035 Y108.964 E0.90672
G1 X139.06 Y109.307 E0.91816
G1 X139.143 Y109.652 E0.92996
G1 X139.278 Y109.977 E0.94166
G1 X139.461 Y110.278 E0.95338
G1 X139.691 Y110.549 E0.9652
G1 X139.96 Y110.778 E0.97695
G1 X140.26 Y110.962 E0.98866
G1 X140.588 Y111.1 E1.00049
G1 X140.932 Y111.181 E1.01225
G1 X141.284 Y111.21 E1.02399
G0 F6000 X141.284 Y110.809
;TYPE:WALL-OUTER
G1 F1200 X141.603 Y110.782 E1.03464
G1 X141.886 Y110.709 E1.04436
G1 X142.153 Y110.593 E1.05405
G1 X142.398 Y110.438 E1.06369
G1 X142.636 Y110.225 E1.07431
G1 X142.818 Y109.995 E1.08407
G1 X142.962 Y109.743 E1.09372
G1 X143.064 Y109.47 E1.10341
G1 X143.122 Y109.186 E1.11305
G1 X143.137 Y108.897 E1.12268
G1 X143.104 Y108.607 E1.13239
G1 X143.026 Y108.327 E1.14205
G1 X142.906 Y108.063 E1.1517
G1 X142.746 Y107.821 E1.16135
G1 X142.55 Y107.607 E1.171
G1 X142.324 Y107.426 E1.18063
G1 X142.07 Y107.282 E1.19034
G1 X141.798 Y107.18 E1.2
G1 X141.516 Y107.123 E1.20957
G1 X141.224 Y107.108 E1.2193
G1 X140.935 Y107.141 E1.22897
G1 X140.656 Y107.218 E1.2386
G1 X140.391 Y107.338 E1.24827
G1 X140.149 Y107.498 E1.25792
G1 X139.934 Y107.694 E1.2676
G1 X139.754 Y107.922 E1.27726
G1 X139.61 Y108.175 E1.28694
G1 X139.5 Y108.475 E1.29757
G1 X139.447 Y108.76 E1.30721
G1 X139.436 Y108.96 E1.31388
G1 X139.457 Y109.245 E1.32338
G1 X139.525 Y109.528 E1.33306
G1 X139.636 Y109.796 E1.34271
G1 X139.786 Y110.043 E1.35232
G1 X139.975 Y110.265 E1.36202
G1 X140.196 Y110.453 E1.37167
G1 X140.443 Y110.605 E1.38131
G1 X140.712 Y110.718 E1.39102
G1 X140.995 Y110.785 E1.40069
G1 X141.284 Y110.809 E1.41034
G0 F6000 X141.284 Y111.249
G1 F3600 E0.61034
G0 F6000 X143.843 Y110.157
G0 X144.079 Y109.524
G0 X144.08 Y140.381
G0 X141.284 Y138.136
G0 X139.785 Y139.504
G0 X139.409 Y140.04
G0 X139.218 Y140.664
G0 X139.22 Y141.282
G0 X139.421 Y141.903
G0 X139.73 Y142.332
G0 X141.284 Y143.611
;TYPE:WALL-INNER
G1 F3600 E1.41034
G1 F1200 X141.737 Y143.574 E1.42545
G1 X141.793 Y143.56 E1.42737
G1 X142.146 Y143.467 E1.43951
G1 X142.528 Y143.303 E1.45334
G1 X142.88 Y143.08 E1.4672
G1 X143.191 Y142.804 E1.48103
G1 X143.456 Y142.486 E1.4948
G1 X143.669 Y142.124 E1.50877
G1 X143.823 Y141.737 E1.52262
G1 X143.888 Y141.443 E1.53264
G1 X143.912 Y141.331 E1.53645
G1 X143.913 Y141.302 E1.53741
G1 X143.936 Y140.951 E1.54911
G1 X143.939 Y140.918 E1.55021
G1 X143.9 Y140.501 E1.56414
G1 X143.888 Y140.453 E1.56579
G1 X143.795 Y140.096 E1.57806
G1 X143.629 Y139.716 E1.59185
G1 X143.408 Y139.365 E1.60565
G1 X143.129 Y139.05 E1.61964
G1 X142.809 Y138.789 E1.63338
G1 X142.453 Y138.576 E1.64717
G1 X142.065 Y138.423 E1.66105
G1 X141.663 Y138.332 E1.67476
G1 X141.276 Y138.308 E1.68765
G1 X141.244 Y138.305 E1.68872
G1 X140.829 Y138.344 E1.70258
G1 X140.424 Y138.449 E1.7165
G1 X140.043 Y138.615 E1.73032
G1 X139.692 Y138.837 E1.74414
G1 X139.381 Y139.112 E1.75794
G1 X139.115 Y139.435 E1.77186
G1 X138.904 Y139.791 E1.78563
G1 X138.749 Y140.181 E1.79958
G1 X138.684 Y140.475 E1.8096
G1 X138.661 Y140.582 E1.81324
G1 X138.633 Y140.958 E1.82578
G1 X138.665 Y141.369 E1.83949
G1 X138.684 Y141.451 E1.84229
G1 X138.761 Y141.775 E1.85337
G1 X138.919 Y142.157 E1.86712
G1 X139.136 Y142.514 E1.88101
G1 X139.407 Y142.832 E1.89491
G1 X139.724 Y143.102 E1.90876
G1 X140.077 Y143.319 E1.92254
G1 X140.464 Y143.482 E1.93651
G1 X140.794 Y143.56 E1.94778
G1 X140.869 Y143.577 E1.95034
G1 X141.284 Y143.611 E1.96419
G0 F6000 X141.284 Y143.21
G1 F1200 X141.67 Y143.178 E1.97707
G1 X142.016 Y143.088 E1.98896
G1 X142.341 Y142.948 E2.00073
G1 X142.639 Y142.759 E2.01247
G1 X142.903 Y142.525 E2.0242
G1 X143.128 Y142.255 E2.03589
G1 X143.309 Y141.948 E2.04775
G1 X143.439 Y141.62 E2.05948
G1 X143.515 Y141.275 E2.07123
G1 X143.538 Y140.924 E2.08293
G1 X143.505 Y140.57 E2.09476
G1 X143.416 Y140.227 E2.10654
G1 X143.275 Y139.904 E2.11826
G1 X143.087 Y139.606 E2.12998
G1 X142.851 Y139.339 E2.14184
G1 X142.579 Y139.117 E2.15351
G1 X142.276 Y138.936 E2.16525
G1 X141.947 Y138.806 E2.17702
G1 X141.606 Y138.729 E2.18865
G1 X141.25 Y138.706 E2.20051
G1 X140.898 Y138.739 E2.21227
G1 X140.555 Y138.828 E2.22406
G1 X140.231 Y138.969 E2.23581
G1 X139.933 Y139.158 E2.24754
G1 X139.669 Y139.391 E2.25926
G1 X139.443 Y139.665 E2.27107
G1 X139.264 Y139.968 E2.28277
G1 X139.133 Y140.298 E2.29458
G1 X139.058 Y140.64 E2.30623
G1 X139.034 Y140.958 E2.31684
G1 X139.061 Y141.307 E2.32848
G1 X139.143 Y141.652 E2.34027
G1 X139.277 Y141.976 E2.35193
G1 X139.461 Y142.279 E2.36372
G1 X139.691 Y142.548 E2.3755
G1 X139.96 Y142.778 E2.38727
G1 X140.26 Y142.962 E2.39897
G1 X140.588 Y143.1 E2.41081
G1 X140.932 Y143.181 E2.42256
G1 X141.284 Y143.21 E2.43431
G0 F6000 X141.284 Y142.809
;TYPE:WALL-OUTER
G1 F1200 X141.603 Y142.782 E2.44496
G1 X141.886 Y142.709 E2.45468
G1 X142.153 Y142.593 E2.46436
G1 X142.398 Y142.438 E2.474
G1 X142.615 Y142.246 E2.48364
G1 X142.8 Y142.024 E2.49325
G1 X142.948 Y141.772 E2.50297
G1 X143.055 Y141.502 E2.51263
G1 X143.118 Y141.218 E2.52231
G1 X143.137 Y140.929 E2.53194
G1 X143.11 Y140.639 E2.54163
G1 X143.037 Y140.358 E2.55128
G1 X142.921 Y140.092 E2.56094
G1 X142.766 Y139.847 E2.57058
G1 X142.573 Y139.628 E2.58029
G1 X142.349 Y139.445 E2.58991
G1 X142.099 Y139.296 E2.59959
G1 X141.829 Y139.189 E2.60925
G1 X141.549 Y139.126 E2.61879
G1 X141.256 Y139.107 E2.62856
G1 X140.967 Y139.134 E2.63821
G1 X140.686 Y139.207 E2.64787
G1 X140.419 Y139.323 E2.65755
G1 X140.174 Y139.479 E2.66721
G1 X139.957 Y139.67 E2.67683
G1 X139.772 Y139.895 E2.68651
G1 X139.624 Y140.145 E2.69618
G1 X139.517 Y140.415 E2.70584
G1 X139.455 Y140.698 E2.71547
G1 X139.435 Y140.958 E2.72415
G1 X139.457 Y141.245 E2.73372
G1 X139.525 Y141.528 E2.7434
G1 X139.635 Y141.795 E2.75301
G1 X139.786 Y142.044 E2.76269
G1 X139.974 Y142.264 E2.77232
G1 X140.196 Y142.453 E2.78201
G1 X140.443 Y142.605 E2.79166
G1 X140.712 Y142.718 E2.80136
G1 X140.995 Y142.785 E2.81104
G1 X141.284 Y142.809 E2.82068
G0 F6000 X141.284 Y143.249
G0 X140.718 Y143.752
G0 X138.286 Y143.958
;TYPE:WALL-INNER
G1 F1200 X138.286 Y141.454 E2.90397
G1 X138.286 Y141.369 E2.90672
G1 X138.286 Y140.958 E2.91916
G1 X138.286 Y140.582 E2.93047
G1 X138.286 Y140.472 E2.93402
G1 X138.286 Y129.708 E3.29204
G1 X126.295 Y129.708 E3.69086
G1 X117.489 Y106.226 E4.52498
G1 X117.389 Y105.958 E4.5345
G1 X117.675 Y105.958 E4.54011
G1 X117.676 Y105.958 E4.54014
G1 X140.769 Y105.958 E5.30822
G1 X140.783 Y105.958 E5.30868
G1 X141.198 Y105.958 E5.32153
G1 X141.616 Y105.958 E5.33403
G1 X141.767 Y105.958 E5.33886
G1 X144.286 Y105.958 E5.42264
G1 X144.286 Y108.435 E5.50503
G1 X144.286 Y108.453 E5.50562
G1 X144.286 Y108.873 E5.51859
G1 X144.286 Y109.287 E5.53093
G1 X144.286 Y109.441 E5.53586
G1 X144.286 Y140.451 E6.56725
G1 X144.286 Y140.501 E6.56889
G1 X144.286 Y140.918 E6.58163
G1 X144.286 Y141.331 E6.5942
G1 X144.286 Y141.446 E6.59791
G1 X144.286 Y143.958 E6.68146
G1 X141.795 Y143.958 E6.76431
G1 X141.737 Y143.958 E6.7662
G1 X141.284 Y143.958 E6.78
G1 X140.869 Y143.958 E6.7926
G1 X140.792 Y143.958 E6.7951
G1 X138.286 Y143.958 E6.87845
G0 F6000 X137.886 Y144.358
G1 F1200 X137.886 Y130.108 E7.35241
G1 X126.018 Y130.108 E7.74714
G1 X116.911 Y105.826 E8.6097
G1 X116.811 Y105.558 E8.61921
G1 X117.097 Y105.558 E8.62482
G1 X117.098 Y105.558 E8.62486
G1 X144.686 Y105.558 E9.54244
G1 X144.686 Y144.358 E10.83293
G1 X137.886 Y144.358 E11.0591
G0 F6000 X137.486 Y144.758
;TYPE:WALL-OUTER
G1 F1200 X137.486 Y130.508 E11.53305
G1 X125.74 Y130.508 E11.92373
G1 X116.234 Y105.158 E12.8242
G1 X145.086 Y105.158 E13.78383
G1 X145.086 Y144.758 E15.10093
G1 X137.486 Y144.758 E15.3537
G0 F6000 X137.756 Y144.488
G0 X138.396 Y143.568
G0 X138.676 Y143.568
;TYPE:SKIN
G1 F1200 X138.676 Y142.509 E15.38893
G1 X138.819 Y142.744 E15.39808
G1 X139.13 Y143.109 E15.41402
G1 X139.494 Y143.418 E15.42991
G1 X139.738 Y143.568 E15.43943
G1 X138.676 Y143.568 E15.47475
G0 F6000 X138.396 Y143.568
G0 X140.718 Y143.752
G0 X140.02 Y143.413
G0 X139.912 Y143.589
;TYPE:SKIN
G1 F1200 X140.12 Y143.797 E15.47965
G0 F6000 X140.403 Y143.797
G1 F1200 X140.112 Y143.506 E15.48649
G0 F6000 X140.556 Y143.667
G1 F1200 X140.685 Y143.797 E15.48954
G0 F6000 X140.778 Y143.758
G0 X138.832 Y142.225
G0 X138.655 Y142.332
G1 F1200 X138.445 Y142.122 E15.49447
G0 F6000 X138.445 Y141.839
G1 F1200 X138.735 Y142.129 E15.50129
G0 F6000 X138.576 Y141.687
G1 F1200 X138.445 Y141.557 E15.50436
G0 F6000 X138.486 Y141.467
G0 X138.916 Y139.554
G0 X138.676 Y139.411
;TYPE:SKIN
G1 F1200 X138.676 Y129.318 E15.84006
G1 X126.565 Y129.318 E16.24287
G1 X117.951 Y106.348 E17.05881
G1 X139.731 Y106.348 E17.78322
G1 X139.416 Y106.556 E17.79577
G1 X139.059 Y106.88 E17.81181
G1 X138.764 Y107.256 E17.8277
G1 X138.527 Y107.673 E17.84366
G1 X138.348 Y108.159 E17.86088
G1 X138.263 Y108.617 E17.87637
G1 X138.244 Y108.971 E17.88817
G1 X138.277 Y109.429 E17.90344
G1 X138.389 Y109.897 E17.91944
G1 X138.571 Y110.336 E17.93525
G1 X138.818 Y110.742 E17.95106
G1 X139.13 Y111.11 E17.9671
G1 X139.494 Y111.419 E17.98298
G1 X139.898 Y111.666 E17.99873
G1 X140.343 Y111.854 E18.0148
G1 X140.808 Y111.963 E18.03069
G1 X141.284 Y112.003 E18.04657
G1 X141.803 Y111.96 E18.06389
G1 X142.273 Y111.837 E18.08005
G1 X142.712 Y111.649 E18.09594
G1 X143.118 Y111.39 E18.11195
G1 X143.505 Y111.044 E18.12922
G1 X143.806 Y110.664 E18.14534
G1 X143.896 Y110.506 E18.15139
G1 X143.896 Y139.409 E19.11271
G1 X143.722 Y139.131 E19.12362
G1 X143.4 Y138.767 E19.13978
G1 X143.033 Y138.469 E19.15551
G1 X142.626 Y138.225 E19.17129
G1 X142.18 Y138.049 E19.18724
G1 X141.719 Y137.944 E19.20296
G1 X141.238 Y137.913 E19.21899
G1 X140.761 Y137.958 E19.23493
G1 X140.297 Y138.079 E19.25088
G1 X139.86 Y138.27 E19.26674
G1 X139.458 Y138.525 E19.28257
G1 X139.1 Y138.841 E19.29846
G1 X138.795 Y139.21 E19.31438
G1 X138.676 Y139.411 E19.32215
G0 F6000 X138.916 Y139.554
G0 X138.493 Y140.395
G0 X137.714 Y130.28
G0 X126.894 Y129.598
G0 X126.894 Y129.157
G1 F1200 X126.543 Y128.805 E19.33868
G0 F6000 X126.203 Y127.9
G1 F1200 X127.46 Y129.157 E19.39781
G0 F6000 X128.025 Y129.157
G1 F1200 X125.864 Y126.995 E19.49948
G0 F6000 X125.524 Y126.09
G1 F1200 X128.591 Y129.157 E19.64374
G0 F6000 X129.157 Y129.157
G1 F1200 X125.185 Y125.185 E19.83057
G0 F6000 X124.846 Y124.28
G1 F1200 X129.722 Y129.157 E20.05994
G0 F6000 X130.288 Y129.157
G1 F1200 X124.506 Y123.375 E20.33191
G0 F6000 X124.167 Y122.47
G1 F1200 X130.854 Y129.157 E20.64645
G0 F6000 X131.42 Y129.157
G1 F1200 X123.827 Y121.565 E21.00358
G0 F6000 X123.488 Y120.659
G1 F1200 X131.985 Y129.157 E21.40327
G0 F6000 X132.551 Y129.157
G1 F1200 X123.149 Y119.754 E21.84554
G0 F6000 X122.808 Y118.849
G1 F1200 X133.117 Y129.157 E22.33042
G0 F6000 X133.682 Y129.157
G1 F1200 X122.469 Y117.943 E22.85787
G0 F6000 X122.13 Y117.038
G1 F1200 X134.248 Y129.157 E23.42788
G0 F6000 X134.814 Y129.157
G1 F1200 X121.79 Y116.133 E24.04049
G0 F6000 X121.451 Y115.228
G1 F1200 X135.379 Y129.157 E24.69565
G0 F6000 X135.945 Y129.157
G1 F1200 X121.111 Y114.323 E25.39339
G0 F6000 X120.772 Y113.418
G1 F1200 X136.511 Y129.157 E26.13371
G0 F6000 X137.076 Y129.157
G1 F1200 X120.433 Y112.513 E26.91657
G0 F6000 X120.093 Y111.608
G1 F1200 X137.642 Y129.157 E27.74202
G0 F6000 X138.208 Y129.157
G1 F1200 X119.754 Y110.703 E28.61004
G0 F6000 X119.414 Y109.798
G1 F1200 X138.773 Y129.157 E29.52062
G0 F6000 X138.835 Y129.218
G1 F1200 X143.735 Y134.119 E29.75113
G0 F6000 X143.735 Y134.684
G1 F1200 X138.835 Y129.784 E29.98161
G0 F6000 X138.835 Y130.35
G1 F1200 X143.735 Y135.25 E30.21209
G0 F6000 X143.735 Y135.816
G1 F1200 X138.835 Y130.915 E30.4426
G0 F6000 X138.835 Y131.481
G1 F1200 X143.735 Y136.381 E30.67308
G0 F6000 X143.735 Y136.947
G1 F1200 X138.835 Y132.047 E30.90356
G0 F6000 X138.835 Y132.612
G1 F1200 X143.735 Y137.513 E31.13406
G0 F6000 X143.735 Y138.078
G1 F1200 X138.835 Y133.178 E31.36454
G0 F6000 X138.835 Y133.744
G1 F1200 X143.735 Y138.644 E31.59502
G0 F6000 X144.176 Y138.644
G0 X144.08 Y140.381
G0 X142.386 Y138.431
G0 X142.547 Y138.021
G1 F1200 X138.835 Y134.309 E31.76962
G0 F6000 X138.835 Y134.875
G1 F1200 X141.745 Y137.786 E31.90653
G0 F6000 X141.153 Y137.759
G1 F1200 X138.835 Y135.441 E32.01556
G0 F6000 X138.835 Y136.007
G1 F1200 X140.649 Y137.821 E32.10088
G0 F6000 X140.205 Y137.943
G1 F1200 X138.835 Y136.572 E32.16535
G0 F6000 X138.835 Y137.138
G1 F1200 X139.812 Y138.115 E32.2113
G0 F6000 X139.463 Y138.332
G1 F1200 X138.835 Y137.704 E32.24084
G0 F6000 X138.835 Y138.269
G1 F1200 X139.148 Y138.583 E32.25559
G0 F6000 X139.439 Y138.914
G0 X142.908 Y138.649
G0 X144.08 Y140.381
G0 X144.176 Y133.553
G0 X143.735 Y133.553
G1 F1200 X119.075 Y108.893 E33.41552
G0 F6000 X118.735 Y107.987
G1 F1200 X143.735 Y132.987 E34.59144
G0 F6000 X143.735 Y132.422
G1 F1200 X118.395 Y107.082 E35.78336
G0 F6000 X118.387 Y106.507
G1 F1200 X143.735 Y131.856 E36.97567
G0 F6000 X143.735 Y131.29
G1 F1200 X118.953 Y106.507 E38.14137
G0 F6000 X119.518 Y106.507
G1 F1200 X143.735 Y130.724 E39.28046
G0 F6000 X143.735 Y130.159
G1 F1200 X120.084 Y106.507 E40.39295
G0 F6000 X120.65 Y106.507
G1 F1200 X143.735 Y129.593 E41.47882
G0 F6000 X143.735 Y129.027
G1 F1200 X121.215 Y106.507 E42.5381
G0 F6000 X121.781 Y106.507
G1 F1200 X143.735 Y128.462 E43.57077
G0 F6000 X143.735 Y127.896
G1 F1200 X122.347 Y106.507 E44.57682
