;FLAVOR:Marlin
;TIME:8853
;Filament used: 5.42314m
;Layer height: 0.2
;MINX:116.335
;MINY:96.522
;MINZ:0.24
;MAXX:163.266
;MAXY:159.856
;MAXZ:81.49
;Generated with Creality Slicer 4.8.2-254
M140 S60
M105
M190 S60
M104 S195
M105
M109 S195
M82 ;absolute extrusion mode

G28 ;Home

G92 E0 ;Reset Extruder
G1 Z2.0 F3000 ;Move Z Axis up
G1 X10.1 Y20 Z0.28 F5000.0 ;Move to start position
G1 X10.1 Y200.0 Z0.28 F1500.0 E15 ;Draw the first line
G1 X10.4 Y200.0 Z0.28 F5000.0 ;Move to side a little
G1 X10.4 Y20 Z0.28 F1500.0 E30 ;Draw the second line
G92 E0 ;Reset Extruder
G1 Z2.0 F3000 ;Move Z Axis up

G92 E0
G92 E0
G1 F3600 E-0.8
;LAYER_COUNT:402
;LAYER:-6
M107
G0 F7200 X121.077 Y102.621 Z0.24
;TYPE:SUPPORT-INTERFACE
G1 F3600 E0
G1 F1125 X121.173 Y102.513 E0.01153
G1 X121.655 Y102.001 E0.06767
G1 X121.812 Y101.845 E0.08533
G1 X122.508 Y101.199 E0.16113
G1 X122.647 Y101.08 E0.17574
G1 X123.338 Y100.526 E0.24644
G1 X123.477 Y100.422 E0.26029
G1 X124.192 Y99.93 E0.32958
G1 X124.376 Y99.813 E0.34698
G1 X125.132 Y99.37 E0.41693
G1 X125.274 Y99.293 E0.42982
G1 X126.106 Y98.884 E0.50383
G1 X126.219 Y98.834 E0.51369
G1 X127.069 Y98.491 E0.58686
G1 X127.242 Y98.429 E0.60153
G1 X128.08 Y98.16 E0.67178
G1 X128.244 Y98.114 E0.68538
G1 X129.116 Y97.902 E0.75701
G1 X129.278 Y97.869 E0.77021
G1 X130.171 Y97.721 E0.84246
G1 X130.348 Y97.698 E0.85671
G1 X131.242 Y97.615 E0.92838
G1 X131.384 Y97.608 E0.93973
G1 X132.125 Y97.587 E0.9989
G1 X147.886 Y97.588 E2.25701
G1 X148.887 Y97.624 E2.33697
G1 X149.01 Y97.633 E2.34682
G1 X149.927 Y97.735 E2.42047
G1 X150.102 Y97.76 E2.43458
G1 X150.991 Y97.924 E2.50674
G1 X151.114 Y97.952 E2.51681
G1 X152.008 Y98.186 E2.59057
G1 X152.171 Y98.235 E2.60416
G1 X153.013 Y98.521 E2.67514
G1 X153.179 Y98.585 E2.68935
G1 X153.982 Y98.926 E2.75899
G1 X154.171 Y99.014 E2.77563
G1 X154.965 Y99.422 E2.84689
G1 X155.082 Y99.489 E2.85765
G1 X155.861 Y99.963 E2.93044
G1 X156.012 Y100.063 E2.9449
G1 X156.726 Y100.574 E3.01498
G1 X156.874 Y100.687 E3.02985
G1 X157.566 Y101.264 E3.10177
G1 X157.674 Y101.36 E3.1133
G1 X158.186 Y101.842 E3.16943
G1 X158.306 Y101.962 E3.18298
G1 X158.988 Y102.695 E3.2629
G1 X159.107 Y102.834 E3.27751
G1 X159.661 Y103.525 E3.3482
G1 X159.765 Y103.664 E3.36206
G1 X160.257 Y104.379 E3.43134
G1 X160.374 Y104.563 E3.44875
G1 X160.814 Y105.312 E3.51809
G1 X160.887 Y105.446 E3.53027
G1 X161.292 Y106.269 E3.60349
G1 X161.353 Y106.406 E3.61546
G1 X161.695 Y107.251 E3.68823
G1 X161.754 Y107.417 E3.70229
G1 X162.025 Y108.259 E3.7729
G1 X162.072 Y108.425 E3.78667
G1 X162.283 Y109.294 E3.85805
G1 X162.317 Y109.457 E3.87134
G1 X162.465 Y110.349 E3.94352
G1 X162.489 Y110.535 E3.95849
G1 X162.57 Y111.419 E4.02935
G1 X162.579 Y111.571 E4.04151
G1 X162.6 Y112.304 E4.10004
G1 X162.6 Y125.061 E5.11836
G1 X162.564 Y126.067 E5.19871
G1 X162.554 Y126.202 E5.20952
G1 X162.453 Y127.114 E5.28277
G1 X162.357 Y127.771 E5.33577
G1 X162.37 Y127.773 E5.33682
G1 X162.36 Y127.847 E5.34278
G1 X162.358 Y128.528 E5.39714
G1 X162.421 Y129.083 E5.44173
G1 X162.465 Y129.347 E5.46309
G1 X162.489 Y129.535 E5.47822
G1 X162.57 Y130.419 E5.54908
G1 X162.579 Y130.571 E5.56123
G1 X162.6 Y131.304 E5.61977
G1 X162.6 Y144.061 E6.63809
G1 X162.564 Y145.067 E6.71844
G1 X162.554 Y145.202 E6.72925
G1 X162.452 Y146.119 E6.8029
G1 X162.427 Y146.294 E6.81701
G1 X162.265 Y147.172 E6.88828
G1 X162.235 Y147.306 E6.89924
G1 X162.004 Y148.191 E6.97225
G1 X161.952 Y148.363 E6.98659
G1 X161.666 Y149.205 E7.05758
G1 X161.602 Y149.371 E7.07178
G1 X161.261 Y150.174 E7.14142
G1 X161.18 Y150.349 E7.15681
G1 X160.776 Y151.135 E7.22736
G1 X160.698 Y151.274 E7.24008
G1 X160.224 Y152.053 E7.31287
G1 X160.124 Y152.204 E7.32733
G1 X159.613 Y152.918 E7.39741
G1 X159.5 Y153.066 E7.41228
G1 X158.923 Y153.758 E7.4842
G1 X158.827 Y153.866 E7.49573
G1 X158.345 Y154.378 E7.55186
G1 X158.188 Y154.534 E7.56953
G1 X157.503 Y155.17 E7.64415
G1 X157.355 Y155.297 E7.65971
G1 X156.662 Y155.853 E7.73063
G1 X156.523 Y155.957 E7.74449
G1 X155.808 Y156.449 E7.81377
G1 X155.624 Y156.566 E7.83118
G1 X154.868 Y157.009 E7.90112
G1 X154.726 Y157.086 E7.91402
G1 X153.898 Y157.493 E7.98767
G1 X153.781 Y157.545 E7.99789
G1 X152.926 Y157.89 E8.07148
G1 X152.763 Y157.948 E8.08529
G1 X151.92 Y158.219 E8.15598
G1 X151.756 Y158.265 E8.16957
G1 X150.884 Y158.477 E8.24121
G1 X150.722 Y158.51 E8.2544
G1 X149.829 Y158.658 E8.32666
G1 X149.652 Y158.681 E8.34091
G1 X148.758 Y158.764 E8.41258
G1 X148.616 Y158.771 E8.42393
G1 X147.875 Y158.792 E8.4831
G1 X143.333 Y158.791 E8.84566
G1 X143.185 Y158.786 E8.85748
G1 X142.921 Y158.784 E8.87856
G1 X142.39 Y158.792 E8.92095
G1 X137.554 Y158.791 E9.30698
G1 X137.319 Y158.783 E9.32575
G1 X136.984 Y158.782 E9.35249
G1 X136.621 Y158.792 E9.38148
G1 X132.114 Y158.791 E9.74125
G1 X131.113 Y158.755 E9.8212
G1 X130.99 Y158.746 E9.83105
G1 X130.073 Y158.644 E9.9047
G1 X129.898 Y158.619 E9.91881
G1 X129.009 Y158.455 E9.99097
G1 X128.886 Y158.427 E10.00104
G1 X127.992 Y158.193 E10.07481
G1 X127.829 Y158.144 E10.08839
G1 X126.987 Y157.858 E10.15938
G1 X126.821 Y157.794 E10.17358
G1 X126.018 Y157.453 E10.24322
G1 X125.829 Y157.365 E10.25986
G1 X125.035 Y156.957 E10.33112
G1 X124.918 Y156.89 E10.34188
G1 X124.139 Y156.416 E10.41467
G1 X123.988 Y156.316 E10.42913
G1 X123.274 Y155.805 E10.49921
G1 X123.126 Y155.692 E10.51408
G1 X122.434 Y155.115 E10.586
G1 X122.326 Y155.019 E10.59753
G1 X121.814 Y154.537 E10.65366
G1 X121.654 Y154.376 E10.67178
G1 X121.01 Y153.682 E10.74736
G1 X120.893 Y153.545 E10.76174
G1 X120.343 Y152.859 E10.83193
G1 X120.227 Y152.703 E10.84744
G1 X119.743 Y152 E10.91557
G1 X119.626 Y151.816 E10.93298
G1 X119.183 Y151.06 E11.00292
G1 X119.106 Y150.918 E11.01582
G1 X118.697 Y150.086 E11.08982
G1 X118.647 Y149.973 E11.09969
G1 X118.298 Y149.109 E11.17407
G1 X118.242 Y148.951 E11.18745
G1 X117.97 Y148.103 E11.25854
G1 X117.928 Y147.953 E11.27097
G1 X117.712 Y147.065 E11.34392
G1 X117.683 Y146.922 E11.35557
G1 X117.533 Y146.016 E11.42888
G1 X117.511 Y145.844 E11.44272
G1 X117.428 Y144.945 E11.51478
G1 X117.421 Y144.808 E11.52573
G1 X117.4 Y144.075 E11.58427
G1 X117.4 Y131.318 E12.60259
G1 X117.436 Y130.312 E12.68294
G1 X117.446 Y130.177 E12.69375
G1 X117.547 Y129.262 E12.76723
G1 X117.644 Y128.608 E12.82001
G1 X117.63 Y128.606 E12.82114
G1 X117.64 Y128.532 E12.8271
G1 X117.642 Y127.851 E12.88146
G1 X117.579 Y127.297 E12.92597
G1 X117.532 Y127.009 E12.94926
G1 X117.511 Y126.844 E12.96254
G1 X117.428 Y125.945 E13.0346
G1 X117.421 Y125.808 E13.04555
G1 X117.4 Y125.075 E13.10409
G1 X117.4 Y112.318 E14.12241
G1 X117.436 Y111.312 E14.20276
G1 X117.446 Y111.177 E14.21357
G1 X117.547 Y110.262 E14.28705
G1 X117.573 Y110.087 E14.30117
G1 X117.735 Y109.207 E14.3726
G1 X117.765 Y109.073 E14.38356
G1 X117.996 Y108.187 E14.45665
G1 X118.048 Y108.016 E14.47092
G1 X118.334 Y107.174 E14.5419
G1 X118.398 Y107.008 E14.5561
G1 X118.739 Y106.205 E14.62574
G1 X118.82 Y106.03 E14.64113
G1 X119.235 Y105.222 E14.71364
G1 X119.302 Y105.105 E14.7244
G1 X119.776 Y104.326 E14.79719
G1 X119.876 Y104.175 E14.81165
G1 X120.392 Y103.454 E14.88243
G1 X120.5 Y103.313 E14.8966
G1 X121.077 Y102.621 E14.96852
G0 F7200 X121.6 Y102.059
G1 F1125 X121.6 Y154.317 E19.13998
G0 F7200 X123.2 Y155.748
G1 F1125 X123.2 Y100.636 E23.53926
G0 F7200 X124.8 Y99.564
G1 F1125 X124.8 Y156.818 E28.10952
G0 F7200 X126.4 Y157.615
G1 F1125 X126.4 Y98.76 E32.80758
G0 F7200 X128 Y98.185
G1 F1125 X128 Y158.195 E37.59784
G0 F7200 X129.6 Y158.564
G1 F1125 X129.6 Y97.815 E42.44709
G0 F7200 X131.2 Y97.618
G1 F1125 X131.2 Y158.758 E47.32755
G0 F7200 X132.8 Y158.791
G1 F1125 X132.8 Y97.588 E52.21304
G0 F7200 X134.4 Y97.588
G1 F1125 X134.4 Y158.791 E57.09853
G0 F7200 X136 Y158.791
G1 F1125 X136 Y97.588 E61.98401
G0 F7200 X137.6 Y97.588
G1 F1125 X137.6 Y158.791 E66.8695
G0 F7200 X139.2 Y158.791
G1 F1125 X139.2 Y97.588 E71.75499
G0 F7200 X140.8 Y97.588
G1 F1125 X140.8 Y158.791 E76.64048
G0 F7200 X142.4 Y158.792
G1 F1125 X142.4 Y97.588 E81.52605
G0 F7200 X144 Y97.588
G1 F1125 X144 Y158.791 E86.41153
G0 F7200 X145.6 Y158.791
G1 F1125 X145.6 Y97.588 E91.29702
G0 F7200 X147.2 Y97.588
G1 F1125 X147.2 Y158.791 E96.18251
G0 F7200 X148.8 Y158.761
G1 F1125 X148.8 Y97.621 E101.06297
G0 F7200 X150.4 Y97.815
G1 F1125 X150.4 Y158.564 E105.91222
G0 F7200 X152 Y158.194
G1 F1125 X152 Y98.184 E110.70248
G0 F7200 X153.6 Y98.764
G1 F1125 X153.6 Y157.619 E115.40054
G0 F7200 X155.2 Y156.815
G1 F1125 X155.2 Y99.561 E119.9708
G0 F7200 X156.8 Y100.631
G1 F1125 X156.8 Y155.743 E124.37008
G0 F7200 X158.4 Y154.32
G1 F1125 X158.4 Y102.064 E128.54138
G0 F7200 X160 Y104.006
G1 F1125 X160 Y152.378 E132.40264
G0 F7200 X161.6 Y149.376
G1 F1125 X161.6 Y107.017 E135.78392
G1 F3600 E134.98392
G0 F7200 X162.587 Y106.619
G0 X161.743 Y104.795
G0 X160.634 Y103.05
G0 X159.788 Y101.993
G0 X158.266 Y100.461
G0 X156.622 Y99.191
G0 X155.463 Y98.482
G0 X153.583 Y97.6
G0 X152.293 Y97.16
G0 X150.266 Y96.708
G0 X148.94 Y96.561
G0 X131.161 Y96.555
G0 X129.084 Y96.821
G0 X127.775 Y97.14
G0 X125.81 Y97.852
G0 X124.615 Y98.44
G0 X122.863 Y99.553
G0 X121.806 Y100.399
G0 X120.274 Y101.921
G0 X119.135 Y103.382
G0 X120 Y104.001
G1 F3600 E135.78392
G1 F1125 X120 Y152.373 E139.64518
G0 F7200 X118.4 Y149.361
G1 F1125 X118.4 Y107.003 E143.02638
G1 F3600 E142.22638
G0 F300 X118.4 Y107.003 Z0.54
G0 F7200 X117.331 Y106.819
G0 X116.732 Y108.816
G0 X116.492 Y110.118
G0 X116.336 Y112.293
G0 X116.364 Y124.657
G0 X116.461 Y129.503
G0 X117.445 Y130.173
;TIME_ELAPSED:104.815207
;LAYER:-5
;TYPE:SUPPORT
G1 F3600 E143.02638
G1 F1125 X146.062 Y158.79 E147.06455
G1 X147.477 Y158.79 E147.20573
G1 X117.598 Y128.912 E151.42191
G1 X117.644 Y128.607 E151.45269
G1 X117.63 Y128.605 E151.4541
G1 X117.639 Y128.53 E151.46164
G1 X117.642 Y127.849 E151.52959
G1 X117.602 Y127.501 E151.56454
G1 X148.854 Y158.753 E155.97454
G1 X149.652 Y158.68 E156.05449
G1 X149.828 Y158.657 E156.07221
G1 X150.123 Y158.608 E156.10204
G1 X117.425 Y125.91 E160.71608
G1 X117.42 Y125.807 E160.72637
G1 X117.399 Y125.074 E160.79954
G1 X117.399 Y124.47 E160.85981
G1 X151.303 Y158.374 E165.64403
G1 X151.755 Y158.263 E165.69047
G1 X151.919 Y158.218 E165.70744
G1 X152.404 Y158.061 E165.75831
G1 X117.399 Y123.056 E170.69789
G1 X117.399 Y121.642 E170.83898
G1 X153.439 Y157.681 E175.92454
G1 X153.78 Y157.544 E175.96121
G1 X153.897 Y157.492 E175.97399
G1 X154.41 Y157.239 E176.03106
G1 X117.399 Y120.227 E181.25378
G1 X117.399 Y118.813 E181.39487
G1 X155.325 Y156.739 E186.74664
G1 X155.623 Y156.565 E186.78107
G1 X155.808 Y156.448 E186.80291
G1 X156.187 Y156.187 E186.84883
G1 X117.399 Y117.399 E192.32224
G1 X117.399 Y115.985 E192.46333
G1 X156.997 Y155.583 E198.05103
G1 X157.354 Y155.296 E198.09674
G1 X157.502 Y155.17 E198.11613
G1 X157.759 Y154.93 E198.15122
G1 X117.399 Y114.571 E203.84638
G1 X117.399 Y113.156 E203.98757
G1 X158.478 Y154.236 E209.78433
G1 X158.826 Y153.866 E209.83501
G1 X158.922 Y153.757 E209.8495
G1 X159.146 Y153.489 E209.88436
G1 X117.419 Y111.762 E215.77249
G1 X117.435 Y111.312 E215.81742
G1 X117.444 Y111.176 E215.83102
G1 X117.524 Y110.453 E215.9036
G1 X159.77 Y152.699 E221.86496
G1 X160.123 Y152.204 E221.92563
G1 X160.223 Y152.053 E221.9437
G1 X160.342 Y151.857 E221.96658
G1 X117.727 Y109.242 E227.98002
G1 X117.734 Y109.206 E227.98368
G1 X117.764 Y109.072 E227.99738
G1 X117.995 Y108.186 E228.08874
G1 X118.016 Y108.116 E228.09603
G1 X160.863 Y150.964 E234.14228
G1 X161.179 Y150.349 E234.21127
G1 X161.259 Y150.173 E234.23056
G1 X161.328 Y150.014 E234.24785
G1 X118.376 Y107.062 E240.30884
G1 X118.397 Y107.008 E240.31462
G1 X118.738 Y106.205 E240.40167
G1 X118.798 Y106.07 E240.41641
G1 X161.732 Y149.005 E246.47494
G1 X161.95 Y148.363 E246.54259
G1 X162.003 Y148.19 E246.56064
G1 X162.071 Y147.929 E246.58755
G1 X119.281 Y105.139 E252.62568
G1 X119.3 Y105.105 E252.62957
G1 X119.775 Y104.326 E252.72061
G1 X119.817 Y104.261 E252.72833
G1 X162.336 Y146.78 E258.72822
G1 X162.425 Y146.294 E258.77752
G1 X162.451 Y146.118 E258.79527
G1 X162.515 Y145.545 E258.8528
G1 X120.405 Y103.434 E264.79505
G1 X120.499 Y103.312 E264.81042
G1 X121.043 Y102.659 E264.89522
G1 X162.594 Y144.21 E270.75852
G1 X162.599 Y144.06 E270.77349
G1 X162.599 Y142.8 E270.89922
G1 X121.727 Y101.928 E276.6667
G1 X121.811 Y101.845 E276.67848
G1 X122.458 Y101.244 E276.76659
G1 X162.599 Y141.386 E282.43099
G1 X162.599 Y139.972 E282.57208
G1 X123.235 Y100.607 E288.12684
G1 X123.337 Y100.525 E288.1399
G1 X123.476 Y100.421 E288.15722
G1 X124.061 Y100.02 E288.22799
G1 X162.599 Y138.558 E293.66611
G1 X162.599 Y137.144 E293.8072
G1 X124.938 Y99.482 E299.12165
G1 X125.131 Y99.369 E299.14396
G1 X125.273 Y99.292 E299.16008
G1 X125.869 Y98.999 E299.22635
G1 X162.599 Y135.729 E304.40935
G1 X162.599 Y134.315 E304.55044
G1 X126.859 Y98.575 E309.59374
G1 X127.068 Y98.491 E309.61621
G1 X127.241 Y98.429 E309.63455
G1 X127.912 Y98.213 E309.70489
G1 X162.599 Y132.901 E314.59967
G1 X162.599 Y131.487 E314.74076
G1 X129.034 Y97.921 E319.47721
G1 X129.114 Y97.901 E319.48544
G1 X129.277 Y97.869 E319.50201
G1 X130.169 Y97.72 E319.59225
G1 X130.239 Y97.712 E319.59928
G1 X162.532 Y130.005 E324.15617
G1 X162.488 Y129.535 E324.20327
G1 X162.464 Y129.347 E324.22219
G1 X162.42 Y129.083 E324.24889
G1 X162.357 Y128.527 E324.30472
G1 X162.358 Y128.416 E324.3158
G1 X131.544 Y97.603 E328.66392
G1 X132.124 Y97.586 E328.72181
G1 X132.942 Y97.587 E328.80344
G1 X162.454 Y127.098 E332.96783
G1 X162.553 Y126.202 E333.05777
G1 X162.563 Y126.066 E333.07138
G1 X162.573 Y125.803 E333.09764
G1 X134.356 Y97.587 E337.07929
G1 X135.77 Y97.587 E337.22038
G1 X162.599 Y124.416 E341.00625
G1 X162.599 Y123.001 E341.14744
G1 X137.185 Y97.587 E344.73363
G1 X138.599 Y97.587 E344.87471
G1 X162.599 Y121.587 E348.26137
G1 X162.599 Y120.173 E348.40246
G1 X140.014 Y97.587 E351.58952
G1 X141.428 Y97.587 E351.73061
G1 X162.599 Y118.759 E354.71814
G1 X162.599 Y117.345 E354.85923
G1 X142.842 Y97.587 E357.64722
G1 X144.256 Y97.587 E357.78831
G1 X162.599 Y115.93 E360.37671
G1 X162.599 Y114.516 E360.5178
G1 X145.671 Y97.587 E362.90659
G1 X147.085 Y97.587 E363.04768
G1 X162.599 Y113.102 E365.23695
G1 X162.599 Y112.304 E365.31657
G1 X162.581 Y111.669 E365.37996
G1 X148.522 Y97.611 E367.36376
G1 X148.886 Y97.623 E367.4001
G1 X149.009 Y97.632 E367.41241
G1 X149.926 Y97.734 E367.50447
G1 X150.083 Y97.757 E367.5203
G1 X162.422 Y110.096 E369.26147
G1 X162.316 Y109.457 E369.3261
G1 X162.281 Y109.293 E369.34283
G1 X162.071 Y108.424 E369.43204
G1 X162.034 Y108.294 E369.44553
G1 X151.897 Y98.157 E370.87597
G1 X152.006 Y98.186 E370.88722
G1 X152.17 Y98.234 E370.90427
G1 X153.012 Y98.521 E370.99303
G1 X153.178 Y98.585 E371.01078
G1 X153.98 Y98.925 E371.0977
G1 X154.167 Y99.013 E371.11832
G1 X161.164 Y106.01 E372.10568
G0 F7200 X160.885 Y105.445
G1 F1125 X160.813 Y105.312 E372.12077
G1 X160.373 Y104.562 E372.20753
G1 X160.255 Y104.378 E372.22934
G1 X159.764 Y103.663 E372.31589
G1 X159.66 Y103.524 E372.33321
G1 X159.106 Y102.833 E372.42158
G1 X158.987 Y102.694 E372.43984
G1 X158.305 Y101.961 E372.53974
G1 X158.185 Y101.841 E372.55667
G1 X157.673 Y101.359 E372.62684
G1 X157.565 Y101.264 E372.64119
G1 X156.873 Y100.687 E372.73109
G1 X156.725 Y100.573 E372.74973
G1 X156.011 Y100.063 E372.83728
G1 X155.859 Y99.962 E372.85549
G1 X155.081 Y99.488 E372.94639
G1 X154.963 Y99.422 E372.95988
G1 X154.169 Y99.014 E373.04896
G1 F3600 E372.24896
G0 F7200 X154.421 Y97.956
G0 X152.503 Y97.223
G0 X151.199 Y96.881
G0 X149.114 Y96.574
G0 X147.87 Y96.523
G0 X131.161 Y96.555
G0 X129.084 Y96.821
G0 X127.775 Y97.14
G0 X125.81 Y97.852
G0 X124.615 Y98.44
G0 X122.863 Y99.553
G0 X121.806 Y100.399
G0 X120.274 Y101.921
G0 X119.004 Y103.565
G0 X118.295 Y104.724
G0 X117.413 Y106.604
G0 X116.973 Y107.891
G0 X116.521 Y109.919
G0 X116.374 Y111.247
G0 X116.369 Y124.552
G0 X116.388 Y130.06
G0 X117.445 Y130.176
G1 F3600 E373.04896
G1 F1125 X117.436 Y130.311 E373.06246
G1 X117.4 Y131.317 E373.1629
G1 X117.399 Y131.541 E373.18525
G1 X144.647 Y158.79 E377.03031
G1 X143.332 Y158.79 E377.16152
G1 X143.23 Y158.786 E377.17171
G1 X117.399 Y132.955 E380.81674
G1 X117.399 Y134.37 E380.95793
G1 X141.819 Y158.79 E384.40385
G1 X140.405 Y158.79 E384.54494
G1 X117.399 Y135.784 E387.79134
