;FLAVOR:Marlin
;TIME:10449
;Filament used: 6.23013m
;Layer height: 0.2
;MINX:116.335
;MINY:87.022
;MINZ:0.24
;MAXX:163.664
;MAXY:150.355
;MAXZ:81.49
;Generated with Creality Slicer 4.8.2-254
M140 S60
M105
M190 S60
M104 S200
M105
M109 S200
M82 ;absolute extrusion mode

G28 ;Home

G92 E0 ;Reset Extruder
G1 Z2.0 F3000 ;Move Z Axis up
G1 X10.1 Y20 Z0.28 F5000.0 ;Move to start position
G1 X10.1 Y200.0 Z0.28 F1500.0 E15 ;Draw the first line
G1 X10.4 Y200.0 Z0.28 F5000.0 ;Move to side a little
G1 X10.4 Y20 Z0.28 F1500.0 E30 ;Draw the second line
G92 E0 ;Reset Extruder
G1 Z2.0 F3000 ;Move Z Axis up

G92 E0
G92 E0
G1 F3600 E-0.8
;LAYER_COUNT:402
;LAYER:-6
M107
G0 F7200 X120.5 Y93.813 Z0.24
;TYPE:SUPPORT-INTERFACE
G1 F3600 E0
G1 F1125 X121.077 Y93.121 E0.07192
G1 X121.173 Y93.013 E0.08346
G1 X121.655 Y92.501 E0.13959
G1 X121.812 Y92.345 E0.15725
G1 X122.508 Y91.699 E0.23306
G1 X122.647 Y91.58 E0.24766
G1 X123.338 Y91.026 E0.31836
G1 X123.477 Y90.922 E0.33222
G1 X124.192 Y90.43 E0.4015
G1 X124.376 Y90.313 E0.4189
G1 X125.132 Y89.87 E0.48885
G1 X125.274 Y89.793 E0.50174
G1 X126.106 Y89.384 E0.57575
G1 X126.219 Y89.334 E0.58561
G1 X127.069 Y88.991 E0.65878
G1 X127.242 Y88.929 E0.67345
G1 X128.08 Y88.66 E0.7437
G1 X128.244 Y88.614 E0.7573
G1 X129.116 Y88.402 E0.82893
G1 X129.278 Y88.369 E0.84213
G1 X130.171 Y88.221 E0.91439
G1 X130.348 Y88.198 E0.92863
G1 X131.242 Y88.115 E1.0003
G1 X131.384 Y88.108 E1.01165
G1 X132.125 Y88.087 E1.07083
G1 X147.886 Y88.088 E2.32894
G1 X148.887 Y88.124 E2.40889
G1 X149.01 Y88.133 E2.41874
G1 X149.927 Y88.235 E2.49239
G1 X150.102 Y88.26 E2.5065
G1 X150.991 Y88.424 E2.57866
G1 X151.114 Y88.452 E2.58873
G1 X152.008 Y88.686 E2.6625
G1 X152.171 Y88.735 E2.67608
G1 X153.013 Y89.021 E2.74707
G1 X153.179 Y89.085 E2.76127
G1 X153.982 Y89.426 E2.83091
G1 X154.171 Y89.514 E2.84755
G1 X154.965 Y89.922 E2.91881
G1 X155.082 Y89.989 E2.92957
G1 X155.861 Y90.463 E3.00236
G1 X156.012 Y90.563 E3.01682
G1 X156.726 Y91.074 E3.0869
G1 X156.874 Y91.187 E3.10177
G1 X157.566 Y91.764 E3.17369
G1 X157.674 Y91.86 E3.18522
G1 X158.186 Y92.342 E3.24135
G1 X158.306 Y92.462 E3.2549
G1 X158.988 Y93.195 E3.33482
G1 X159.107 Y93.334 E3.34943
G1 X159.661 Y94.025 E3.42013
G1 X159.765 Y94.164 E3.43398
G1 X160.257 Y94.879 E3.50326
G1 X160.374 Y95.063 E3.52067
G1 X160.814 Y95.812 E3.59001
G1 X160.887 Y95.946 E3.60219
G1 X161.292 Y96.769 E3.67541
G1 X161.353 Y96.906 E3.68738
G1 X161.695 Y97.751 E3.76015
G1 X161.754 Y97.917 E3.77421
G1 X162.025 Y98.759 E3.84482
G1 X162.072 Y98.925 E3.85859
G1 X162.283 Y99.794 E3.92997
G1 X162.317 Y99.957 E3.94327
G1 X162.465 Y100.849 E4.01544
G1 X162.489 Y101.035 E4.03041
G1 X162.57 Y101.919 E4.10127
G1 X162.579 Y102.071 E4.11343
G1 X162.6 Y102.804 E4.17196
G1 X162.6 Y115.561 E5.19028
G1 X162.564 Y116.567 E5.27064
G1 X162.554 Y116.702 E5.28144
G1 X162.453 Y117.614 E5.35469
G1 X162.357 Y118.271 E5.40769
G1 X162.37 Y118.273 E5.40874
G1 X162.36 Y118.347 E5.4147
G1 X162.358 Y119.028 E5.46906
G1 X162.421 Y119.583 E5.51365
G1 X162.465 Y119.847 E5.53501
G1 X162.489 Y120.035 E5.55014
G1 X162.57 Y120.919 E5.621
G1 X162.579 Y121.071 E5.63315
G1 X162.6 Y121.804 E5.69169
G1 X162.6 Y134.561 E6.71001
G1 X162.564 Y135.567 E6.79036
G1 X162.554 Y135.702 E6.80117
G1 X162.452 Y136.619 E6.87482
G1 X162.427 Y136.794 E6.88893
G1 X162.265 Y137.672 E6.9602
G1 X162.235 Y137.806 E6.97116
G1 X162.004 Y138.691 E7.04417
G1 X161.952 Y138.863 E7.05852
G1 X161.666 Y139.705 E7.1295
G1 X161.602 Y139.871 E7.1437
G1 X161.261 Y140.674 E7.21334
G1 X161.18 Y140.849 E7.22873
G1 X160.776 Y141.635 E7.29928
G1 X160.698 Y141.774 E7.312
G1 X160.224 Y142.553 E7.38479
G1 X160.124 Y142.704 E7.39925
G1 X159.613 Y143.418 E7.46933
G1 X159.5 Y143.566 E7.4842
G1 X158.923 Y144.258 E7.55612
G1 X158.827 Y144.366 E7.56765
G1 X158.301 Y144.922 E7.62875
G1 X158.195 Y145.028 E7.64072
G1 X157.503 Y145.67 E7.71607
G1 X157.355 Y145.797 E7.73163
G1 X156.662 Y146.353 E7.80256
G1 X156.523 Y146.457 E7.81641
G1 X155.808 Y146.949 E7.88569
G1 X155.624 Y147.066 E7.9031
G1 X154.868 Y147.509 E7.97304
G1 X154.726 Y147.586 E7.98594
G1 X153.898 Y147.993 E8.05959
G1 X153.781 Y148.045 E8.06981
G1 X152.926 Y148.39 E8.1434
G1 X152.763 Y148.448 E8.15721
G1 X151.92 Y148.719 E8.2279
G1 X151.756 Y148.765 E8.24149
G1 X150.884 Y148.977 E8.31313
G1 X150.722 Y149.01 E8.32633
G1 X149.829 Y149.158 E8.39858
G1 X149.652 Y149.181 E8.41283
G1 X148.758 Y149.264 E8.4845
G1 X148.616 Y149.271 E8.49585
G1 X147.875 Y149.292 E8.55502
G1 X143.333 Y149.291 E8.91758
G1 X143.185 Y149.286 E8.9294
G1 X142.921 Y149.284 E8.95048
G1 X142.39 Y149.292 E8.99287
G1 X137.554 Y149.291 E9.3789
G1 X137.319 Y149.283 E9.39767
G1 X136.984 Y149.282 E9.42441
G1 X136.621 Y149.292 E9.4534
G1 X132.114 Y149.291 E9.81317
G1 X131.113 Y149.255 E9.89312
G1 X130.99 Y149.246 E9.90297
G1 X130.073 Y149.144 E9.97662
G1 X129.898 Y149.119 E9.99073
G1 X129.009 Y148.955 E10.06289
G1 X128.886 Y148.927 E10.07296
G1 X127.992 Y148.693 E10.14673
G1 X127.829 Y148.644 E10.16031
G1 X126.987 Y148.358 E10.2313
G1 X126.821 Y148.294 E10.2455
G1 X126.018 Y147.953 E10.31514
G1 X125.829 Y147.865 E10.33178
G1 X125.035 Y147.457 E10.40304
G1 X124.918 Y147.39 E10.4138
G1 X124.139 Y146.916 E10.48659
G1 X123.988 Y146.816 E10.50105
G1 X123.274 Y146.305 E10.57113
G1 X123.126 Y146.192 E10.586
G1 X122.434 Y145.615 E10.65792
G1 X122.326 Y145.519 E10.66945
G1 X121.814 Y145.037 E10.72558
G1 X121.654 Y144.876 E10.7437
G1 X121.01 Y144.182 E10.81928
G1 X120.893 Y144.045 E10.83366
G1 X120.343 Y143.359 E10.90385
G1 X120.227 Y143.203 E10.91936
G1 X119.743 Y142.5 E10.98749
G1 X119.626 Y142.316 E11.0049
G1 X119.183 Y141.56 E11.07484
G1 X119.106 Y141.418 E11.08774
G1 X118.697 Y140.586 E11.16174
G1 X118.647 Y140.473 E11.17161
G1 X118.298 Y139.609 E11.24599
G1 X118.242 Y139.451 E11.25937
G1 X117.97 Y138.603 E11.33046
G1 X117.928 Y138.453 E11.34289
G1 X117.712 Y137.565 E11.41584
G1 X117.683 Y137.422 E11.42749
G1 X117.533 Y136.516 E11.5008
G1 X117.511 Y136.344 E11.51464
G1 X117.428 Y135.445 E11.58671
G1 X117.421 Y135.308 E11.59766
G1 X117.4 Y134.575 E11.65619
G1 X117.4 Y121.818 E12.67451
G1 X117.436 Y120.812 E12.75486
G1 X117.446 Y120.677 E12.76567
G1 X117.547 Y119.762 E12.83915
G1 X117.644 Y119.108 E12.89193
G1 X117.63 Y119.106 E12.89306
G1 X117.64 Y119.032 E12.89902
G1 X117.642 Y118.351 E12.95338
G1 X117.579 Y117.797 E12.99789
G1 X117.532 Y117.509 E13.02118
G1 X117.511 Y117.344 E13.03446
G1 X117.428 Y116.445 E13.10653
G1 X117.421 Y116.308 E13.11748
G1 X117.4 Y115.575 E13.17601
G1 X117.4 Y102.818 E14.19433
G1 X117.436 Y101.812 E14.27468
G1 X117.446 Y101.677 E14.28549
G1 X117.547 Y100.762 E14.35897
G1 X117.573 Y100.587 E14.3731
G1 X117.735 Y99.707 E14.44452
G1 X117.765 Y99.573 E14.45548
G1 X117.996 Y98.687 E14.52857
G1 X118.048 Y98.516 E14.54284
G1 X118.334 Y97.674 E14.61382
G1 X118.398 Y97.508 E14.62802
G1 X118.739 Y96.705 E14.69766
G1 X118.82 Y96.53 E14.71306
G1 X119.235 Y95.722 E14.78556
G1 X119.302 Y95.605 E14.79633
G1 X119.776 Y94.826 E14.86912
G1 X119.876 Y94.675 E14.88357
G1 X120.392 Y93.954 E14.95435
G1 X120.5 Y93.813 E14.96852
G0 F7200 X120 Y94.501
G1 F1125 X120 Y142.873 E18.82979
G0 F7200 X121.6 Y144.817
G1 F1125 X121.6 Y92.559 E23.00125
G0 F7200 X123.2 Y91.136
G1 F1125 X123.2 Y146.248 E27.40052
G0 F7200 X124.8 Y147.318
G1 F1125 X124.8 Y90.064 E31.97079
G0 F7200 X126.4 Y89.26
G1 F1125 X126.4 Y148.115 E36.66885
G0 F7200 X128 Y148.695
G1 F1125 X128 Y88.685 E41.4591
G0 F7200 X129.6 Y88.315
G1 F1125 X129.6 Y149.064 E46.30835
G0 F7200 X131.2 Y149.258
G1 F1125 X131.2 Y88.118 E51.18881
G0 F7200 X132.8 Y88.088
G1 F1125 X132.8 Y149.291 E56.0743
G0 F7200 X134.4 Y149.291
G1 F1125 X134.4 Y88.088 E60.95979
G0 F7200 X136 Y88.088
G1 F1125 X136 Y149.291 E65.84528
G0 F7200 X137.6 Y149.291
G1 F1125 X137.6 Y88.088 E70.73076
G0 F7200 X139.2 Y88.088
G1 F1125 X139.2 Y149.291 E75.61625
G0 F7200 X140.8 Y149.291
G1 F1125 X140.8 Y88.088 E80.50174
G0 F7200 X142.4 Y88.088
G1 F1125 X142.4 Y149.292 E85.38731
G0 F7200 X144 Y149.291
G1 F1125 X144 Y88.088 E90.2728
G0 F7200 X145.6 Y88.088
G1 F1125 X145.6 Y149.291 E95.15828
G0 F7200 X147.2 Y149.291
G1 F1125 X147.2 Y88.088 E100.04377
G0 F7200 X148.8 Y88.121
G1 F1125 X148.8 Y149.261 E104.92423
G0 F7200 X150.4 Y149.064
G1 F1125 X150.4 Y88.315 E109.77348
G0 F7200 X152 Y88.684
G1 F1125 X152 Y148.694 E114.56374
G0 F7200 X153.6 Y148.119
G1 F1125 X153.6 Y89.264 E119.2618
G0 F7200 X155.2 Y90.061
G1 F1125 X155.2 Y147.315 E123.83206
G0 F7200 X156.8 Y146.243
G1 F1125 X156.8 Y91.131 E128.23134
G0 F7200 X158.4 Y92.564
G1 F1125 X158.4 Y144.818 E132.40248
G0 F7200 X160 Y142.878
G1 F1125 X160 Y94.506 E136.26374
G0 F7200 X161.6 Y97.517
G1 F1125 X161.6 Y139.876 E139.64502
G1 F3600 E138.84502
G0 F7200 X162.58 Y140.291
G0 X161.71 Y142.145
G0 X160.996 Y143.314
G0 X159.726 Y144.958
G0 X158.207 Y146.468
G0 X157.137 Y147.326
G0 X155.385 Y148.439
G0 X154.19 Y149.027
G0 X152.225 Y149.739
G0 X150.916 Y150.058
G0 X148.839 Y150.324
G0 X132.08 Y150.355
G0 X129.945 Y150.201
G0 X128.629 Y149.96
G0 X126.632 Y149.361
G0 X125.368 Y148.824
G0 X123.574 Y147.818
G0 X122.469 Y147.03
G0 X120.881 Y145.607
G0 X119.496 Y144.004
G0 X118.72 Y142.877
G0 X117.924 Y141.392
G0 X117.413 Y140.259
G0 X118.4 Y139.861
G1 F3600 E139.64502
G1 F1125 X118.4 Y97.503 E143.02622
G1 F3600 E142.22622
G0 F300 X118.4 Y97.503 Z0.54
G0 F7200 X117.42 Y97.088
G0 X118.295 Y95.224
G0 X119.004 Y94.065
G0 X120.274 Y92.421
G0 X121.806 Y90.899
G0 X122.863 Y90.053
G0 X124.615 Y88.94
G0 X125.81 Y88.352
G0 X127.775 Y87.64
G0 X129.084 Y87.321
G0 X131.161 Y87.055
G0 X148.94 Y87.061
G0 X150.266 Y87.208
G0 X152.293 Y87.66
G0 X153.583 Y88.1
G0 X155.463 Y88.982
G0 X156.622 Y89.691
G0 X157.953 Y90.719
G0 X158.918 Y91.571
G0 X158.304 Y92.461
;TIME_ELAPSED:105.073130
;LAYER:-5
;TYPE:SUPPORT
G1 F3600 E143.02622
G1 F1125 X158.185 Y92.342 E143.04301
G1 X157.673 Y91.86 E143.11317
G1 X157.565 Y91.763 E143.12766
G1 X156.873 Y91.187 E143.2175
G1 X156.725 Y91.074 E143.23608
G1 X156.011 Y90.562 E143.32374
G1 X155.86 Y90.462 E143.34181
G1 X155.081 Y89.989 E143.43275
G1 X154.991 Y89.937 E143.44312
G1 X160.738 Y95.684 E144.25408
G1 X160.813 Y95.811 E144.2688
G1 X160.886 Y95.945 E144.28403
G1 X161.291 Y96.768 E144.37555
G1 X161.351 Y96.906 E144.39057
G1 X161.694 Y97.751 E144.48156
G1 X161.753 Y97.917 E144.49914
G1 X161.846 Y98.207 E144.52953
G1 X152.479 Y88.84 E145.85131
G1 X152.17 Y88.734 E145.88391
G1 X152.007 Y88.686 E145.90086
G1 X151.112 Y88.451 E145.99319
G1 X150.989 Y88.423 E146.00578
G1 X150.572 Y88.347 E146.04808
G1 X162.343 Y100.117 E147.70902
G1 X162.464 Y100.848 E147.78295
G1 X162.488 Y101.034 E147.80167
G1 X162.553 Y101.742 E147.87261
G1 X148.94 Y88.128 E149.79362
G1 X148.886 Y88.124 E149.79902
G1 X147.885 Y88.087 E149.89897
G1 X147.484 Y88.087 E149.93898
G1 X162.599 Y103.202 E152.07187
G1 X162.599 Y104.616 E152.21296
G1 X146.07 Y88.087 E154.54538
G1 X144.656 Y88.087 E154.68647
G1 X162.599 Y106.03 E157.21842
G1 X162.599 Y107.444 E157.35951
G1 X143.242 Y88.087 E160.09099
G1 X141.827 Y88.087 E160.23218
G1 X162.599 Y108.859 E163.16334
G1 X162.599 Y110.273 E163.30443
G1 X140.413 Y88.087 E166.43511
G1 X138.999 Y88.087 E166.5762
G1 X162.599 Y111.687 E169.90641
G1 X162.599 Y113.101 E170.0475
G1 X137.585 Y88.087 E173.57725
G1 X136.171 Y88.087 E173.71834
G1 X162.599 Y114.515 E177.44762
G1 X162.599 Y115.561 E177.55199
G1 X162.586 Y115.917 E177.58753
G1 X134.756 Y88.087 E181.51464
G1 X133.342 Y88.087 E181.65573
G1 X162.493 Y117.239 E185.76933
G1 X162.452 Y117.614 E185.80697
G1 X162.355 Y118.27 E185.87313
G1 X162.369 Y118.272 E185.87455
G1 X162.358 Y118.347 E185.88211
G1 X162.358 Y118.518 E185.89917
G1 X131.933 Y88.092 E190.19254
G1 X131.383 Y88.108 E190.24744
G1 X131.241 Y88.114 E190.26162
G1 X130.601 Y88.174 E190.32576
G1 X162.491 Y120.064 E194.82578
G1 X162.568 Y120.918 E194.91134
G1 X162.577 Y121.07 E194.92654
G1 X162.592 Y121.58 E194.97745
G1 X129.366 Y88.354 E199.66599
G1 X129.277 Y88.368 E199.67498
G1 X129.115 Y88.401 E199.69148
G1 X128.243 Y88.613 E199.78102
G1 X128.218 Y88.62 E199.78361
G1 X162.599 Y123.001 E204.63514
G1 X162.599 Y124.415 E204.77623
G1 X127.146 Y88.963 E209.77896
G1 X127.068 Y88.99 E209.7872
G1 X126.217 Y89.333 E209.87875
G1 X126.139 Y89.369 E209.88732
G1 X162.599 Y125.829 E215.03222
G1 X162.599 Y127.243 E215.17331
G1 X125.192 Y89.837 E220.45177
G1 X125.131 Y89.87 E220.45869
G1 X124.375 Y90.313 E220.54612
G1 X124.301 Y90.36 E220.55487
G1 X162.599 Y128.658 E225.95913
G1 X162.599 Y130.072 E226.10022
G1 X123.46 Y90.933 E231.62316
G1 X123.337 Y91.025 E231.63848
G1 X122.672 Y91.559 E231.72358
G1 X162.599 Y131.486 E237.35771
G1 X162.599 Y132.9 E237.4988
G1 X121.932 Y92.233 E243.23736
G1 X121.811 Y92.344 E243.25374
G1 X121.654 Y92.501 E243.2759
G1 X121.232 Y92.948 E243.33723
G1 X162.599 Y134.314 E249.17449
G1 X162.599 Y134.561 E249.19914
G1 X162.563 Y135.567 E249.29958
G1 X162.554 Y135.684 E249.31129
G1 X120.582 Y93.712 E255.23399
G1 X120.499 Y93.813 E255.24704
G1 X120.391 Y93.953 E255.26468
G1 X119.981 Y94.526 E255.33498
G1 X162.399 Y136.943 E261.32055
G1 X162.264 Y137.672 E261.39453
G1 X162.234 Y137.806 E261.40823
G1 X162.154 Y138.112 E261.43979
G1 X119.431 Y95.39 E267.4684
G1 X119.301 Y95.605 E267.49346
G1 X119.234 Y95.721 E267.50683
G1 X118.933 Y96.306 E267.57248
G1 X161.834 Y139.207 E273.62627
G1 X161.665 Y139.705 E273.67874
G1 X161.601 Y139.87 E273.6964
G1 X161.447 Y140.234 E273.73584
G1 X118.493 Y97.28 E279.79711
G1 X118.397 Y97.507 E279.82171
G1 X118.332 Y97.674 E279.83959
G1 X118.114 Y98.315 E279.90714
G1 X160.999 Y141.2 E285.95868
G1 X160.774 Y141.634 E286.00746
G1 X160.697 Y141.774 E286.0234
G1 X160.494 Y142.109 E286.06249
G1 X117.803 Y99.419 E292.08658
G1 X117.764 Y99.573 E292.10243
G1 X117.733 Y99.707 E292.11615
G1 X117.572 Y100.587 E292.20542
G1 X117.569 Y100.599 E292.20665
G1 X159.936 Y142.965 E298.18502
G1 X159.612 Y143.418 E298.24059
G1 X159.499 Y143.566 E298.25917
G1 X159.328 Y143.772 E298.28589
G1 X117.432 Y101.875 E304.19794
G1 X117.399 Y102.817 E304.29199
G1 X117.399 Y103.257 E304.33589
G1 X158.671 Y144.529 E310.15981
G1 X158.3 Y144.922 E310.21374
G1 X158.194 Y145.028 E310.2287
G1 X157.966 Y145.239 E310.2597
G1 X117.399 Y104.671 E315.98421
G1 X117.399 Y106.085 E316.1253
G1 X157.218 Y145.905 E321.74426
G1 X156.66 Y146.352 E321.8156
G1 X156.522 Y146.457 E321.8329
G1 X156.424 Y146.524 E321.84475
G1 X117.399 Y107.5 E327.35153
G1 X117.399 Y108.914 E327.49261
G1 X155.577 Y147.092 E332.87994
G1 X154.866 Y147.508 E332.96214
G1 X154.724 Y147.585 E332.97826
G1 X154.678 Y147.607 E332.98334
G1 X117.399 Y110.328 E338.24381
G1 X117.399 Y111.742 E338.3849
G1 X153.724 Y148.067 E343.51075
G1 X152.925 Y148.389 E343.59671
G1 X152.762 Y148.447 E343.61397
G1 X152.707 Y148.464 E343.61972
G1 X117.399 Y113.156 E348.60206
G1 X117.399 Y114.571 E348.74324
G1 X151.624 Y148.796 E353.57276
G1 X150.883 Y148.976 E353.64885
G1 X150.721 Y149.01 E353.66537
G1 X150.465 Y149.051 E353.69124
G1 X117.411 Y115.997 E358.35551
G1 X117.42 Y116.307 E358.38646
G1 X117.427 Y116.444 E358.40014
G1 X117.51 Y117.343 E358.49023
G1 X117.531 Y117.509 E358.50692
G1 X117.535 Y117.535 E358.50955
G1 X149.22 Y149.22 E362.98064
G1 X148.758 Y149.263 E363.02694
G1 X148.615 Y149.27 E363.04123
G1 X147.875 Y149.29 E363.11509
G1 X117.637 Y119.051 E367.38207
G1 X117.63 Y119.105 E367.3875
G1 X117.643 Y119.107 E367.38882
G1 X117.546 Y119.761 E367.45479
G1 X117.485 Y120.314 E367.5103
G1 X146.461 Y149.29 E371.59913
G1 X145.047 Y149.29 E371.74022
G1 X117.405 Y121.648 E375.6408
G1 X117.4 Y121.816 E375.65757
G1 X117.4 Y123.057 E375.7814
G1 X143.633 Y149.29 E379.48316
G1 X143.333 Y149.29 E379.51309
G1 X143.184 Y149.285 E379.52797
G1 X142.921 Y149.283 E379.55421
G1 X142.39 Y149.291 E379.6072
G1 X142.219 Y149.29 E379.62426
G1 X117.4 Y124.471 E383.12649
G1 X117.4 Y125.885 E383.26758
G1 X140.805 Y149.29 E386.57028
G1 X139.391 Y149.29 E386.71137
G1 X117.4 Y127.299 E389.81454
G1 X117.4 Y128.713 E389.95563
G1 X137.977 Y149.29 E392.85926
G1 X137.554 Y149.29 E392.90147
G1 X137.319 Y149.282 E392.92493
G1 X136.984 Y149.28 E392.95836
G1 X136.621 Y149.291 E392.9946
G1 X136.562 Y149.29 E393.00049
G1 X117.4 Y130.128 E395.70445
G1 X117.4 Y131.542 E395.84554
