;FLAVOR:Marlin
;TIME:18422
;Filament used: 11.4538m
;Layer height: 0.2
;MINX:74.498
;MINY:70.796
;MINZ:0.2
;MAXX:205.541
;MAXY:190.086
;MAXZ:12
;Generated with Creality Slicer 4.8.2-254
M140 S60
M105
M190 S60
M104 S200
M105
M109 S200
M82 ;absolute extrusion mode

G28 ;Home

G92 E0 ;Reset Extruder
G1 Z2.0 F3000 ;Move Z Axis up
G1 X10.1 Y20 Z0.28 F5000.0 ;Move to start position
G1 X10.1 Y200.0 Z0.28 F1500.0 E15 ;Draw the first line
G1 X10.4 Y200.0 Z0.28 F5000.0 ;Move to side a little
G1 X10.4 Y20 Z0.28 F1500.0 E30 ;Draw the second line
G92 E0 ;Reset Extruder
G1 Z2.0 F3000 ;Move Z Axis up

G92 E0
G92 E0
G1 F3600 E-0.8
;LAYER_COUNT:60
;LAYER:0
M107
;MESH:jetbot_3d_mode_wifi_antenna_fin.stl(4)
G0 F6000 X79.077 Y114.922 Z0.2
;TYPE:WALL-INNER
G1 F3600 E0
G1 F1200 X79.465 Y114.767 E0.0139
G1 X79.827 Y114.552 E0.0279
G1 X80.173 Y114.262 E0.04292
G1 X80.446 Y113.943 E0.05688
G1 X80.664 Y113.587 E0.07076
G1 X80.823 Y113.201 E0.08465
G1 X80.92 Y112.792 E0.09863
G1 X80.949 Y112.398 E0.11177
G1 X80.935 Y112.133 E0.1206
G1 X80.87 Y111.739 E0.13388
G1 X80.734 Y111.34 E0.1479
G1 X80.523 Y110.941 E0.16291
G1 X80.263 Y110.603 E0.17709
G1 X79.931 Y110.293 E0.1922
G1 X79.58 Y110.064 E0.20614
G1 X79.205 Y109.891 E0.21988
G1 X78.818 Y109.783 E0.23324
G1 X78.801 Y109.779 E0.23382
G1 X78.383 Y109.732 E0.24781
G1 X77.967 Y109.753 E0.26167
G1 X77.817 Y109.783 E0.26675
G1 X77.566 Y109.835 E0.27528
G1 X77.173 Y109.98 E0.28921
G1 X76.81 Y110.189 E0.30314
G1 X76.485 Y110.447 E0.31694
G1 X76.2 Y110.76 E0.33102
G1 X75.956 Y111.137 E0.34596
G1 X75.788 Y111.523 E0.35996
G1 X75.696 Y111.878 E0.37216
G1 X75.684 Y111.927 E0.37384
G1 X75.682 Y111.957 E0.37484
G1 X75.648 Y112.311 E0.38667
G1 X75.644 Y112.345 E0.3878
G1 X75.673 Y112.761 E0.40167
G1 X75.696 Y112.868 E0.40531
G1 X75.761 Y113.161 E0.4153
G1 X75.913 Y113.55 E0.42919
G1 X76.128 Y113.911 E0.44316
G1 X76.393 Y114.23 E0.45696
G1 X76.704 Y114.507 E0.47081
G1 X77.055 Y114.728 E0.4846
G1 X77.435 Y114.894 E0.4984
G1 X77.465 Y114.901 E0.49942
G1 X77.84 Y114.999 E0.51231
G1 X77.871 Y115.001 E0.51334
G1 X78.224 Y115.034 E0.52514
G1 X78.257 Y115.038 E0.52624
G1 X78.67 Y115.011 E0.54001
G1 X79.077 Y114.922 E0.55386
G0 F6000 X78.959 Y114.538
G1 F1200 X79.288 Y114.407 E0.56564
G1 X79.595 Y114.225 E0.57751
G1 X79.89 Y113.977 E0.59033
G1 X80.121 Y113.707 E0.60215
G1 X80.306 Y113.405 E0.61393
G1 X80.441 Y113.078 E0.6257
G1 X80.523 Y112.731 E0.63755
G1 X80.548 Y112.393 E0.64883
G1 X80.537 Y112.176 E0.65605
G1 X80.481 Y111.837 E0.66748
G1 X80.366 Y111.499 E0.67936
G1 X80.185 Y111.158 E0.6922
G1 X79.966 Y110.873 E0.70415
G1 X79.683 Y110.609 E0.71702
G1 X79.386 Y110.415 E0.72882
G1 X79.067 Y110.268 E0.74051
G1 X78.725 Y110.173 E0.75231
G1 X78.371 Y110.133 E0.76416
G1 X78.018 Y110.151 E0.77592
G1 X77.676 Y110.221 E0.78753
G1 X77.343 Y110.344 E0.79933
G1 X77.035 Y110.521 E0.81115
G1 X76.759 Y110.74 E0.82287
G1 X76.518 Y111.005 E0.83478
G1 X76.31 Y111.327 E0.84753
G1 X76.167 Y111.654 E0.8594
G1 X76.079 Y111.996 E0.87115
G1 X76.045 Y112.35 E0.88298
G1 X76.07 Y112.704 E0.89478
G1 X76.145 Y113.044 E0.90636
G1 X76.274 Y113.374 E0.91814
G1 X76.456 Y113.68 E0.92999
G1 X76.681 Y113.951 E0.9417
G1 X76.945 Y114.186 E0.95346
G1 X77.243 Y114.374 E0.96518
G1 X77.566 Y114.515 E0.9769
G1 X77.909 Y114.604 E0.98868
G1 X78.263 Y114.637 E1.00051
G1 X78.614 Y114.614 E1.01221
G1 X78.959 Y114.538 E1.02396
G0 F6000 X78.841 Y114.154
;TYPE:WALL-OUTER
G1 F1200 X79.111 Y114.047 E1.03362
G1 X79.363 Y113.898 E1.04335
G1 X79.607 Y113.692 E1.05398
G1 X79.796 Y113.471 E1.06365
G1 X79.948 Y113.223 E1.07332
G1 X80.059 Y112.955 E1.08297
G1 X80.126 Y112.67 E1.09271
G1 X80.147 Y112.388 E1.10211
G1 X80.139 Y112.218 E1.10777
G1 X80.092 Y111.935 E1.11732
G1 X79.998 Y111.658 E1.12704
G1 X79.848 Y111.375 E1.1377
G1 X79.669 Y111.143 E1.14744
G1 X79.435 Y110.925 E1.15808
G1 X79.192 Y110.766 E1.16774
G1 X78.929 Y110.645 E1.17737
G1 X78.648 Y110.567 E1.18707
G1 X78.359 Y110.534 E1.19674
G1 X78.069 Y110.549 E1.2064
G1 X77.786 Y110.607 E1.21601
G1 X77.513 Y110.708 E1.22569
G1 X77.26 Y110.853 E1.23539
G1 X77.033 Y111.033 E1.24502
G1 X76.836 Y111.25 E1.25477
G1 X76.663 Y111.517 E1.26535
G1 X76.546 Y111.785 E1.27508
G1 X76.474 Y112.065 E1.2847
G1 X76.446 Y112.355 E1.29439
G1 X76.467 Y112.646 E1.30409
G1 X76.529 Y112.927 E1.31366
G1 X76.635 Y113.198 E1.32334
G1 X76.784 Y113.449 E1.33305
G1 X76.969 Y113.672 E1.34269
G1 X77.186 Y113.865 E1.35234
G1 X77.431 Y114.02 E1.36199
G1 X77.697 Y114.136 E1.37164
G1 X77.978 Y114.209 E1.38129
G1 X78.268 Y114.236 E1.39098
G1 X78.557 Y114.217 E1.40061
G1 X78.841 Y114.154 E1.41029
G0 F6000 X78.97 Y114.574
G1 F3600 E0.61029
G0 F6000 X76.27 Y114.349
G0 X75.505 Y112.949
G0 X75.504 Y143.807
G0 X78.341 Y141.56
G0 X80.007 Y143.181
G0 X80.306 Y143.804
G0 X80.387 Y144.387
G0 X80.307 Y144.906
G0 X79.506 Y146.747
;TYPE:WALL-INNER
G1 F3600 E1.41029
G1 F1200 X79.859 Y146.528 E1.42411
G1 X80.175 Y146.26 E1.43789
G1 X80.446 Y145.943 E1.45176
G1 X80.664 Y145.587 E1.46564
G1 X80.823 Y145.201 E1.47953
G1 X80.899 Y144.884 E1.49037
G1 X80.92 Y144.794 E1.49344
G1 X80.949 Y144.392 E1.50685
G1 X80.929 Y144.052 E1.51818
G1 X80.899 Y143.904 E1.5232
G1 X80.845 Y143.647 E1.53194
G1 X80.684 Y143.224 E1.54699
G1 X80.467 Y142.856 E1.5612
G1 X80.202 Y142.54 E1.57491
G1 X79.891 Y142.263 E1.58877
G1 X79.54 Y142.042 E1.60256
G1 X79.16 Y141.876 E1.61635
G1 X79.13 Y141.869 E1.61738
G1 X78.755 Y141.771 E1.63027
G1 X78.724 Y141.769 E1.6313
G1 X78.371 Y141.736 E1.6431
G1 X78.338 Y141.732 E1.6442
G1 X77.925 Y141.759 E1.65797
G1 X77.518 Y141.848 E1.67182
G1 X77.13 Y142.003 E1.68572
G1 X76.774 Y142.215 E1.6995
G1 X76.45 Y142.481 E1.71344
G1 X76.176 Y142.792 E1.72723
G1 X75.954 Y143.141 E1.74099
G1 X75.785 Y143.526 E1.75497
G1 X75.692 Y143.901 E1.76782
G1 X75.684 Y143.93 E1.76882
G1 X75.682 Y143.96 E1.76982
G1 X75.649 Y144.313 E1.78161
G1 X75.645 Y144.346 E1.78272
G1 X75.672 Y144.762 E1.79659
G1 X75.696 Y144.87 E1.80027
G1 X75.764 Y145.167 E1.8104
G1 X75.933 Y145.588 E1.82549
G1 X76.155 Y145.947 E1.83953
G1 X76.423 Y146.264 E1.85333
G1 X76.743 Y146.535 E1.86728
G1 X77.095 Y146.751 E1.88102
G1 X77.481 Y146.91 E1.8949
G1 X77.81 Y146.988 E1.90615
G1 X77.855 Y146.998 E1.90768
G1 X77.886 Y147.006 E1.90875
G1 X78.302 Y147.038 E1.92262
G1 X78.718 Y147.004 E1.93651
G1 X78.791 Y146.987 E1.939
G1 X79.119 Y146.908 E1.95022
G1 X79.506 Y146.747 E1.96416
G0 F6000 X79.323 Y146.39
G1 F1200 X79.623 Y146.204 E1.9759
G1 X79.892 Y145.976 E1.98763
G1 X80.121 Y145.707 E1.99938
G1 X80.306 Y145.405 E2.01116
G1 X80.441 Y145.078 E2.02292
G1 X80.523 Y144.733 E2.03472
G1 X80.548 Y144.389 E2.04619
G1 X80.531 Y144.104 E2.05569
G1 X80.46 Y143.759 E2.0674
G1 X80.322 Y143.398 E2.08026
G1 X80.139 Y143.088 E2.09223
G1 X79.914 Y142.819 E2.10389
G1 X79.65 Y142.584 E2.11565
G1 X79.352 Y142.396 E2.12737
G1 X79.029 Y142.255 E2.13909
G1 X78.686 Y142.166 E2.15088
G1 X78.332 Y142.133 E2.1627
G1 X77.981 Y142.156 E2.1744
G1 X77.636 Y142.232 E2.18615
G1 X77.307 Y142.363 E2.19793
G1 X77.004 Y142.543 E2.20965
G1 X76.729 Y142.769 E2.22149
G1 X76.497 Y143.033 E2.23318
G1 X76.308 Y143.33 E2.24489
G1 X76.165 Y143.656 E2.25673
G1 X76.079 Y143.998 E2.26846
G1 X76.046 Y144.352 E2.28028
G1 X76.069 Y144.704 E2.29201
G1 X76.147 Y145.048 E2.30375
G1 X76.291 Y145.407 E2.31661
G1 X76.479 Y145.711 E2.3285
G1 X76.707 Y145.98 E2.34023
G1 X76.978 Y146.21 E2.35205
G1 X77.277 Y146.393 E2.36371
G1 X77.604 Y146.528 E2.37548
G1 X77.948 Y146.61 E2.38724
G1 X78.301 Y146.637 E2.39901
G1 X78.654 Y146.608 E2.41079
G1 X78.995 Y146.526 E2.42246
G1 X79.323 Y146.39 E2.43427
G0 F6000 X79.14 Y146.033
;TYPE:WALL-OUTER
G1 F1200 X79.387 Y145.88 E2.44393
G1 X79.608 Y145.692 E2.45358
G1 X79.796 Y145.471 E2.46323
G1 X79.948 Y145.223 E2.47291
G1 X80.059 Y144.955 E2.48256
G1 X80.126 Y144.672 E2.49223
G1 X80.147 Y144.386 E2.50177
G1 X80.133 Y144.156 E2.50943
G1 X80.075 Y143.871 E2.5191
G1 X79.961 Y143.573 E2.52972
G1 X79.811 Y143.32 E2.5395
G1 X79.626 Y143.098 E2.54911
G1 X79.409 Y142.905 E2.55877
G1 X79.164 Y142.75 E2.56841
G1 X78.898 Y142.634 E2.57806
G1 X78.617 Y142.561 E2.58772
G1 X78.327 Y142.534 E2.59741
G1 X78.038 Y142.553 E2.60704
G1 X77.754 Y142.616 E2.61672
G1 X77.484 Y142.723 E2.62638
G1 X77.234 Y142.871 E2.63604
G1 X77.008 Y143.057 E2.64577
G1 X76.818 Y143.274 E2.65537
G1 X76.662 Y143.519 E2.66503
G1 X76.545 Y143.786 E2.67472
G1 X76.474 Y144.066 E2.68433
G1 X76.447 Y144.357 E2.69405
G1 X76.466 Y144.646 E2.70368
G1 X76.53 Y144.929 E2.71333
G1 X76.649 Y145.226 E2.72398
G1 X76.803 Y145.475 E2.73371
G1 X76.991 Y145.696 E2.74336
G1 X77.213 Y145.885 E2.75306
G1 X77.459 Y146.035 E2.76264
G1 X77.728 Y146.146 E2.77232
G1 X78.01 Y146.214 E2.78197
G1 X78.3 Y146.236 E2.79164
G1 X78.59 Y146.212 E2.80132
G1 X78.871 Y146.144 E2.81094
G1 X79.14 Y146.033 E2.82062
G0 F6000 X79.34 Y146.424
G0 X78.866 Y147.179
G0 X81.297 Y147.385
;TYPE:WALL-INNER
G1 F1200 X78.794 Y147.385 E2.90387
G1 X78.718 Y147.385 E2.90634
G1 X78.302 Y147.385 E2.91896
G1 X77.886 Y147.385 E2.93155
G1 X77.839 Y147.385 E2.93309
G1 X75.298 Y147.385 E3.01761
G1 X75.298 Y144.873 E3.10115
G1 X75.298 Y144.762 E3.10473
G1 X75.298 Y144.346 E3.11723
G1 X75.298 Y143.93 E3.13009
G1 X75.298 Y112.871 E4.16312
G1 X75.298 Y112.761 E4.16667
G1 X75.298 Y112.345 E4.17917
G1 X75.298 Y111.927 E4.19207
G1 X75.298 Y111.876 E4.19374
G1 X75.298 Y109.385 E4.27659
G1 X77.814 Y109.385 E4.36028
G1 X77.967 Y109.385 E4.36517
G1 X78.383 Y109.385 E4.37757
G1 X78.801 Y109.385 E4.39048
G1 X78.819 Y109.385 E4.39107
G1 X101.908 Y109.385 E5.15901
G1 X101.909 Y109.385 E5.15905
G1 X102.195 Y109.385 E5.16856
G1 X102.095 Y109.653 E5.17417
G1 X93.288 Y133.135 E6.00831
G1 X81.297 Y133.135 E6.40713
G1 X81.297 Y143.901 E6.76521
G1 X81.297 Y144.052 E6.77004
G1 X81.297 Y144.392 E6.78019
G1 X81.297 Y144.794 E6.79233
G1 X81.297 Y144.887 E6.79534
G1 X81.297 Y147.385 E6.87843
G0 F6000 X81.697 Y147.785
G1 F1200 X74.898 Y147.785 E7.10456
G1 X74.898 Y108.985 E8.39506
G1 X102.485 Y108.985 E9.3126
G1 X102.486 Y108.985 E9.31264
G1 X102.772 Y108.985 E9.32215
G1 X102.672 Y109.253 E9.32776
G1 X93.566 Y133.535 E10.19031
G1 X81.697 Y133.535 E10.58507
G1 X81.697 Y147.785 E11.05903
G0 F6000 X82.097 Y148.185
;TYPE:WALL-OUTER
G1 F1200 X74.498 Y148.185 E11.31177
G1 X74.498 Y108.585 E12.62887
G1 X103.35 Y108.585 E13.58849
G1 X93.843 Y133.935 E14.48898
G1 X82.097 Y133.935 E14.87966
G1 X82.097 Y148.185 E15.35361
G0 F6000 X81.827 Y147.915
G0 X81.187 Y146.995
G0 X80.907 Y146.995
;TYPE:SKIN
G1 F1200 X79.845 Y146.995 E15.38894
G1 X80.089 Y146.844 E15.39848
G1 X80.452 Y146.537 E15.41429
G1 X80.762 Y146.173 E15.43019
G1 X80.907 Y145.937 E15.43941
G1 X80.907 Y146.995 E15.4746
G0 F6000 X80.511 Y146.696
G1 F1200 X80.649 Y146.834 E15.48109
G0 F6000 X80.649 Y147.275
G0 X78.866 Y147.179
G0 X79.572 Y146.835
G0 X79.656 Y146.973
;TYPE:SKIN
G1 F1200 X79.574 Y146.89 E15.48303
G0 F6000 X79.374 Y146.974
G1 F1200 X79.624 Y147.223 E15.48889
G0 F6000 X79.341 Y147.223
G1 F1200 X79.175 Y147.057 E15.4928
G0 F6000 X79.058 Y147.223
G1 F1200 X78.947 Y147.112 E15.49541
G0 F6000 X78.937 Y147.065
G0 X80.786 Y145.582
G0 X80.83 Y145.601
G1 F1200 X81.012 Y145.783 E15.49969
G0 F6000 X81.137 Y145.625
G1 F1200 X80.912 Y145.4 E15.50498
G0 F6000 X80.988 Y145.193
G1 F1200 X81.137 Y145.342 E15.50849
G0 F6000 X81.137 Y145.06
G1 F1200 X81.042 Y144.965 E15.51072
G0 F6000 X81.097 Y144.899
G0 X81.187 Y142.834
G0 X80.907 Y142.834
;TYPE:SKIN
G1 F1200 X80.787 Y142.63 E15.51859
G1 X80.483 Y142.267 E15.53434
G1 X80.127 Y141.951 E15.55017
G1 X79.723 Y141.697 E15.56604
G1 X79.288 Y141.506 E15.58185
G1 X78.823 Y141.385 E15.59783
G1 X78.344 Y141.34 E15.61383
G1 X77.87 Y141.371 E15.62963
G1 X77.403 Y141.474 E15.64553
G1 X76.957 Y141.652 E15.6615
G1 X76.549 Y141.895 E15.6773
G1 X76.179 Y142.2 E15.69325
G1 X75.864 Y142.556 E15.70906
G1 X75.688 Y142.833 E15.71997
G1 X75.688 Y113.935 E16.68113
G1 X75.808 Y114.137 E16.68894
G1 X76.112 Y114.501 E16.70471
G1 X76.468 Y114.819 E16.72059
G1 X76.872 Y115.073 E16.73646
G1 X77.307 Y115.264 E16.75226
G1 X77.772 Y115.385 E16.76824
G1 X78.251 Y115.43 E16.78425
G1 X78.725 Y115.399 E16.80005
G1 X79.192 Y115.296 E16.81595
G1 X79.638 Y115.118 E16.83192
G1 X80.053 Y114.872 E16.84797
G1 X80.448 Y114.54 E16.86513
G1 X80.762 Y114.173 E16.8812
G1 X81.013 Y113.764 E16.89716
G1 X81.195 Y113.321 E16.91309
G1 X81.306 Y112.852 E16.92912
G1 X81.339 Y112.402 E16.94412
G1 X81.323 Y112.091 E16.95448
G1 X81.25 Y111.644 E16.96954
G1 X81.093 Y111.184 E16.98571
G1 X80.852 Y110.73 E17.00281
G1 X80.553 Y110.34 E17.01915
G1 X80.173 Y109.985 E17.03645
G1 X79.85 Y109.775 E17.04926
G1 X101.633 Y109.775 E17.77377
G1 X93.018 Y132.745 E18.58972
G1 X80.907 Y132.745 E18.99253
G1 X80.907 Y142.834 E19.32809
G0 F6000 X81.187 Y142.834
G0 X81.091 Y143.819
G0 X79.276 Y142.538
G0 X78.658 Y142.324
G0 X76.318 Y142.464
G0 X75.989 Y142.174
G1 F1200 X75.847 Y142.033 E19.33475
G0 F6000 X76.284 Y141.904
G1 F1200 X75.847 Y141.467 E19.3553
G0 F6000 X75.847 Y140.901
G1 F1200 X76.614 Y141.668 E19.39138
G0 F6000 X76.98 Y141.468
G1 F1200 X75.847 Y140.335 E19.44467
G0 F6000 X75.847 Y139.77
G1 F1200 X77.39 Y141.312 E19.51723
G0 F6000 X77.853 Y141.21
G1 F1200 X75.847 Y139.204 E19.61158
G0 F6000 X75.847 Y138.638
G1 F1200 X78.391 Y141.182 E19.73125
G0 F6000 X79.053 Y141.278
G1 F1200 X75.847 Y138.073 E19.88202
G0 F6000 X75.847 Y137.507
G1 F1200 X80.057 Y141.716 E20.08003
G0 F6000 X80.747 Y141.841
G1 F1200 X75.847 Y136.941 E20.31051
G0 F6000 X75.847 Y136.376
G1 F1200 X80.747 Y141.275 E20.54096
G0 F6000 X80.747 Y140.71
G1 F1200 X75.847 Y135.81 E20.77144
G0 F6000 X75.847 Y135.244
G1 F1200 X80.747 Y140.144 E21.00193
G0 F6000 X80.747 Y139.578
G1 F1200 X75.847 Y134.679 E21.23238
G0 F6000 X75.847 Y134.113
G1 F1200 X80.747 Y139.012 E21.46284
G0 F6000 X80.747 Y138.447
G1 F1200 X75.847 Y133.547 E21.69332
G0 F6000 X75.847 Y132.982
G1 F1200 X80.747 Y137.881 E21.92378
G0 F6000 X80.747 Y137.315
G1 F1200 X75.847 Y132.416 E22.15424
G0 F6000 X75.847 Y131.85
G1 F1200 X80.747 Y136.75 E22.38472
G0 F6000 X80.747 Y136.184
G1 F1200 X75.847 Y131.284 E22.6152
G0 F6000 X75.847 Y130.719
G1 F1200 X80.747 Y135.618 E22.84566
G0 F6000 X80.747 Y135.053
G1 F1200 X75.847 Y130.153 E23.07614
G0 F6000 X75.847 Y129.587
G1 F1200 X80.747 Y134.487 E23.30662
G0 F6000 X80.747 Y133.921
G1 F1200 X75.847 Y129.022 E23.53708
G0 F6000 X75.847 Y128.456
G1 F1200 X80.747 Y133.356 E23.76756
G0 F6000 X80.747 Y132.79
G1 F1200 X75.847 Y127.89 E23.99804
G0 F6000 X75.847 Y127.325
G1 F1200 X81.106 Y132.583 E24.24538
G0 F6000 X81.672 Y132.583
G1 F1200 X75.847 Y126.759 E24.51935
G0 F6000 X75.847 Y126.193
G1 F1200 X82.237 Y132.583 E24.81991
G0 F6000 X82.803 Y132.583
G1 F1200 X75.847 Y125.628 E25.14708
G0 F6000 X75.847 Y125.062
G1 F1200 X83.369 Y132.583 E25.50087
G0 F6000 X83.934 Y132.583
G1 F1200 X75.847 Y124.496 E25.88126
G0 F6000 X75.847 Y123.931
G1 F1200 X84.5 Y132.583 E26.28824
G0 F6000 X85.066 Y132.583
G1 F1200 X75.847 Y123.365 E26.72185
G0 F6000 X75.847 Y122.799
G1 F1200 X85.632 Y132.583 E27.18208
G0 F6000 X86.197 Y132.583
G1 F1200 X75.847 Y122.234 E27.66889
G0 F6000 X75.847 Y121.668
G1 F1200 X86.763 Y132.583 E28.18233
G0 F6000 X87.329 Y132.583
G1 F1200 X75.847 Y121.102 E28.72238
G0 F6000 X75.847 Y120.536
G1 F1200 X87.894 Y132.583 E29.28903
G0 F6000 X88.46 Y132.583
G1 F1200 X75.847 Y119.971 E29.88229
G0 F6000 X75.847 Y119.405
G1 F1200 X89.026 Y132.583 E30.50216
G0 F6000 X89.591 Y132.583
G1 F1200 X75.847 Y118.839 E31.14864
G0 F6000 X75.847 Y118.274
G1 F1200 X90.157 Y132.583 E31.82171
G0 F6000 X90.723 Y132.583
G1 F1200 X75.847 Y117.708 E32.52141
G0 F6000 X75.847 Y117.142
G1 F1200 X91.288 Y132.583 E33.24771
G0 F6000 X91.854 Y132.583
G1 F1200 X75.847 Y116.577 E34.00061
G0 F6000 X75.847 Y116.011
G1 F1200 X92.42 Y132.583 E34.78013
G0 F6000 X92.93 Y132.528
G1 F1200 X75.847 Y115.445 E35.58366
G0 F6000 X75.847 Y114.88
G1 F1200 X93.084 Y132.116 E36.39441
G0 F6000 X93.238 Y131.705
G1 F1200 X76.664 Y115.131 E37.174
G0 F6000 X76.898 Y114.76
G0 X77.715 Y115.082
G0 X77.604 Y115.505
G1 F1200 X93.392 Y131.293 E37.91662
G0 F6000 X93.546 Y130.881
G1 F1200 X78.254 Y115.59 E38.63588
G0 F6000 X78.78 Y115.55
G1 F1200 X93.701 Y130.471 E39.33772
G0 F6000 X93.855 Y130.059
G1 F1200 X79.243 Y115.447 E40.02503
