;FLAVOR:Marlin
;TIME:4110
;Filament used: 2.57089m
;Layer height: 0.2
;MINX:112.427
;MINY:102.504
;MINZ:0.24
;MAXX:141.686
;MAXY:150.771
;MAXZ:36.09
;Generated with Creality Slicer 4.8.2-254
M140 S60
M105
M190 S60
M104 S200
M105
M109 S200
M82 ;absolute extrusion mode

G28 ;Home

G92 E0 ;Reset Extruder
G1 Z2.0 F3000 ;Move Z Axis up
G1 X10.1 Y20 Z0.28 F5000.0 ;Move to start position
G1 X10.1 Y200.0 Z0.28 F1500.0 E15 ;Draw the first line
G1 X10.4 Y200.0 Z0.28 F5000.0 ;Move to side a little
G1 X10.4 Y20 Z0.28 F1500.0 E30 ;Draw the second line
G92 E0 ;Reset Extruder
G1 Z2.0 F3000 ;Move Z Axis up

G92 E0
G92 E0
G1 F3600 E-0.8
;LAYER_COUNT:175
;LAYER:-6
M107
G0 F7200 X113.704 Y103.832 Z0.24
;TYPE:SUPPORT-INTERFACE
G1 F3600 E0
G1 F1125 X113.871 Y103.688 E0.0176
G1 X113.894 Y103.673 E0.01979
G1 X114.026 Y103.611 E0.03144
G1 X114.094 Y103.59 E0.03712
G1 X114.159 Y103.578 E0.04239
G1 X114.354 Y103.568 E0.05798
G1 X124.783 Y103.568 E0.89047
G1 X125.063 Y103.588 E0.91287
G1 X125.109 Y103.598 E0.91663
G1 X125.468 Y103.728 E0.94711
G1 X126.112 Y103.914 E1.00062
G1 X126.785 Y104.021 E1.05501
G1 X127.468 Y104.042 E1.10956
G1 X128.149 Y103.976 E1.16418
G1 X128.867 Y103.808 E1.22304
G1 X129.014 Y103.763 E1.23531
G1 X129.09 Y103.749 E1.24148
G1 X129.284 Y103.739 E1.25698
G1 X139.713 Y103.739 E2.08947
G1 X139.992 Y103.759 E2.1118
G1 X140.044 Y103.77 E2.11604
G1 X140.161 Y103.812 E2.12597
G1 X140.231 Y103.849 E2.13229
G1 X140.281 Y103.884 E2.13716
G1 X140.354 Y103.949 E2.14496
G1 X140.5 Y104.118 E2.16279
G1 X140.515 Y104.14 E2.16491
G1 X140.579 Y104.277 E2.17698
G1 X140.599 Y104.341 E2.18234
G1 X140.61 Y104.404 E2.18744
G1 X140.621 Y104.6 E2.20311
G1 X140.621 Y144.03 E5.35058
G1 X140.607 Y144.226 E5.36627
G1 X140.609 Y145 E5.42805
G1 X140.614 Y145.063 E5.4331
G1 X140.621 Y145.24 E5.44724
G1 X140.621 Y148.799 E5.73133
G1 X140.601 Y149.078 E5.75366
G1 X140.59 Y149.131 E5.75798
G1 X140.548 Y149.247 E5.76783
G1 X140.512 Y149.315 E5.77397
G1 X140.472 Y149.372 E5.77953
G1 X140.404 Y149.448 E5.78767
G1 X140.25 Y149.582 E5.80397
G1 X140.217 Y149.604 E5.80713
G1 X140.088 Y149.664 E5.81849
G1 X140.018 Y149.686 E5.82435
G1 X139.951 Y149.698 E5.82978
G1 X139.756 Y149.708 E5.84537
G1 X138.401 Y149.707 E5.95353
G1 X138.121 Y149.687 E5.97594
G1 X138.069 Y149.676 E5.98018
G1 X137.952 Y149.634 E5.9901
G1 X137.886 Y149.599 E5.99606
G1 X137.825 Y149.556 E6.00202
G1 X137.714 Y149.457 E6.01389
G1 X137.55 Y149.27 E6.03375
G1 X137.516 Y149.219 E6.03864
G1 X137.465 Y149.111 E6.04818
G1 X137.34 Y148.712 E6.08155
G1 X137.1 Y148.087 E6.13499
G1 X136.776 Y147.486 E6.1895
G1 X136.38 Y146.93 E6.24398
G1 X135.916 Y146.429 E6.29849
G1 X135.394 Y145.99 E6.35294
G1 X134.819 Y145.621 E6.40748
G1 X134.202 Y145.327 E6.46203
G1 X133.554 Y145.113 E6.51651
G1 X132.883 Y144.982 E6.57108
G1 X132.204 Y144.939 E6.62539
G1 X129.329 Y144.939 E6.85488
G1 X129.049 Y144.919 E6.87729
G1 X129.003 Y144.909 E6.88105
G1 X128.644 Y144.779 E6.91153
G1 X128 Y144.593 E6.96504
G1 X127.327 Y144.486 E7.01943
G1 X126.644 Y144.465 E7.07398
G1 X125.963 Y144.531 E7.12859
G1 X125.245 Y144.699 E7.18745
G1 X125.098 Y144.744 E7.19973
G1 X125.022 Y144.758 E7.2059
G1 X124.828 Y144.768 E7.2214
G1 X121.889 Y144.768 E7.45601
G1 X121.221 Y144.81 E7.50943
G1 X120.55 Y144.939 E7.56398
G1 X119.901 Y145.152 E7.6185
G1 X119.284 Y145.444 E7.67299
G1 X118.709 Y145.812 E7.72748
G1 X118.185 Y146.25 E7.782
G1 X117.721 Y146.75 E7.83645
G1 X117.322 Y147.306 E7.89108
G1 X116.998 Y147.906 E7.94551
G1 X116.753 Y148.54 E7.99977
G1 X116.703 Y148.73 E8.01545
G1 X116.619 Y148.966 E8.03544
G1 X116.581 Y149.037 E8.04187
G1 X116.544 Y149.09 E8.04703
G1 X116.416 Y149.233 E8.06235
G1 X116.206 Y149.414 E8.08448
G1 X116.178 Y149.432 E8.08714
G1 X116.046 Y149.494 E8.09878
G1 X115.978 Y149.515 E8.10446
G1 X115.913 Y149.527 E8.10974
G1 X115.718 Y149.537 E8.12532
G1 X114.4 Y149.537 E8.23053
G1 X114.121 Y149.517 E8.25286
G1 X114.069 Y149.506 E8.2571
G1 X113.949 Y149.463 E8.26728
G1 X113.887 Y149.43 E8.27289
G1 X113.817 Y149.381 E8.27971
G1 X113.76 Y149.33 E8.28581
G1 X113.614 Y149.163 E8.30352
G1 X113.594 Y149.132 E8.30646
G1 X113.534 Y149.004 E8.31775
G1 X113.515 Y148.945 E8.3227
G1 X113.5 Y148.862 E8.32943
G1 X113.491 Y148.688 E8.34334
G1 X113.492 Y145.152 E8.6256
G1 X113.507 Y144.949 E8.64184
G1 X113.512 Y144.291 E8.69437
G1 X113.491 Y143.92 E8.72403
G1 X113.491 Y104.471 E11.87302
G1 X113.511 Y104.197 E11.89495
G1 X113.522 Y104.145 E11.89919
G1 X113.567 Y104.021 E11.90972
G1 X113.602 Y103.956 E11.91562
G1 X113.637 Y103.906 E11.92049
G1 X113.704 Y103.832 E11.92846
G0 F7200 X113.6 Y103.959
G1 F1125 X113.6 Y149.141 E15.53508
G0 F7200 X115.2 Y149.537
G1 F1125 X115.2 Y103.568 E19.20452
G0 F7200 X116.8 Y103.568
G1 F1125 X116.8 Y148.419 E22.78473
G0 F7200 X118.4 Y146.071
G1 F1125 X118.4 Y103.568 E26.1775
G0 F7200 X120 Y103.568
G1 F1125 X120 Y145.12 E29.49436
G0 F7200 X121.6 Y144.787
G1 F1125 X121.6 Y103.568 E32.78464
G0 F7200 X123.2 Y103.568
G1 F1125 X123.2 Y144.768 E36.0734
G0 F7200 X124.8 Y144.768
G1 F1125 X124.8 Y103.57 E39.362
G0 F7200 X126.4 Y103.96
G1 F1125 X126.4 Y144.489 E42.5972
G0 F7200 X128 Y144.593
G1 F1125 X128 Y103.99 E45.83831
G0 F7200 X129.6 Y103.739
G1 F1125 X129.6 Y144.939 E49.12707
G0 F7200 X131.2 Y144.939
G1 F1125 X131.2 Y103.739 E52.41583
G0 F7200 X132.8 Y103.739
G1 F1125 X132.8 Y144.976 E55.70755
G0 F7200 X134.4 Y145.421
G1 F1125 X134.4 Y103.739 E59.03479
G0 F7200 X136 Y103.739
G1 F1125 X136 Y146.519 E62.44967
G0 F7200 X137.6 Y149.327
G1 F1125 X137.6 Y103.739 E66.0887
G0 F7200 X139.2 Y103.739
G1 F1125 X139.2 Y149.707 E69.75807
G1 F3600 E68.95807
G0 F300 X139.2 Y149.707 Z0.54
G0 F7200 X137.339 Y148.711
;TIME_ELAPSED:53.140271
;LAYER:-5
;TYPE:SUPPORT
G1 F3600 E69.75807
G1 F1125 X137.465 Y149.109 E69.79972
G1 X137.516 Y149.218 E69.81173
G1 X137.549 Y149.269 E69.81779
G1 X137.713 Y149.456 E69.84261
G1 X137.825 Y149.555 E69.85752
G1 X137.885 Y149.598 E69.86489
G1 X137.952 Y149.633 E69.87243
G1 X138.068 Y149.675 E69.88474
G1 X138.12 Y149.686 E69.89005
G1 X138.392 Y149.705 E69.91725
G1 X137.303 Y148.617 E70.07085
G1 X137.1 Y148.085 E70.12767
G1 X136.775 Y147.485 E70.19575
G1 X136.38 Y146.929 E70.26381
G1 X135.916 Y146.428 E70.33194
G1 X135.393 Y145.989 E70.40008
G1 X134.819 Y145.62 E70.46816
G1 X134.201 Y145.325 E70.53649
G1 F3600 E69.73649
G0 F7200 X133.81 Y146.319
G0 X116.041 Y150.585
G0 X114.363 Y150.601
G0 X114.163 Y149.519
G1 F3600 E70.53649
G1 F1125 X114.399 Y149.536 E70.5601
G1 X115.594 Y149.536 E70.67934
G1 X113.49 Y147.431 E70.97631
G1 X113.49 Y146.017 E71.1174
G1 X116.551 Y149.078 E71.54934
G1 X116.581 Y149.036 E71.55449
G1 X116.618 Y148.964 E71.56256
G1 X116.703 Y148.729 E71.5875
G1 X116.753 Y148.539 E71.6071
G1 X116.941 Y148.054 E71.65901
G1 X113.509 Y144.621 E72.14337
G1 X113.511 Y144.29 E72.1764
G1 X113.491 Y143.919 E72.21347
G1 X113.49 Y143.189 E72.28631
G1 X117.441 Y147.139 E72.84377
G1 X117.721 Y146.749 E72.89167
G1 X118.079 Y146.363 E72.9442
G1 X113.49 Y141.774 E73.59176
G1 X113.49 Y140.36 E73.73285
G1 X118.849 Y145.719 E74.48906
G1 X119.283 Y145.442 E74.54044
G1 X119.761 Y145.217 E74.59315
G1 X113.49 Y138.946 E75.47806
G1 X113.49 Y137.532 E75.61915
G1 X120.84 Y144.881 E76.65624
G1 X121.221 Y144.809 E76.69493
G1 X121.888 Y144.766 E76.76162
G1 X122.139 Y144.766 E76.78667
G1 X113.49 Y136.118 E78.00706
G1 X113.49 Y134.703 E78.14825
G1 X123.553 Y144.766 E79.56825
G1 X124.828 Y144.767 E79.69547
G1 X124.961 Y144.76 E79.70876
G1 X113.49 Y133.289 E81.32744
G1 X113.49 Y131.875 E81.46853
G1 X126.129 Y144.514 E83.25203
G1 X126.644 Y144.464 E83.30366
G1 X127.326 Y144.485 E83.37174
G1 X127.55 Y144.52 E83.39436
G1 X113.49 Y130.461 E85.37831
G1 X113.49 Y129.046 E85.5195
G1 X129.381 Y144.937 E87.76189
G1 X130.795 Y144.937 E87.90298
G1 X113.49 Y127.632 E90.3449
G1 X113.49 Y126.218 E90.48599
G1 X132.21 Y144.938 E93.12759
G1 X132.883 Y144.981 E93.19488
G1 X133.554 Y145.112 E93.26309
G1 X133.918 Y145.232 E93.30133
G1 X113.49 Y124.804 E96.18395
G1 X113.49 Y123.39 E96.32504
G1 X139.804 Y149.704 E100.03823
G1 X139.95 Y149.697 E100.05281
G1 X140.017 Y149.685 E100.0596
G1 X140.087 Y149.663 E100.06692
G1 X140.217 Y149.603 E100.08121
G1 X140.25 Y149.581 E100.08517
G1 X140.403 Y149.447 E100.10546
G1 X140.471 Y149.371 E100.11564
G1 X140.512 Y149.314 E100.12264
G1 X140.548 Y149.246 E100.13032
G1 X140.589 Y149.13 E100.1426
G1 X140.598 Y149.084 E100.14727
G1 X113.49 Y121.975 E103.97258
G1 X113.49 Y120.561 E104.11366
G1 X140.62 Y147.691 E107.942
G1 X140.62 Y146.277 E108.08309
G1 X113.49 Y119.147 E111.91143
G1 X113.49 Y117.733 E112.05252
G1 X140.609 Y144.852 E115.8793
G1 X140.606 Y144.225 E115.94186
G1 X140.62 Y144.029 E115.96147
G1 X140.62 Y143.449 E116.01934
G1 X113.49 Y116.319 E119.84768
G1 X113.49 Y114.904 E119.98887
G1 X140.62 Y142.035 E123.81727
G1 X140.62 Y140.62 E123.95846
G1 X113.49 Y113.49 E127.7868
G1 X113.49 Y112.076 E127.92789
G1 X140.62 Y139.206 E131.75622
G1 X140.62 Y137.792 E131.89731
G1 X113.49 Y110.662 E135.72565
G1 X113.49 Y109.247 E135.86684
G1 X140.62 Y136.378 E139.69525
G1 X140.62 Y134.964 E139.83634
G1 X113.49 Y107.833 E143.66474
G1 X113.49 Y106.419 E143.80583
G1 X140.62 Y133.549 E147.63417
G1 X140.62 Y132.135 E147.77526
G1 X113.49 Y105.005 E151.60359
G1 X113.49 Y104.47 E151.65698
G1 X113.509 Y104.197 E151.68428
G1 X113.521 Y104.144 E151.6897
G1 X113.566 Y104.02 E151.70287
G1 X113.6 Y103.956 E151.7101
G1 X113.636 Y103.906 E151.71625
G1 X113.703 Y103.832 E151.72621
G1 X113.719 Y103.819 E151.72826
G1 X140.62 Y130.721 E155.52436
G1 X140.62 Y129.307 E155.66544
G1 X114.882 Y103.568 E159.29742
G1 X116.296 Y103.568 E159.43851
G1 X140.62 Y127.892 E162.87089
G1 X140.62 Y126.478 E163.01198
G1 X117.71 Y103.568 E166.24483
G1 X119.124 Y103.568 E166.38592
G1 X140.62 Y125.064 E169.41924
G1 X140.62 Y123.65 E169.56033
G1 X120.539 Y103.568 E172.39404
G1 X121.953 Y103.568 E172.53513
G1 X140.62 Y122.236 E175.16932
G1 X140.62 Y120.821 E175.31051
G1 X123.367 Y103.568 E177.74509
G1 X124.781 Y103.568 E177.88618
G1 X140.62 Y119.407 E180.12124
G1 X140.62 Y117.993 E180.26233
G1 X126.623 Y103.995 E182.23753
G1 X126.784 Y104.021 E182.2538
G1 X127.467 Y104.042 E182.32198
G1 X128.03 Y103.988 E182.37841
G1 X140.62 Y116.579 E184.15507
G1 X140.62 Y115.165 E184.29616
G1 X129.199 Y103.743 E185.90786
G1 X129.283 Y103.738 E185.91625
G1 X130.608 Y103.738 E186.04846
G1 X140.62 Y113.75 E187.46126
G1 X140.62 Y112.336 E187.60235
G1 X132.023 Y103.738 E188.81555
G1 X133.437 Y103.738 E188.95664
G1 X140.62 Y110.922 E189.97031
G1 X140.62 Y109.508 E190.1114
G1 X134.851 Y103.738 E190.92554
G1 X136.265 Y103.738 E191.06663
G1 X140.62 Y108.093 E191.68117
G1 X140.62 Y106.679 E191.82226
G1 X137.68 Y103.738 E192.23719
G1 X139.094 Y103.738 E192.37828
G1 X140.62 Y105.265 E192.59369
G0 F7200 X140.62 Y104.6
G1 F1125 X140.609 Y104.404 E192.61328
G1 X140.598 Y104.34 E192.61976
G1 X140.578 Y104.277 E192.62635
G1 X140.514 Y104.139 E192.64153
G1 X140.499 Y104.118 E192.6441
G1 X140.353 Y103.948 E192.66646
G1 X140.28 Y103.883 E192.67622
G1 X140.229 Y103.849 E192.68233
G1 X140.159 Y103.811 E192.69028
G1 X140.043 Y103.77 E192.70256
G1 X139.99 Y103.758 E192.70798
G1 X139.712 Y103.738 E192.73579
G1 X139.094 Y103.738 E192.79745
G1 F3600 E191.99745
G0 F7200 X139.094 Y102.674
G0 X124.82 Y102.504
G0 X114.031 Y102.52
G0 X113.377 Y102.74
G0 X112.807 Y103.237
G0 X112.494 Y103.858
G0 X112.457 Y104.182
G0 X112.427 Y148.706
G0 X113.499 Y148.854
G1 F3600 E192.79745
G1 F1125 X114.163 Y149.519 E192.89122
G1 X114.121 Y149.516 E192.89542
G1 X114.069 Y149.505 E192.90073
G1 X113.948 Y149.462 E192.91354
G1 X113.887 Y149.429 E192.92046
G1 X113.817 Y149.38 E192.92899
G1 X113.76 Y149.328 E192.93668
G1 X113.614 Y149.162 E192.95874
G1 X113.593 Y149.131 E192.96248
G1 X113.533 Y149.003 E192.97658
G1 X113.515 Y148.944 E192.98274
G1 X113.499 Y148.86 E192.99127
G1 F3600 E192.19127
G0 F300 X113.499 Y148.86 Z0.74
G0 F7200 X113.784 Y149.6
;TIME_ELAPSED:122.486072
;LAYER:-4
;TYPE:SUPPORT-INTERFACE
G1 F3600 E192.99127
G1 F1500 X116.269 Y149.6 E193.07392
G1 X116.024 Y149.71 E193.08286
G1 X115.708 Y149.737 E193.0934
G1 X114.385 Y149.737 E193.13741
G1 X114.096 Y149.716 E193.14705
G0 F7200 X116.269 Y149.6
G1 F1500 X116.321 Y149.577 E193.14894
G1 X116.561 Y149.37 E193.15948
G1 X116.799 Y149.052 E193.17269
G1 X116.889 Y148.8 E193.18159
G1 X113.301 Y148.8 E193.30093
G1 X113.29 Y148.677 E193.30503
G1 X113.291 Y148 E193.32755
G1 X117.175 Y148 E193.45673
G1 X117.179 Y147.99 E193.45709
G1 X117.491 Y147.412 E193.47894
G1 X117.643 Y147.2 E193.48761
G1 X113.291 Y147.2 E193.63236
G1 X113.291 Y146.4 E193.65897
G1 X118.318 Y146.4 E193.82617
G1 X118.322 Y146.396 E193.82636
G1 X118.826 Y145.973 E193.84824
G1 X119.38 Y145.62 E193.87009
G1 X119.422 Y145.6 E193.87164
G1 X113.291 Y145.6 E194.07556
G1 X113.291 Y145.139 E194.09089
G1 X113.306 Y144.941 E194.09749
G1 X113.308 Y144.8 E194.10218
G1 X125.69 Y144.8 E194.51401
G0 F7200 X125.995 Y144.729
G1 F1500 X126.649 Y144.666 E194.53586
G1 X127.307 Y144.685 E194.55776
G1 X127.956 Y144.788 E194.57961
G1 X127.997 Y144.8 E194.58103
G1 X140.809 Y144.8 E195.00716
G1 X140.807 Y144.233 E195.02602
G1 X140.821 Y144.045 E195.03229
G1 X140.821 Y144 E195.03379
G1 X113.294 Y144 E195.94934
G1 X113.29 Y143.909 E195.95237
G1 X113.29 Y143.2 E195.97595
G1 X140.821 Y143.2 E196.89164
G1 X140.821 Y142.4 E196.91824
G1 X113.29 Y142.4 E197.83393
G1 X113.29 Y141.6 E197.86054
G1 X140.821 Y141.6 E198.77622
G1 X140.821 Y140.8 E198.80283
G1 X113.29 Y140.8 E199.71851
G1 X113.29 Y140 E199.74512
G1 X140.821 Y140 E200.66081
G1 X140.821 Y139.2 E200.68742
G1 X113.29 Y139.2 E201.6031
G1 X113.29 Y138.4 E201.62971
G1 X140.821 Y138.4 E202.54539
G1 X140.821 Y137.6 E202.572
G1 X113.29 Y137.6 E203.48769
G1 X113.29 Y136.8 E203.51429
G1 X140.821 Y136.8 E204.42998
G1 X140.821 Y136 E204.45659
G1 X113.29 Y136 E205.37227
G1 X113.29 Y135.2 E205.39888
G1 X140.821 Y135.2 E206.31456
G1 X140.821 Y134.4 E206.34117
G1 X113.29 Y134.4 E207.25686
G1 X113.29 Y133.6 E207.28347
G1 X140.821 Y133.6 E208.19915
G1 X140.821 Y132.8 E208.22576
G1 X113.29 Y132.8 E209.14144
G1 X113.29 Y132 E209.16805
G1 X140.821 Y132 E210.08374
G1 X140.821 Y131.2 E210.11034
G1 X113.29 Y131.2 E211.02603
G1 X113.29 Y130.4 E211.05264
G1 X140.821 Y130.4 E211.96832
G1 X140.821 Y129.6 E211.99493
G1 X113.29 Y129.6 E212.91061
G1 X113.29 Y128.8 E212.93722
G1 X140.821 Y128.8 E213.85291
G1 X140.821 Y128 E213.87952
G1 X113.29 Y128 E214.7952
G1 X113.29 Y127.2 E214.82181
G1 X140.821 Y127.2 E215.73749
G1 X140.821 Y126.4 E215.7641
G1 X113.29 Y126.4 E216.67979
G1 X113.29 Y125.6 E216.70639
G1 X140.821 Y125.6 E217.62208
G1 X140.821 Y124.8 E217.64869
G1 X113.29 Y124.8 E218.56437
G1 X113.29 Y124 E218.59098
G1 X140.821 Y124 E219.50666
G1 X140.821 Y123.2 E219.53327
G1 X113.29 Y123.2 E220.44896
G1 X113.29 Y122.4 E220.47557
G1 X140.821 Y122.4 E221.39125
G1 X140.821 Y121.6 E221.41786
G1 X113.29 Y121.6 E222.33354
G1 X113.29 Y120.8 E222.36015
G1 X140.821 Y120.8 E223.27584
G1 X140.821 Y120 E223.30244
G1 X113.29 Y120 E224.21813
G1 X113.29 Y119.2 E224.24474
G1 X140.821 Y119.2 E225.16042
G1 X140.821 Y118.4 E225.18703
G1 X113.291 Y118.4 E226.10268
G1 X113.291 Y117.6 E226.12929
G1 X140.821 Y117.6 E227.04494
G1 X140.821 Y116.8 E227.07155
G1 X113.291 Y116.8 E227.9872
G1 X113.291 Y116 E228.01381
G1 X140.821 Y116 E228.92946
G1 X140.821 Y115.2 E228.95607
G1 X113.291 Y115.2 E229.87172
G1 X113.291 Y114.4 E229.89833
G1 X140.821 Y114.4 E230.81398
G1 X140.821 Y113.6 E230.84059
G1 X113.291 Y113.6 E231.75624
G1 X113.291 Y112.8 E231.78285
G1 X140.821 Y112.8 E232.6985
G1 X140.821 Y112 E232.72511
G1 X113.291 Y112 E233.64076
G1 X113.291 Y111.2 E233.66737
G1 X140.821 Y111.2 E234.58302
G1 X140.821 Y110.4 E234.60963
G1 X113.291 Y110.4 E235.52528
G1 X113.291 Y109.6 E235.55189
G1 X140.821 Y109.6 E236.46754
G1 X140.821 Y108.8 E236.49415
G1 X113.291 Y108.8 E237.4098
G1 X113.291 Y108 E237.43641
G1 X140.821 Y108 E238.35206
G1 X140.821 Y107.2 E238.37867
G1 X113.291 Y107.2 E239.29432
G1 X113.291 Y106.4 E239.32092
G1 X140.821 Y106.4 E240.23658
G1 X140.821 Y105.6 E240.26318
G1 X113.291 Y105.6 E241.17884
G1 X113.291 Y104.8 E241.20544
G1 X140.821 Y104.8 E242.1211
G1 X140.821 Y104.61 E242.12741
G1 X140.794 Y104.295 E242.13793
