;FLAVOR:Marlin
;TIME:21102
;Filament used: 14.8799m
;Layer height: 0.2
;MINX:62.679
;MINY:44.003
;MINZ:0.2
;MAXX:217.321
;MAXY:215.997
;MAXZ:31
;Generated with Creality Slicer 4.8.2-254
M140 S60
M105
M190 S60
M104 S195
M105
M109 S195
M82 ;absolute extrusion mode

G28 ;Home

G92 E0 ;Reset Extruder
G1 Z2.0 F3000 ;Move Z Axis up
G1 X10.1 Y20 Z0.28 F5000.0 ;Move to start position
G1 X10.1 Y200.0 Z0.28 F1500.0 E15 ;Draw the first line
G1 X10.4 Y200.0 Z0.28 F5000.0 ;Move to side a little
G1 X10.4 Y20 Z0.28 F1500.0 E30 ;Draw the second line
G92 E0 ;Reset Extruder
G1 Z2.0 F3000 ;Move Z Axis up

G92 E0
G92 E0
G1 F3600 E-0.8
;LAYER_COUNT:155
;LAYER:0
M107
G0 F6000 X77.177 Y71.273 Z0.2
;TYPE:SKIRT
G1 F3600 E0
G1 F1200 X77.592 Y70.832 E0.02014
G1 X78.215 Y70.182 E0.05009
G1 X78.591 Y69.795 E0.06803
G1 X79.314 Y69.067 E0.10216
G1 X79.69 Y68.696 E0.11973
G1 X80.348 Y68.055 E0.15028
G1 X80.691 Y67.727 E0.16607
G1 X81.459 Y67.004 E0.20115
G1 X81.816 Y66.674 E0.21732
G1 X82.519 Y66.036 E0.24889
G1 X82.954 Y65.646 E0.26832
G1 X83.633 Y65.051 E0.29835
G1 X84.087 Y64.66 E0.31828
G1 X84.795 Y64.061 E0.34913
G1 X85.169 Y63.751 E0.36528
G1 X85.948 Y63.112 E0.39879
G1 X86.384 Y62.762 E0.41739
G1 X87.092 Y62.203 E0.44739
G1 X87.556 Y61.844 E0.46691
G1 X88.263 Y61.305 E0.49647
G1 X88.707 Y60.974 E0.51489
G1 X89.545 Y60.359 E0.54947
G1 X89.871 Y60.124 E0.56283
G1 X90.745 Y59.505 E0.59845
G1 X91.203 Y59.188 E0.61698
G1 X91.916 Y58.702 E0.64568
G1 X92.387 Y58.388 E0.66451
G1 X93.184 Y57.863 E0.69625
G1 X93.65 Y57.562 E0.7147
G1 X94.407 Y57.083 E0.7445
G1 X94.926 Y56.761 E0.76481
G1 X95.755 Y56.257 E0.79708
G1 X96.21 Y55.987 E0.81468
G1 X96.953 Y55.552 E0.84331
G1 X97.522 Y55.225 E0.86514
G1 X98.312 Y54.782 E0.89526
G1 X98.784 Y54.523 E0.91317
G1 X99.634 Y54.065 E0.94529
G1 X100.139 Y53.798 E0.96429
G1 X100.917 Y53.397 E0.9934
G1 X101.455 Y53.124 E1.01346
G1 X102.256 Y52.728 E1.04318
G1 X102.791 Y52.469 E1.06295
G1 X103.589 Y52.091 E1.09232
G1 X104.186 Y51.814 E1.11421
G1 X104.923 Y51.481 E1.14111
G1 X105.507 Y51.223 E1.16234
G1 X106.349 Y50.86 E1.19284
G1 X106.81 Y50.665 E1.20949
G1 X107.812 Y50.254 E1.24551
G1 X108.225 Y50.089 E1.2603
G1 X109.122 Y49.737 E1.29235
G1 X109.579 Y49.563 E1.30862
G1 X110.559 Y49.199 E1.34339
G1 X111.011 Y49.037 E1.35936
G1 X111.966 Y48.701 E1.39303
G1 X112.462 Y48.531 E1.41047
G1 X113.361 Y48.232 E1.44198
G1 X113.798 Y48.092 E1.45724
G1 X114.803 Y47.776 E1.49228
G1 X115.297 Y47.626 E1.50945
G1 X116.188 Y47.364 E1.54034
G1 X116.741 Y47.207 E1.55946
G1 X117.664 Y46.954 E1.59129
G1 X118.09 Y46.841 E1.60595
G1 X119.151 Y46.568 E1.64239
G1 X119.528 Y46.475 E1.6553
G1 X120.506 Y46.241 E1.68875
G1 X121.931 Y45.923 E1.73731
G1 X122.442 Y45.814 E1.75469
G1 X123.515 Y45.597 E1.7911
G1 X124.017 Y45.501 E1.8081
G1 X124.881 Y45.341 E1.83733
G1 X125.477 Y45.238 E1.85744
G1 X126.372 Y45.089 E1.88762
G1 X126.954 Y44.997 E1.90722
G1 X127.898 Y44.858 E1.93895
G1 X128.39 Y44.79 E1.95547
G1 X129.307 Y44.67 E1.98623
G1 X129.897 Y44.598 E2.006
G1 X130.855 Y44.49 E2.03807
G1 X131.407 Y44.433 E2.05652
G1 X132.251 Y44.353 E2.08472
G1 X132.95 Y44.292 E2.10806
G1 X134.165 Y44.2 E2.14859
G1 X135.4 Y44.126 E2.18974
G1 X135.779 Y44.106 E2.20236
G1 X136.788 Y44.063 E2.23595
G1 X137.342 Y44.044 E2.25439
G1 X138.29 Y44.019 E2.28593
G1 X138.803 Y44.011 E2.30299
G1 X139.72 Y44.003 E2.33349
G1 X140.28 Y44.003 E2.35212
G1 X141.28 Y44.012 E2.38538
G1 X141.819 Y44.022 E2.40331
G1 X142.757 Y44.047 E2.43452
G1 X143.305 Y44.066 E2.45276
G1 X144.311 Y44.111 E2.48625
G1 X144.689 Y44.131 E2.49884
G1 X145.835 Y44.2 E2.53703
G1 X147.05 Y44.292 E2.57755
G1 X147.832 Y44.36 E2.60366
G1 X148.685 Y44.442 E2.63216
G1 X149.23 Y44.5 E2.65039
G1 X150.223 Y44.612 E2.68363
G1 X150.782 Y44.681 E2.70236
G1 X151.673 Y44.799 E2.73225
G1 X152.217 Y44.874 E2.75052
G1 X153.155 Y45.014 E2.78206
G1 X153.713 Y45.103 E2.80086
G1 X154.61 Y45.252 E2.8311
G1 X155.119 Y45.341 E2.84829
G1 X156.059 Y45.515 E2.88008
G1 X156.591 Y45.618 E2.8981
G1 X157.651 Y45.834 E2.93408
G1 X158.05 Y45.918 E2.94765
G1 X159.041 Y46.137 E2.9814
G1 X159.494 Y46.241 E2.99686
G1 X160.554 Y46.495 E3.03311
G1 X160.951 Y46.594 E3.04672
G1 X161.987 Y46.861 E3.08231
G1 X162.431 Y46.979 E3.09759
G1 X163.356 Y47.234 E3.1295
G1 X163.901 Y47.39 E3.14836
G1 X164.803 Y47.656 E3.17963
G1 X165.293 Y47.806 E3.19668
G1 X166.276 Y48.115 E3.23095
G1 X166.739 Y48.265 E3.24714
G1 X167.635 Y48.564 E3.27855
G1 X168.11 Y48.728 E3.29527
G1 X169.069 Y49.065 E3.32908
G1 X169.547 Y49.238 E3.34598
G1 X170.526 Y49.602 E3.38072
G1 X170.951 Y49.766 E3.39587
G1 X171.846 Y50.117 E3.42785
G1 X172.301 Y50.299 E3.44415
G1 X173.279 Y50.703 E3.47934
G1 X173.736 Y50.896 E3.49584
G1 X174.591 Y51.266 E3.52683
G1 X175.159 Y51.518 E3.5475
G1 X175.907 Y51.857 E3.57481
G1 X176.492 Y52.129 E3.59627
G1 X177.299 Y52.512 E3.62598
G1 X177.822 Y52.766 E3.64532
G1 X178.646 Y53.175 E3.67591
G1 X179.151 Y53.432 E3.69476
G1 X179.957 Y53.849 E3.72494
G1 X180.433 Y54.101 E3.74286
G1 X181.299 Y54.568 E3.77558
G1 X181.773 Y54.829 E3.79358
G1 X182.564 Y55.274 E3.82376
G1 X183.135 Y55.603 E3.84568
G1 X183.859 Y56.027 E3.87359
G1 X184.331 Y56.309 E3.89188
G1 X185.158 Y56.813 E3.92409
G1 X185.681 Y57.138 E3.94457
G1 X186.434 Y57.616 E3.97423
G1 X186.888 Y57.91 E3.99222
G1 X187.681 Y58.432 E4.0238
G1 X188.172 Y58.762 E4.04348
G1 X188.881 Y59.245 E4.07201
G1 X189.336 Y59.562 E4.09045
G1 X190.129 Y60.124 E4.12278
G1 X191.368 Y61.029 E4.17381
G1 X191.814 Y61.364 E4.19236
G1 X192.527 Y61.907 E4.22217
G1 X192.978 Y62.258 E4.24118
G1 X193.683 Y62.816 E4.27108
G1 X194.138 Y63.182 E4.29051
G1 X194.886 Y63.796 E4.32269
G1 X195.289 Y64.131 E4.34012
G1 X195.978 Y64.716 E4.37019
G1 X196.447 Y65.12 E4.39077
G1 X197.132 Y65.723 E4.42113
G1 X197.535 Y66.085 E4.43914
G1 X198.258 Y66.742 E4.47164
G1 X198.613 Y67.071 E4.48774
G1 X199.371 Y67.786 E4.52239
G1 X199.722 Y68.123 E4.53858
G1 X200.374 Y68.758 E4.56885
G1 X200.759 Y69.14 E4.58689
G1 X201.484 Y69.873 E4.62118
G1 X201.828 Y70.227 E4.63759
G1 X202.49 Y70.918 E4.66942
G1 X202.881 Y71.336 E4.68846
G1 X203.465 Y71.969 E4.7171
G1 X203.843 Y72.384 E4.73578
G1 X204.545 Y73.17 E4.77083
G1 X204.857 Y73.528 E4.78662
G1 X205.481 Y74.252 E4.81841
G1 X205.869 Y74.711 E4.8384
G1 X206.45 Y75.413 E4.86871
G1 X206.768 Y75.802 E4.88542
G1 X207.367 Y76.546 E4.91719
G1 X207.767 Y77.054 E4.93869
G1 X208.239 Y77.664 E4.96435
G1 X208.61 Y78.151 E4.98471
G1 X209.23 Y78.982 E5.01919
G1 X209.494 Y79.343 E5.03407
G1 X210.076 Y80.152 E5.06722
G1 X210.384 Y80.587 E5.08494
G1 X210.914 Y81.351 E5.11587
G1 X211.228 Y81.812 E5.13442
G1 X211.754 Y82.597 E5.16585
G1 X212.048 Y83.047 E5.18373
G1 X212.586 Y83.883 E5.21679
G1 X212.918 Y84.41 E5.23751
G1 X213.317 Y85.055 E5.26274
G1 X213.612 Y85.539 E5.28159
G1 X214.151 Y86.444 E5.31662
G1 X214.382 Y86.841 E5.3319
G1 X214.885 Y87.718 E5.36553
G1 X215.142 Y88.176 E5.38299
G1 X215.601 Y89.011 E5.41469
G1 X215.765 Y89.319 E5.42629
G1 X216.082 Y89.929 E5.44916
G1 X216.478 Y90.779 E5.48035
G1 X216.801 Y91.659 E5.51152
G1 X217.048 Y92.564 E5.54272
G1 X217.216 Y93.487 E5.57393
G1 X217.306 Y94.42 E5.6051
G1 X217.315 Y95.358 E5.6363
G1 X217.245 Y96.293 E5.66749
G1 X217.095 Y97.219 E5.69869
G1 X216.867 Y98.129 E5.72989
G1 X216.689 Y98.675 E5.74899
G1 X216.26 Y99.884 E5.79166
G1 X216.114 Y100.278 E5.80564
G1 X215.317 Y102.629 E5.8882
G1 X214.585 Y105.003 E5.97083
G1 X213.899 Y107.489 E6.0566
G1 X213.297 Y109.922 E6.13997
G1 X212.77 Y112.362 E6.22299
G1 X212.304 Y114.845 E6.30702
G1 X211.91 Y117.334 E6.39083
G1 X211.586 Y119.839 E6.47484
G1 X211.335 Y122.332 E6.55818
G1 X211.153 Y124.844 E6.64195
G1 X211.044 Y127.329 E6.72468
G1 X211.004 Y129.889 E6.80984
G1 X211.036 Y132.377 E6.8926
G1 X211.139 Y134.899 E6.97655
G1 X211.315 Y137.426 E7.0608
G1 X211.56 Y139.931 E7.14451
G1 X211.873 Y142.412 E7.22769
G1 X212.261 Y144.897 E7.31134
G1 X212.72 Y147.391 E7.39568
G1 X213.236 Y149.81 E7.47795
G1 X213.843 Y152.299 E7.56316
G1 X214.503 Y154.709 E7.64627
G1 X215.239 Y157.127 E7.73033
G1 X216.04 Y159.515 E7.81411
G1 X216.267 Y160.131 E7.83594
G1 X216.691 Y161.329 E7.87821
G1 X216.966 Y162.226 E7.90942
G1 X217.163 Y163.142 E7.94058
G1 X217.282 Y164.073 E7.9718
G1 X217.321 Y165.01 E8.00299
G1 X217.28 Y165.947 E8.03418
G1 X217.16 Y166.877 E8.06537
G1 X216.96 Y167.793 E8.09655
G1 X216.683 Y168.689 E8.12775
G1 X216.331 Y169.559 E8.15896
G1 X216.079 Y170.076 E8.17809
G1 X215.746 Y170.716 E8.20209
G1 X215.635 Y170.924 E8.20993
G1 X215.094 Y171.911 E8.24736
G1 X214.841 Y172.359 E8.26448
G1 X214.337 Y173.238 E8.29818
G1 X214.125 Y173.6 E8.31213
G1 X213.572 Y174.526 E8.348
G1 X213.305 Y174.966 E8.36512
G1 X212.863 Y175.678 E8.39299
G1 X212.536 Y176.197 E8.4134
G1 X212.013 Y177.007 E8.44547
G1 X211.703 Y177.479 E8.46425
G1 X211.192 Y178.241 E8.49476
G1 X210.863 Y178.725 E8.51423
G1 X210.341 Y179.475 E8.54462
G1 X210.043 Y179.896 E8.56178
G1 X209.454 Y180.712 E8.59525
G1 X209.157 Y181.117 E8.61195
G1 X208.638 Y181.811 E8.64078
G1 X208.202 Y182.384 E8.66472
G1 X207.707 Y183.022 E8.69158
G1 X207.33 Y183.501 E8.71186
G1 X206.732 Y184.244 E8.74358
G1 X206.417 Y184.629 E8.76012
G1 X205.801 Y185.37 E8.79217
G1 X205.415 Y185.824 E8.81199
G1 X204.808 Y186.529 E8.84293
G1 X204.463 Y186.922 E8.86033
G1 X203.771 Y187.695 E8.89483
G1 X203.429 Y188.07 E8.91172
G1 X202.85 Y188.697 E8.9401
G1 X202.41 Y189.166 E8.96149
G1 X201.784 Y189.819 E8.99158
G1 X201.434 Y190.178 E9.00825
G1 X200.723 Y190.895 E9.04184
G1 X200.316 Y191.299 E9.06091
G1 X199.717 Y191.882 E9.08871
G1 X199.315 Y192.266 E9.1072
G1 X198.542 Y192.995 E9.14254
G1 X198.187 Y193.323 E9.15862
G1 X197.498 Y193.95 E9.1896
G1 X197.058 Y194.343 E9.20923
G1 X196.357 Y194.958 E9.24024
G1 X195.934 Y195.321 E9.25878
G1 X195.21 Y195.935 E9.29035
G1 X194.841 Y196.242 E9.30632
G1 X194.1 Y196.849 E9.33818
G1 X193.635 Y197.223 E9.35803
G1 X192.908 Y197.797 E9.38884
G1 X192.447 Y198.153 E9.40821
G1 X191.74 Y198.692 E9.43778
G1 X191.293 Y199.026 E9.45634
G1 X190.455 Y199.641 E9.49091
G1 X190.13 Y199.875 E9.50423
G1 X189.281 Y200.477 E9.53884
G1 X188.796 Y200.814 E9.55849
G1 X188.11 Y201.281 E9.58609
G1 X187.616 Y201.612 E9.60587
G1 X186.817 Y202.137 E9.63767
G1 X186.384 Y202.416 E9.6548
G1 X185.593 Y202.917 E9.68594
G1 X185.067 Y203.243 E9.70652
G1 X184.261 Y203.732 E9.73788
G1 X183.79 Y204.013 E9.75612
G1 X183.039 Y204.453 E9.78507
G1 X182.485 Y204.77 E9.8063
G1 X181.742 Y205.188 E9.83465
G1 X181.258 Y205.454 E9.85302
G1 X180.354 Y205.942 E9.88719
G1 X179.874 Y206.195 E9.90524
G1 X179.083 Y206.603 E9.93484
G1 X178.545 Y206.876 E9.95491
G1 X177.743 Y207.273 E9.98467
G1 X177.217 Y207.527 E10.0041
G1 X176.411 Y207.909 E10.03376
G1 X175.814 Y208.186 E10.05565
G1 X175.069 Y208.523 E10.08285
G1 X174.497 Y208.775 E10.10364
G1 X173.651 Y209.14 E10.13428
G1 X173.19 Y209.334 E10.15092
G1 X172.239 Y209.726 E10.18513
G1 X171.757 Y209.919 E10.2024
G1 X170.406 Y210.444 E10.25061
G1 X169.459 Y210.794 E10.28419
G1 X168.989 Y210.963 E10.3008
G1 X168.034 Y211.299 E10.33447
G1 X167.537 Y211.469 E10.35194
G1 X166.657 Y211.761 E10.38278
G1 X166.205 Y211.907 E10.39858
G1 X165.197 Y212.224 E10.43372
G1 X164.706 Y212.373 E10.45079
G1 X163.82 Y212.633 E10.4815
G1 X163.259 Y212.793 E10.5009
G1 X162.427 Y213.022 E10.52961
G1 X161.911 Y213.159 E10.54736
G1 X160.849 Y213.432 E10.58383
G1 X160.472 Y213.525 E10.59675
G1 X159.375 Y213.787 E10.63426
G1 X158.97 Y213.879 E10.64807
G1 X158.05 Y214.082 E10.67941
G1 X156.485 Y214.403 E10.73254
G1 X155.983 Y214.499 E10.74954
G1 X155.127 Y214.657 E10.7785
G1 X154.527 Y214.762 E10.79875
G1 X153.624 Y214.912 E10.8292
G1 X153.047 Y215.003 E10.84863
G1 X152.102 Y215.142 E10.8804
G1 X151.61 Y215.21 E10.89692
G1 X150.693 Y215.33 E10.92768
G1 X150.103 Y215.402 E10.94745
G1 X149.142 Y215.51 E10.97961
G1 X148.594 Y215.567 E10.99793
G1 X147.749 Y215.647 E11.02617
G1 X147.05 Y215.708 E11.0495
G1 X145.835 Y215.8 E11.09003
G1 X144.598 Y215.874 E11.13125
G1 X144.22 Y215.894 E11.14384
G1 X143.212 Y215.937 E11.17739
G1 X142.658 Y215.956 E11.19583
G1 X141.71 Y215.981 E11.22737
G1 X141.197 Y215.989 E11.24444
G1 X140.28 Y215.997 E11.27494
G1 X139.72 Y215.997 E11.29356
G1 X138.72 Y215.988 E11.32682
G1 X138.181 Y215.978 E11.34475
G1 X137.243 Y215.953 E11.37596
G1 X136.695 Y215.934 E11.3942
G1 X135.689 Y215.889 E11.42769
G1 X135.311 Y215.869 E11.44028
G1 X134.165 Y215.8 E11.47847
G1 X132.95 Y215.708 E11.519
G1 X132.168 Y215.64 E11.5451
G1 X131.315 Y215.558 E11.5736
G1 X130.77 Y215.5 E11.59183
G1 X129.777 Y215.388 E11.62507
G1 X129.218 Y215.319 E11.6438
G1 X128.327 Y215.201 E11.6737
G1 X127.783 Y215.126 E11.69196
G1 X126.845 Y214.986 E11.72351
G1 X126.291 Y214.898 E11.74216
G1 X125.374 Y214.745 E11.77308
G1 X124.773 Y214.639 E11.79338
G1 X123.941 Y214.485 E11.82152
G1 X123.409 Y214.382 E11.83955
G1 X122.349 Y214.166 E11.87553
G1 X121.95 Y214.082 E11.88909
G1 X120.959 Y213.863 E11.92285
G1 X120.506 Y213.759 E11.9383
G1 X119.446 Y213.505 E11.97456
G1 X119.049 Y213.406 E11.98817
G1 X118.013 Y213.139 E12.02375
G1 X117.569 Y213.021 E12.03903
G1 X116.647 Y212.766 E12.07085
G1 X116.085 Y212.606 E12.09028
G1 X115.197 Y212.344 E12.12108
G1 X114.707 Y212.194 E12.13812
G1 X113.719 Y211.883 E12.17257
G1 X113.241 Y211.728 E12.18928
G1 X112.365 Y211.436 E12.22
G1 X111.89 Y211.272 E12.23671
G1 X110.92 Y210.931 E12.27091
G1 X110.45 Y210.761 E12.28753
G1 X109.474 Y210.398 E12.32216
G1 X109.053 Y210.236 E12.33717
G1 X108.134 Y209.876 E12.37
G1 X107.677 Y209.691 E12.38639
G1 X106.721 Y209.297 E12.42079
G1 X106.264 Y209.104 E12.43729
G1 X105.409 Y208.734 E12.46827
G1 X104.841 Y208.482 E12.48894
G1 X104.093 Y208.143 E12.51625
G1 X103.506 Y207.87 E12.53778
G1 X102.696 Y207.486 E12.5676
G1 X102.178 Y207.234 E12.58676
G1 X101.354 Y206.825 E12.61736
G1 X100.85 Y206.569 E12.63616
G1 X100.038 Y206.149 E12.66656
G1 X99.557 Y205.894 E12.68467
G1 X98.655 Y205.407 E12.71876
G1 X98.182 Y205.146 E12.73673
G1 X97.436 Y204.726 E12.76521
G1 X96.865 Y204.397 E12.78713
G1 X96.127 Y203.964 E12.81558
G1 X95.674 Y203.693 E12.83314
G1 X94.842 Y203.187 E12.86553
G1 X94.316 Y202.86 E12.88613
G1 X93.534 Y202.364 E12.91693
G1 X93.116 Y202.093 E12.9335
G1 X92.292 Y201.551 E12.9663
G1 X91.831 Y201.241 E12.98478
G1 X91.108 Y200.748 E13.01389
G1 X90.646 Y200.425 E13.03263
G1 X89.736 Y199.778 E13.06977
G1 X88.636 Y198.973 E13.11511
G1 X88.176 Y198.628 E13.13423
G1 X87.473 Y198.093 E13.16362
G1 X87.024 Y197.743 E13.18255
G1 X86.284 Y197.158 E13.21392
G1 X85.825 Y196.788 E13.23353
G1 X85.099 Y196.192 E13.26477
G1 X84.703 Y195.862 E13.28192
G1 X84.019 Y195.281 E13.31177
G1 X83.548 Y194.876 E13.33243
G1 X82.865 Y194.274 E13.36271
G1 X82.445 Y193.898 E13.38146
G1 X81.742 Y193.258 E13.41308
G1 X81.386 Y192.927 E13.42925
G1 X80.628 Y192.212 E13.46391
G1 X80.283 Y191.882 E13.47978
G1 X79.602 Y191.218 E13.51142
G1 X79.216 Y190.834 E13.52953
G1 X78.491 Y190.102 E13.5638
G1 X78.162 Y189.763 E13.57951
G1 X77.503 Y189.074 E13.61122
G1 X77.101 Y188.644 E13.6308
G1 X76.534 Y188.031 E13.65857
G1 X76.146 Y187.604 E13.67776
G1 X75.457 Y186.832 E13.71217
G1 X75.139 Y186.467 E13.72828
G1 X74.528 Y185.758 E13.75941
G1 X74.126 Y185.283 E13.7801
G1 X73.51 Y184.541 E13.81218
G1 X72.677 Y183.508 E13.85631
G1 X72.234 Y182.947 E13.88009
G1 X71.74 Y182.308 E13.90695
G1 X71.362 Y181.811 E13.92772
G1 X70.769 Y181.017 E13.96068
G1 X70.496 Y180.643 E13.97608
G1 X69.903 Y179.82 E14.00982
G1 X69.606 Y179.4 E14.02693
G1 X69.076 Y178.635 E14.05788
G1 X68.767 Y178.18 E14.07618
G1 X68.235 Y177.387 E14.10794
G1 X67.937 Y176.931 E14.12606
G1 X67.411 Y176.112 E14.15843
G1 X67.085 Y175.596 E14.17873
G1 X66.644 Y174.882 E14.20664
G1 X66.385 Y174.455 E14.22325
G1 X65.79 Y173.455 E14.26196
G1 X65.117 Y172.286 E14.30682
G1 X64.854 Y171.817 E14.32471
G1 X64.399 Y170.989 E14.35613
G1 X64.235 Y170.681 E14.36773
G1 X63.918 Y170.071 E14.3906
G1 X63.522 Y169.221 E14.42179
G1 X63.199 Y168.341 E14.45297
G1 X62.952 Y167.436 E14.48417
G1 X62.784 Y166.513 E14.51537
G1 X62.694 Y165.58 E14.54655
G1 X62.685 Y164.642 E14.57775
G1 X62.755 Y163.707 E14.60893
G1 X62.905 Y162.781 E14.64013
G1 X63.133 Y161.871 E14.67133
G1 X63.311 Y161.325 E14.69043
G1 X63.74 Y160.116 E14.7331
G1 X63.886 Y159.722 E14.74708
